;  Created by Sandify
;  https://sandify.org
;  Version: 0.2.8
;
;  Machine type: Rectangular
;    Min X (mm): 0
;    Max X (mm): 250
;    Min Y (mm): 0
;    Max Y (mm): 250
;  Content type: shape
;  Layer:
;    Shape: Clover
;    Name: polygon
;    Large circle radius: 4
;    Small circle radius: 1
;    Visible: true
;    Initial width: 12
;    Initial height: 12
;    X offset: -3
;    Y offset: 0
;    Rotate (degrees): 0
;    Reverse path: false
;    Number of loops: 9
;    When transforming shape: smear
;    Scale: true
;      Scale (+/-): 110
;      Scale by: constant
;    Spin: false
;    Track: false
;    Fine tuning:
;      Connect to next layer: line
;      Draw portion of path (%): 100
;      Backtrack at end (%): 0
;      Rotate starting point (%): 0
;  Reverse export path: false
;
; File name: 'clover'
; File type: gcode
;

G1 X130.000 Y125.000
G1 X130.118 Y125.005
G1 X130.330 Y125.038
G1 X130.628 Y125.127
G1 X130.998 Y125.298
G1 X131.417 Y125.570
G1 X131.860 Y125.960
G1 X132.298 Y126.475
G1 X132.697 Y127.116
G1 X133.029 Y127.877
G1 X133.263 Y128.744
G1 X133.375 Y129.694
G1 X133.344 Y130.702
G1 X133.159 Y131.737
G1 X132.813 Y132.764
G1 X132.310 Y133.750
G1 X131.661 Y134.661
G1 X130.884 Y135.469
G1 X130.004 Y136.148
G1 X129.052 Y136.680
G1 X128.060 Y137.056
G1 X127.065 Y137.274
G1 X126.102 Y137.340
G1 X125.201 Y137.269
G1 X124.390 Y137.084
G1 X123.692 Y136.811
G1 X123.118 Y136.484
G1 X122.675 Y136.137
G1 X122.358 Y135.806
G1 X122.155 Y135.522
G1 X122.047 Y135.316
G1 X122.006 Y135.209
G1 X122.000 Y135.217
G1 X121.994 Y135.348
G1 X121.952 Y135.599
G1 X121.838 Y135.959
G1 X121.622 Y136.408
G1 X121.278 Y136.919
G1 X120.787 Y137.458
G1 X120.140 Y137.989
G1 X119.335 Y138.470
G1 X118.383 Y138.865
G1 X117.302 Y139.136
G1 X116.118 Y139.253
G1 X114.866 Y139.193
G1 X113.585 Y138.939
G1 X112.317 Y138.486
G1 X111.104 Y137.840
G1 X109.987 Y137.013
G1 X109.002 Y136.030
G1 X108.179 Y134.923
G1 X107.540 Y133.730
G1 X107.095 Y132.492
G1 X106.847 Y131.253
G1 X106.787 Y130.057
G1 X106.895 Y128.941
G1 X107.143 Y127.939
G1 X107.498 Y127.077
G1 X107.918 Y126.371
G1 X108.361 Y125.826
G1 X108.784 Y125.438
G1 X109.147 Y125.190
G1 X109.415 Y125.057
G1 X109.561 Y125.007
G1 X109.565 Y125.000
G1 X109.421 Y124.993
G1 X109.131 Y124.941
G1 X108.710 Y124.804
G1 X108.181 Y124.542
G1 X107.579 Y124.127
G1 X106.944 Y123.534
G1 X106.321 Y122.754
G1 X105.757 Y121.787
G1 X105.300 Y120.643
G1 X104.991 Y119.347
G1 X104.868 Y117.930
G1 X104.959 Y116.434
G1 X105.281 Y114.907
G1 X105.841 Y113.397
G1 X106.631 Y111.957
G1 X107.635 Y110.635
G1 X108.823 Y109.473
G1 X110.157 Y108.507
G1 X111.592 Y107.760
G1 X113.076 Y107.247
G1 X114.559 Y106.969
G1 X115.989 Y106.914
G1 X117.320 Y107.059
G1 X118.512 Y107.371
G1 X119.538 Y107.807
G1 X120.376 Y108.320
G1 X121.022 Y108.859
G1 X121.483 Y109.373
G1 X121.776 Y109.816
G1 X121.932 Y110.146
G1 X121.991 Y110.330
G1 X122.000 Y110.348
G1 X122.009 Y110.191
G1 X122.069 Y109.862
G1 X122.231 Y109.379
G1 X122.537 Y108.771
G1 X123.025 Y108.077
G1 X123.719 Y107.346
G1 X124.631 Y106.630
G1 X125.762 Y105.984
G1 X127.097 Y105.464
G1 X128.608 Y105.118
G1 X130.258 Y104.990
G1 X131.998 Y105.111
G1 X133.772 Y105.501
G1 X135.522 Y106.168
G1 X137.189 Y107.102
G1 X138.717 Y108.283
G1 X140.056 Y109.677
G1 X141.166 Y111.238
G1 X142.020 Y112.914
G1 X142.601 Y114.645
G1 X142.910 Y116.371
G1 X142.959 Y118.034
G1 X142.777 Y119.580
G1 X142.402 Y120.964
G1 X141.884 Y122.152
G1 X141.278 Y123.123
G1 X140.643 Y123.871
G1 X140.037 Y124.403
G1 X139.515 Y124.741
G1 X139.124 Y124.922
G1 X138.800 Y125.000
G1 X138.970 Y125.010
G1 X139.337 Y125.079
G1 X139.879 Y125.264
G1 X140.564 Y125.615
G1 X141.347 Y126.172
G1 X142.171 Y126.964
G1 X142.977 Y128.004
G1 X143.702 Y129.293
G1 X144.283 Y130.813
G1 X144.665 Y132.533
G1 X144.799 Y134.409
G1 X144.648 Y136.384
G1 X144.192 Y138.398
G1 X143.422 Y140.381
G1 X142.348 Y142.268
G1 X140.995 Y143.995
G1 X139.402 Y145.506
G1 X137.621 Y146.756
G1 X135.712 Y147.713
G1 X133.742 Y148.360
G1 X131.780 Y148.698
G1 X129.891 Y148.742
G1 X128.137 Y148.524
G1 X126.567 Y148.088
G1 X125.221 Y147.491
G1 X124.122 Y146.795
G1 X123.276 Y146.067
G1 X122.675 Y145.372
G1 X122.292 Y144.773
G1 X122.088 Y144.322
G1 X122.011 Y144.061
G1 X122.000 Y144.017
G1 X121.989 Y144.201
G1 X121.910 Y144.606
G1 X121.702 Y145.210
G1 X121.305 Y145.975
G1 X120.677 Y146.848
G1 X119.783 Y147.769
G1 X118.610 Y148.668
G1 X117.158 Y149.475
G1 X115.447 Y150.119
G1 X113.512 Y150.538
G1 X111.403 Y150.677
G1 X109.184 Y150.496
G1 X106.924 Y149.971
G1 X104.700 Y149.095
G1 X102.586 Y147.877
G1 X100.653 Y146.347
G1 X98.965 Y144.549
G1 X97.571 Y142.540
G1 X96.507 Y140.391
G1 X95.791 Y138.174
G1 X95.424 Y135.968
G1 X95.385 Y133.846
G1 X95.640 Y131.877
G1 X96.139 Y130.116
G1 X96.818 Y128.607
G1 X97.607 Y127.375
G1 X98.432 Y126.427
G1 X99.217 Y125.754
G1 X99.896 Y125.326
G1 X100.408 Y125.099
G1 X100.708 Y125.012
G1 X100.765 Y125.000
G1 X100.569 Y124.987
G1 X100.124 Y124.900
G1 X99.459 Y124.667
G1 X98.615 Y124.226
G1 X97.650 Y123.525
G1 X96.633 Y122.531
G1 X95.641 Y121.225
G1 X94.752 Y119.610
G1 X94.045 Y117.707
G1 X93.589 Y115.557
G1 X93.445 Y113.215
G1 X93.655 Y110.752
G1 X94.249 Y108.246
G1 X95.232 Y105.780
G1 X96.594 Y103.439
G1 X98.301 Y101.301
G1 X100.305 Y99.436
G1 X102.541 Y97.898
G1 X104.931 Y96.727
G1 X107.394 Y95.943
G1 X109.844 Y95.545
G1 X112.199 Y95.512
G1 X114.384 Y95.805
G1 X116.335 Y96.366
G1 X118.008 Y97.127
G1 X119.372 Y98.009
G1 X120.421 Y98.930
G1 X121.166 Y99.807
G1 X121.639 Y100.565
G1 X121.891 Y101.139
G1 X121.986 Y101.477
G1 X122.000 Y101.548
G1 X122.014 Y101.338
G1 X122.110 Y100.855
G1 X122.367 Y100.128
G1 X122.854 Y99.204
G1 X123.626 Y98.148
G1 X124.722 Y97.035
G1 X126.161 Y95.950
G1 X127.939 Y94.980
G1 X130.033 Y94.209
G1 X132.398 Y93.717
G1 X134.972 Y93.566
G1 X137.680 Y93.807
G1 X140.432 Y94.469
G1 X143.139 Y95.559
G1 X145.707 Y97.065
G1 X148.050 Y98.950
G1 X150.093 Y101.159
G1 X151.775 Y103.621
G1 X153.052 Y106.253
G1 X153.905 Y108.962
G1 X154.333 Y111.656
G1 X154.361 Y114.244
G1 X154.031 Y116.644
G1 X153.407 Y118.787
G1 X152.564 Y120.623
G1 X151.589 Y122.120
G1 X150.572 Y123.269
G1 X149.604 Y124.086
G1 X148.766 Y124.605
G1 X148.131 Y124.881
G1 X147.600 Y125.000
G1 X147.823 Y125.015
G1 X148.343 Y125.120
G1 X149.130 Y125.401
G1 X150.131 Y125.931
G1 X151.276 Y126.773
G1 X152.482 Y127.967
G1 X153.657 Y129.534
G1 X154.707 Y131.470
G1 X155.538 Y133.749
G1 X156.067 Y136.323
G1 X156.222 Y139.123
G1 X155.952 Y142.067
G1 X155.224 Y145.058
G1 X154.030 Y147.998
G1 X152.385 Y150.786
G1 X150.329 Y153.329
G1 X147.920 Y155.543
G1 X145.238 Y157.364
G1 X142.373 Y158.745
G1 X139.424 Y159.664
G1 X136.494 Y160.122
G1 X133.681 Y160.144
G1 X131.073 Y159.778
G1 X128.744 Y159.093
G1 X126.751 Y158.171
G1 X125.125 Y157.106
G1 X123.877 Y155.996
G1 X122.991 Y154.939
G1 X122.429 Y154.024
G1 X122.129 Y153.329
G1 X122.016 Y152.914
G1 X122.000 Y152.817
G1 X121.984 Y153.054
G1 X121.869 Y153.613
G1 X121.565 Y154.461
G1 X120.989 Y155.541
G1 X120.075 Y156.778
G1 X118.780 Y158.080
G1 X117.081 Y159.348
G1 X114.981 Y160.479
G1 X112.511 Y161.373
G1 X109.722 Y161.939
G1 X106.689 Y162.101
G1 X103.502 Y161.800
G1 X100.264 Y161.004
G1 X97.083 Y159.703
G1 X94.067 Y157.915
G1 X91.319 Y155.681
G1 X88.927 Y153.067
G1 X86.963 Y150.157
G1 X85.475 Y147.051
G1 X84.488 Y143.856
G1 X84.000 Y140.682
G1 X83.983 Y137.636
G1 X84.386 Y134.813
G1 X85.134 Y132.293
G1 X86.138 Y130.136
G1 X87.296 Y128.378
G1 X88.502 Y127.029
G1 X89.651 Y126.071
G1 X90.645 Y125.463
G1 X91.401 Y125.140
G1 X91.855 Y125.018
G1 X91.965 Y125.000
G1 X91.716 Y124.982
G1 X91.118 Y124.859
G1 X90.208 Y124.531
G1 X89.048 Y123.909
G1 X87.720 Y122.924
G1 X86.322 Y121.527
G1 X84.961 Y119.695
G1 X83.748 Y117.433
G1 X82.791 Y114.771
G1 X82.188 Y111.767
G1 X82.021 Y108.501
G1 X82.351 Y105.070
G1 X83.216 Y101.585
G1 X84.624 Y98.163
G1 X86.556 Y94.921
G1 X88.968 Y91.968
G1 X91.787 Y89.398
G1 X94.924 Y87.290
G1 X98.271 Y85.695
G1 X101.712 Y84.639
G1 X105.130 Y84.121
G1 X108.409 Y84.110
G1 X111.447 Y84.550
G1 X114.158 Y85.361
G1 X116.478 Y86.447
G1 X118.369 Y87.698
G1 X119.820 Y89.000
G1 X120.849 Y90.241
G1 X121.503 Y91.314
G1 X121.850 Y92.132
G1 X121.981 Y92.625
G1 X122.000 Y92.748
G1 X122.019 Y92.485
G1 X122.151 Y91.848
G1 X122.504 Y90.877
G1 X123.171 Y89.638
G1 X124.228 Y88.219
G1 X125.726 Y86.724
G1 X127.690 Y85.270
G1 X130.116 Y83.975
G1 X132.969 Y82.955
G1 X136.188 Y82.315
G1 X139.687 Y82.142
G1 X143.362 Y82.503
G1 X147.093 Y83.436
G1 X150.756 Y84.951
G1 X154.225 Y87.027
G1 X157.384 Y89.616
G1 X160.131 Y92.641
G1 X162.383 Y96.004
G1 X164.085 Y99.592
G1 X165.209 Y103.280
G1 X165.757 Y106.942
G1 X165.763 Y110.454
G1 X165.286 Y113.708
G1 X164.411 Y116.610
G1 X163.244 Y119.093
G1 X161.900 Y121.116
G1 X160.501 Y122.668
G1 X159.170 Y123.769
G1 X158.017 Y124.468
G1 X157.138 Y124.840
G1 X156.400 Y125.000
G1 X156.676 Y125.020
G1 X157.350 Y125.161
G1 X158.381 Y125.537
G1 X159.697 Y126.248
G1 X161.205 Y127.375
G1 X162.793 Y128.971
G1 X164.337 Y131.064
G1 X165.711 Y133.647
G1 X166.792 Y136.685
G1 X167.468 Y140.113
G1 X167.646 Y143.838
G1 X167.256 Y147.749
G1 X166.257 Y151.719
G1 X164.639 Y155.615
G1 X162.423 Y159.304
G1 X159.663 Y162.663
G1 X156.439 Y165.581
G1 X152.855 Y167.973
G1 X149.034 Y169.778
G1 X145.107 Y170.968
G1 X141.209 Y171.546
G1 X137.471 Y171.546
G1 X134.009 Y171.033
G1 X130.921 Y170.098
G1 X128.280 Y168.851
G1 X126.129 Y167.416
G1 X124.479 Y165.925
G1 X123.308 Y164.505
G1 X122.565 Y163.275
G1 X122.170 Y162.336
G1 X122.022 Y161.767
G1 X122.000 Y161.617
G1 X121.978 Y161.906
G1 X121.828 Y162.620
G1 X121.428 Y163.712
G1 X120.672 Y165.108
G1 X119.474 Y166.707
G1 X117.776 Y168.391
G1 X115.551 Y170.028
G1 X112.804 Y171.484
G1 X109.575 Y172.628
G1 X105.932 Y173.341
G1 X101.974 Y173.525
G1 X97.820 Y173.104
G1 X93.603 Y172.037
G1 X89.466 Y170.312
G1 X85.549 Y167.952
G1 X81.986 Y165.014
G1 X78.890 Y161.585
G1 X76.354 Y157.774
G1 X74.442 Y153.712
G1 X73.184 Y149.538
G1 X72.576 Y145.397
G1 X72.582 Y141.426
G1 X73.131 Y137.749
G1 X74.130 Y134.470
G1 X75.458 Y131.666
G1 X76.986 Y129.382
G1 X78.573 Y127.630
G1 X80.085 Y126.388
G1 X81.394 Y125.600
G1 X82.395 Y125.181
G1 X83.003 Y125.023
G1 X83.165 Y125.000
G1 X82.863 Y124.977
G1 X82.111 Y124.818
G1 X80.957 Y124.394
G1 X79.482 Y123.592
G1 X77.791 Y122.322
G1 X76.011 Y120.523
G1 X74.281 Y118.166
G1 X72.743 Y115.256
G1 X71.536 Y111.835
G1 X70.786 Y107.978
G1 X70.597 Y103.786
G1 X71.048 Y99.388
G1 X72.183 Y94.925
G1 X74.015 Y90.547
G1 X76.519 Y86.403
G1 X79.634 Y82.634
G1 X83.269 Y79.361
G1 X87.307 Y76.681
G1 X91.610 Y74.662
G1 X96.030 Y73.335
G1 X100.415 Y72.698
G1 X104.619 Y72.709
G1 X108.511 Y73.296
G1 X111.982 Y74.357
G1 X114.949 Y75.767
G1 X117.365 Y77.388
G1 X119.218 Y79.071
G1 X120.532 Y80.674
G1 X121.366 Y82.063
G1 X121.809 Y83.125
G1 X121.976 Y83.772
G1 X122.000 Y83.948
G1 X122.024 Y83.633
G1 X122.192 Y82.841
G1 X122.640 Y81.626
G1 X123.488 Y80.072
G1 X124.829 Y78.289
G1 X126.730 Y76.413
G1 X129.220 Y74.590
G1 X132.293 Y72.970
G1 X135.905 Y71.701
G1 X139.977 Y70.913
G1 X144.402 Y70.719
G1 X149.044 Y71.199
G1 X153.754 Y72.403
G1 X158.373 Y74.342
G1 X162.743 Y76.990
G1 X166.718 Y80.282
G1 X170.168 Y84.123
G1 X172.992 Y88.387
G1 X175.118 Y92.932
G1 X176.513 Y97.598
G1 X177.181 Y102.227
G1 X177.164 Y106.665
G1 X176.540 Y110.772
G1 X175.416 Y114.433
G1 X173.924 Y117.563
G1 X172.210 Y120.112
G1 X170.431 Y122.067
G1 X168.736 Y123.452
G1 X167.268 Y124.332
G1 X166.144 Y124.798
G1 X165.200 Y125.000
G1 X165.528 Y125.026
G1 X166.357 Y125.202
G1 X167.632 Y125.674
G1 X169.264 Y126.565
G1 X171.134 Y127.976
G1 X173.103 Y129.975
G1 X175.017 Y132.593
G1 X176.716 Y135.824
G1 X178.047 Y139.621
G1 X178.870 Y143.902
G1 X179.070 Y148.552
G1 X178.560 Y153.431
G1 X177.290 Y158.379
G1 X175.247 Y163.232
G1 X172.460 Y167.823
G1 X168.996 Y171.996
G1 X164.957 Y175.618
G1 X160.472 Y178.581
G1 X155.694 Y180.811
G1 X150.789 Y182.272
G1 X145.924 Y182.969
G1 X141.260 Y182.947
G1 X136.945 Y182.287
G1 X133.098 Y181.102
G1 X129.810 Y179.530
G1 X127.133 Y177.727
G1 X125.080 Y175.854
G1 X123.625 Y174.071
G1 X122.702 Y172.526
G1 X122.212 Y171.343
G1 X122.027 Y170.620
G1 X122.000 Y170.417
G1 X121.973 Y170.759
G1 X121.787 Y171.626
G1 X121.292 Y172.963
G1 X120.355 Y174.674
G1 X118.873 Y176.636
G1 X116.772 Y178.701
G1 X114.021 Y180.708
G1 X110.627 Y182.488
G1 X106.639 Y183.882
G1 X102.143 Y184.743
G1 X97.260 Y184.948
G1 X92.138 Y184.408
G1 X86.942 Y183.069
G1 X81.849 Y180.920
G1 X77.031 Y177.989
G1 X72.652 Y174.348
G1 X68.852 Y170.103
G1 X65.746 Y165.391
G1 X63.409 Y160.372
G1 X61.880 Y155.220
G1 X61.152 Y150.111
G1 X61.180 Y145.215
G1 X61.877 Y140.685
G1 X63.125 Y136.647
G1 X64.779 Y133.195
G1 X66.675 Y130.386
G1 X68.644 Y128.232
G1 X70.518 Y126.705
G1 X72.143 Y125.736
G1 X73.388 Y125.222
G1 X74.150 Y125.028
G1 X74.365 Y125.000
G1 X74.010 Y124.972
G1 X73.104 Y124.777
G1 X71.706 Y124.257
G1 X69.916 Y123.275
G1 X67.862 Y121.721
G1 X65.701 Y119.519
G1 X63.601 Y116.636
G1 X61.739 Y113.079
G1 X60.282 Y108.899
G1 X59.384 Y104.188
G1 X59.173 Y99.072
G1 X59.744 Y93.706
G1 X61.151 Y88.264
G1 X63.407 Y82.930
G1 X66.481 Y77.885
G1 X70.300 Y73.300
G1 X74.751 Y69.323
G1 X79.690 Y66.073
G1 X84.949 Y63.629
G1 X90.348 Y62.032
G1 X95.701 Y61.274
G1 X100.830 Y61.307
G1 X105.575 Y62.041
G1 X109.805 Y63.352
G1 X113.419 Y65.088
G1 X116.361 Y67.077
G1 X118.617 Y69.142
G1 X120.216 Y71.108
G1 X121.229 Y72.812
G1 X121.768 Y74.118
G1 X121.971 Y74.919
G1 X122.000 Y75.148
G1 X122.029 Y74.780
G1 X122.234 Y73.835
G1 X122.777 Y72.375
G1 X123.804 Y70.505
G1 X125.431 Y68.360
G1 X127.734 Y66.103
G1 X130.749 Y63.910
G1 X134.470 Y61.966
G1 X138.841 Y60.446
G1 X143.767 Y59.511
G1 X149.116 Y59.295
G1 X154.726 Y59.895
G1 X160.414 Y61.371
G1 X165.990 Y63.734
G1 X171.262 Y66.952
G1 X176.052 Y70.948
G1 X180.206 Y75.604
G1 X183.600 Y80.770
G1 X186.150 Y86.271
G1 X187.817 Y91.916
G1 X188.605 Y97.513
G1 X188.566 Y102.875
G1 X187.794 Y107.836
G1 X186.421 Y112.256
G1 X184.603 Y116.034
G1 X182.521 Y119.108
G1 X180.360 Y121.465
G1 X178.303 Y123.136
G1 X176.518 Y124.195
G1 X175.151 Y124.757
G1 X174.000 Y125.000
G1 X174.381 Y125.031
G1 X175.364 Y125.244
G1 X176.883 Y125.810
G1 X178.830 Y126.882
G1 X181.063 Y128.577
G1 X183.414 Y130.979
G1 X185.697 Y134.123
G1 X187.720 Y138.001
G1 X189.301 Y142.557
G1 X190.272 Y147.692
G1 X190.494 Y153.267
G1 X189.864 Y159.113
G1 X188.322 Y165.040
G1 X185.855 Y170.849
G1 X182.498 Y176.341
G1 X178.330 Y181.330
G1 X173.475 Y185.656
G1 X168.089 Y189.189
G1 X162.355 Y191.843
G1 X156.471 Y193.576
G1 X150.638 Y194.393
G1 X145.050 Y194.349
G1 X139.881 Y193.542
G1 X135.275 Y192.107
G1 X131.340 Y190.210
G1 X128.137 Y188.038
G1 X125.681 Y185.783
G1 X123.942 Y183.638
G1 X122.838 Y181.777
G1 X122.253 Y180.350
G1 X122.032 Y179.472
G1 X122.000 Y179.217
G1 X121.968 Y179.612
G1 X121.746 Y180.633
G1 X121.155 Y182.214
G1 X120.038 Y184.240
G1 X118.271 Y186.565
G1 X115.769 Y189.012
G1 X112.492 Y191.387
G1 X108.450 Y193.493
G1 X103.703 Y195.137
G1 X98.353 Y196.145
G1 X92.545 Y196.372
G1 X86.456 Y195.712
G1 X80.282 Y194.102
G1 X74.232 Y191.528
G1 X68.513 Y188.027
G1 X63.318 Y183.682
G1 X58.815 Y178.621
G1 X55.138 Y173.008
G1 X52.377 Y167.033
G1 X50.576 Y160.902
G1 X49.728 Y154.826
G1 X49.778 Y149.005
G1 X50.623 Y143.621
G1 X52.121 Y138.824
G1 X54.099 Y134.725
G1 X56.364 Y131.389
G1 X58.715 Y128.833
G1 X60.952 Y127.021
G1 X62.893 Y125.873
G1 X64.381 Y125.263
G1 X65.297 Y125.033
G1 X65.565 Y125.000
G1 X65.158 Y124.967
G1 X64.097 Y124.736
G1 X62.456 Y124.121
G1 X60.349 Y122.959
G1 X57.933 Y121.120
G1 X55.390 Y118.516
G1 X52.922 Y115.106
G1 X50.734 Y110.902
G1 X49.028 Y105.963
G1 X47.982 Y100.398
G1 X47.749 Y94.357
G1 X48.440 Y88.024
G1 X50.118 Y81.603
G1 X52.799 Y75.313
G1 X56.444 Y69.367
G1 X60.966 Y63.966
G1 X66.232 Y59.286
G1 X72.073 Y55.465
G1 X78.289 Y52.597
G1 X84.666 Y50.728
G1 X90.986 Y49.850
G1 X97.040 Y49.905
G1 X102.639 Y50.787
G1 X107.628 Y52.348
G1 X111.890 Y54.408
G1 X115.358 Y56.766
G1 X118.015 Y59.213
G1 X119.899 Y61.541
G1 X121.093 Y63.562
G1 X121.727 Y65.112
G1 X121.965 Y66.067
G1 X122.000 Y66.348
G1 X122.035 Y65.927
G1 X122.275 Y64.828
G1 X122.914 Y63.125
G1 X124.121 Y60.939
G1 X126.032 Y58.431
G1 X128.737 Y55.792
G1 X132.279 Y53.231
G1 X136.647 Y50.961
G1 X141.777 Y49.192
G1 X147.557 Y48.110
G1 X153.831 Y47.871
G1 X160.408 Y48.592
G1 X167.075 Y50.338
G1 X173.607 Y53.126
G1 X179.780 Y56.915
G1 X185.386 Y61.614
G1 X190.243 Y67.086
G1 X194.208 Y73.153
G1 X197.183 Y79.610
G1 X199.121 Y86.234
G1 X200.029 Y92.798
G1 X199.968 Y99.085
G1 X199.049 Y104.900
G1 X197.425 Y110.079
G1 X195.283 Y114.504
G1 X192.832 Y118.105
G1 X190.289 Y120.864
G1 X187.869 Y122.819
G1 X185.769 Y124.058
G1 X184.158 Y124.716
G1 X182.800 Y125.000
G1 X183.234 Y125.036
G1 X184.371 Y125.285
G1 X186.133 Y125.947
G1 X188.396 Y127.199
G1 X190.993 Y129.179
G1 X193.725 Y131.982
G1 X196.376 Y135.652
G1 X198.725 Y140.178
G1 X200.555 Y145.493
G1 X201.674 Y151.482
G1 X201.917 Y157.981
G1 X201.168 Y164.795
G1 X199.355 Y171.701
G1 X196.464 Y178.466
G1 X192.535 Y184.859
G1 X187.664 Y190.664
G1 X181.993 Y195.693
G1 X175.706 Y199.798
G1 X169.015 Y202.876
G1 X162.153 Y204.880
G1 X155.353 Y205.817
G1 X148.840 Y205.751
G1 X142.817 Y204.796
G1 X137.452 Y203.111
G1 X132.869 Y200.890
G1 X129.140 Y198.348
G1 X126.283 Y195.713
G1 X124.258 Y193.204
G1 X122.975 Y191.027
G1 X122.294 Y189.356
G1 X122.037 Y188.325
G1 X122.000 Y188.017
G1 X121.963 Y188.464
G1 X121.705 Y189.640
G1 X121.019 Y191.464
G1 X119.722 Y193.807
G1 X117.670 Y196.494
G1 X114.765 Y199.323
G1 X110.962 Y202.067
G1 X106.273 Y204.498
G1 X100.767 Y206.391
G1 X94.563 Y207.546
G1 X87.831 Y207.796
G1 X80.773 Y207.016
G1 X73.621 Y205.135
G1 X66.615 Y202.137
G1 X59.995 Y198.064
G1 X53.984 Y193.016
G1 X48.778 Y187.139
G1 X44.529 Y180.625
G1 X41.344 Y173.694
G1 X39.272 Y166.584
G1 X38.305 Y159.540
G1 X38.376 Y152.795
G1 X39.368 Y146.557
G1 X41.116 Y141.001
G1 X43.419 Y136.255
G1 X46.054 Y132.393
G1 X48.786 Y129.434
G1 X51.385 Y127.338
G1 X53.642 Y126.009
G1 X55.374 Y125.304
G1 X56.445 Y125.038
G1 X56.765 Y125.000
G1 X56.305 Y124.962
G1 X55.090 Y124.695
G1 X53.205 Y123.984
G1 X50.783 Y122.642
G1 X48.004 Y120.518
G1 X45.079 Y117.512
G1 X42.242 Y113.577
G1 X39.730 Y108.725
G1 X37.773 Y103.027
G1 X36.581 Y96.608
G1 X36.326 Y89.643
G1 X37.136 Y82.342
G1 X39.085 Y74.943
G1 X42.190 Y67.696
G1 X46.406 Y60.848
G1 X51.632 Y54.632
G1 X57.714 Y49.248
G1 X64.456 Y44.856
G1 X71.628 Y41.564
G1 X78.984 Y39.424
G1 X86.272 Y38.426
G1 X93.250 Y38.503
G1 X99.703 Y39.532
G1 X105.451 Y41.343
G1 X110.360 Y43.728
G1 X114.354 Y46.456
G1 X117.414 Y49.284
G1 X119.582 Y51.975
G1 X120.956 Y54.311
G1 X121.685 Y56.105
G1 X121.960 Y57.214
G1 X122.000 Y57.548
G1 X122.040 Y57.075
G1 X122.316 Y55.821
G1 X123.050 Y53.874
G1 X124.438 Y51.372
G1 X126.633 Y48.502
G1 X129.741 Y45.481
G1 X133.809 Y42.551
G1 X138.824 Y39.957
G1 X144.713 Y37.937
G1 X151.346 Y36.708
G1 X158.545 Y36.447
G1 X166.090 Y37.288
G1 X173.736 Y39.306
G1 X181.224 Y42.517
G1 X188.298 Y46.877
G1 X194.720 Y52.280
G1 X200.281 Y58.568
G1 X204.817 Y65.537
G1 X208.216 Y72.950
G1 X210.424 Y80.552
G1 X211.452 Y88.084
G1 X211.370 Y95.295
G1 X210.303 Y101.963
G1 X208.430 Y107.902
G1 X205.963 Y112.975
G1 X203.142 Y117.101
G1 X200.218 Y120.263
G1 X197.435 Y122.502
G1 X195.020 Y123.922
G1 X193.165 Y124.675
G1 X191.600 Y125.000
G1 X192.086 Y125.041
G1 X193.377 Y125.326
G1 X195.384 Y126.084
G1 X197.963 Y127.515
G1 X200.922 Y129.780
G1 X204.035 Y132.986
G1 X207.056 Y137.182
G1 X209.729 Y142.355
G1 X211.810 Y148.430
G1 X213.075 Y155.271
G1 X213.341 Y162.696
G1 X212.472 Y170.477
G1 X210.387 Y178.361
G1 X207.072 Y186.083
G1 X202.573 Y193.377
G1 X196.998 Y199.998
G1 X190.511 Y205.731
G1 X183.323 Y210.406
G1 X175.676 Y213.909
G1 X167.835 Y216.184
G1 X160.067 Y217.241
G1 X152.630 Y217.153
G1 X145.753 Y216.050
G1 X139.629 Y214.116
G1 X134.399 Y211.570
G1 X130.144 Y208.659
G1 X126.884 Y205.642
G1 X124.575 Y202.771
G1 X123.112 Y200.278
G1 X122.335 Y198.363
G1 X122.042 Y197.178
G1 X122.000 Y196.817
G1 X121.958 Y197.317
G1 X121.664 Y198.647
G1 X120.882 Y200.715
G1 X119.405 Y203.373
G1 X117.068 Y206.424
G1 X113.761 Y209.633
G1 X109.433 Y212.747
G1 X104.096 Y215.502
G1 X97.831 Y217.646
G1 X90.774 Y218.948
G1 X83.116 Y219.220
G1 X75.091 Y218.320
G1 X66.960 Y216.167
G1 X58.998 Y212.745
G1 X51.477 Y208.102
G1 X44.650 Y202.350
G1 X38.740 Y195.658
G1 X33.921 Y188.242
G1 X30.311 Y180.354
G1 X27.968 Y172.267
G1 X26.881 Y164.255
G1 X26.974 Y156.584
G1 X28.114 Y149.493
G1 X30.111 Y143.178
G1 X32.739 Y137.784
G1 X35.743 Y133.397
G1 X38.856 Y130.036
G1 X41.819 Y127.655
G1 X44.391 Y126.146
G1 X46.367 Y125.345
G1 X47.592 Y125.044
G1 X47.965 Y125.000
G1 X47.452 Y124.956
G1 X46.084 Y124.653
G1 X43.954 Y123.848
G1 X41.216 Y122.325
G1 X38.075 Y119.917
G1 X34.769 Y116.508
G1 X31.562 Y112.047
G1 X28.725 Y106.548
G1 X26.519 Y100.091
G1 X25.179 Y92.819
G1 X24.902 Y84.928
G1 X25.832 Y76.660
G1 X28.053 Y68.282
G1 X31.582 Y60.079
G1 X36.369 Y52.330
G1 X42.298 Y45.298
G1 X49.196 Y39.211
G1 X56.839 Y34.248
G1 X64.967 Y30.532
G1 X73.302 Y28.120
G1 X81.557 Y27.002
G1 X89.461 Y27.102
G1 X96.767 Y28.278
G1 X103.274 Y30.339
G1 X108.830 Y33.048
G1 X113.350 Y36.145
G1 X116.813 Y39.355
G1 X119.265 Y42.409
G1 X120.820 Y45.060
G1 X121.644 Y47.098
G1 X121.955 Y48.361
G1 X122.000 Y48.748
G1 X122.045 Y48.222
G1 X122.357 Y46.814
G1 X123.187 Y44.623
G1 X124.755 Y41.806
G1 X127.235 Y38.573
G1 X130.745 Y35.171
G1 X135.338 Y31.871
G1 X141.001 Y28.952
G1 X147.649 Y26.683
G1 X155.136 Y25.306
G1 X163.260 Y25.023
G1 X171.772 Y25.984
G1 X180.396 Y28.273
G1 X188.841 Y31.909
G1 X196.816 Y36.840
G1 X204.053 Y42.947
G1 X210.318 Y50.050
G1 X215.425 Y57.920
G1 X219.248 Y66.289
G1 X221.728 Y74.870
G1 X222.876 Y83.369
G1 X222.771 Y91.506
G1 X221.558 Y99.027
G1 X219.434 Y105.725
G1 X216.643 Y111.445
G1 X213.453 Y116.097
G1 X210.147 Y119.661
G1 X207.002 Y122.185
G1 X204.271 Y123.785
G1 X202.172 Y124.634
G1 X200.400 Y125.000
G1 X200.939 Y125.046
G1 X202.384 Y125.367
G1 X204.635 Y126.220
G1 X207.529 Y127.832
G1 X210.851 Y130.381
G1 X214.346 Y133.990
G1 X217.736 Y138.712
G1 X220.734 Y144.532
G1 X223.064 Y151.366
G1 X224.477 Y159.061
G1 X224.765 Y167.410
G1 X223.775 Y176.159
G1 X221.420 Y185.022
G1 X217.680 Y193.700
G1 X212.610 Y201.895
G1 X206.332 Y209.332
G1 X199.029 Y215.768
G1 X190.940 Y221.015
G1 X182.337 Y224.941
G1 X173.517 Y227.488
G1 X164.782 Y228.665
G1 X156.419 Y228.554
G1 X148.689 Y227.305
G1 X141.806 Y225.120
G1 X135.928 Y222.250
G1 X131.148 Y218.970
G1 X127.486 Y215.571
G1 X124.892 Y212.337
G1 X123.248 Y209.529
G1 X122.376 Y207.370
G1 X122.047 Y206.030
G1 X122.000 Y205.617
G1 X121.952 Y206.170
G1 X121.623 Y207.654
G1 X120.745 Y209.966
G1 X119.088 Y212.940
G1 X116.467 Y216.353
G1 X112.757 Y219.944
G1 X107.903 Y223.427
G1 X101.919 Y226.507
G1 X94.895 Y228.900
G1 X86.984 Y230.350
G1 X78.402 Y230.643
G1 X69.409 Y229.624
G1 X60.300 Y227.200
G1 X51.381 Y223.353
G1 X42.958 Y218.139
G1 X35.317 Y211.683
G1 X28.703 Y204.176
G1 X23.312 Y195.859
G1 X19.279 Y187.015
G1 X16.664 Y177.949
G1 X15.457 Y168.969
G1 X15.573 Y160.374
G1 X16.859 Y152.429
G1 X19.107 Y145.355
G1 X22.059 Y139.314
G1 X25.432 Y134.401
G1 X28.927 Y130.637
G1 X32.253 Y127.972
G1 X35.140 Y126.283
G1 X37.361 Y125.386
G1 X38.739 Y125.049
G1 X39.165 Y125.000
G1 X38.600 Y124.951
G1 X37.077 Y124.612
G1 X34.703 Y123.711
G1 X31.650 Y122.008
G1 X28.145 Y119.315
G1 X24.458 Y115.504
G1 X20.882 Y110.518
G1 X17.720 Y104.371
G1 X15.264 Y97.155
G1 X13.777 Y89.029
G1 X13.478 Y80.214
G1 X14.528 Y70.978
G1 X17.020 Y61.621
G1 X20.974 Y52.462
G1 X26.332 Y43.812
G1 X32.965 Y35.965
G1 X40.678 Y29.173
G1 X49.222 Y23.639
G1 X58.307 Y19.499
G1 X67.620 Y16.816
G1 X76.843 Y15.579
G1 X85.671 Y15.700
G1 X93.831 Y17.024
G1 X101.097 Y19.334
G1 X107.301 Y22.369
G1 X112.346 Y25.834
G1 X116.211 Y29.425
G1 X118.948 Y32.842
G1 X120.683 Y35.809
G1 X121.603 Y38.091
G1 X121.950 Y39.509
G1 X122.000 Y39.948
G1 X122.050 Y39.369
G1 X122.398 Y37.807
G1 X123.324 Y35.372
G1 X125.071 Y32.240
G1 X127.836 Y28.644
G1 X131.748 Y24.860
G1 X136.868 Y21.191
G1 X143.178 Y17.948
G1 X150.585 Y15.429
G1 X158.926 Y13.904
G1 X167.974 Y13.600
G1 X177.454 Y14.680
G1 X187.057 Y17.240
G1 X196.457 Y21.301
G1 X205.334 Y26.802
G1 X213.387 Y33.613
G1 X220.356 Y41.532
G1 X226.034 Y50.303
G1 X230.281 Y59.628
G1 X233.032 Y69.188
G1 X234.300 Y78.655
G1 X234.173 Y87.716
G1 X232.812 Y96.091
G1 X230.439 Y103.548
G1 X227.322 Y109.915
G1 X223.764 Y115.094
G1 X220.076 Y119.060
G1 X216.568 Y121.869
G1 X213.522 Y123.649
G1 X211.178 Y124.593

