;  Created by Sandify
;  https://sandify.org
;  Version: 0.2.8
;
;  Machine type: Rectangular
;    Min X (mm): 0
;    Max X (mm): 250
;    Min Y (mm): 0
;    Max Y (mm): 250
;  Content type: shape
;  Layer:
;    Shape: Rose
;    Name: polygon
;    Numerator: 5
;    Denominator: 6
;    Visible: true
;    Initial width: 12
;    Initial height: 12
;    X offset: -3
;    Y offset: 0
;    Rotate (degrees): 0
;    Reverse path: false
;    Number of loops: 9
;    When transforming shape: smear
;    Scale: true
;      Scale (+/-): 110
;      Scale by: constant
;    Spin: false
;    Track: false
;    Fine tuning:
;      Connect to next layer: line
;      Draw portion of path (%): 100
;      Backtrack at end (%): 0
;      Rotate starting point (%): 0
;  Reverse export path: false
;
; File name: 'rose'
; File type: gcode
;

G1 X122.000 Y125.000
G1 X122.196 Y125.004
G1 X122.393 Y125.015
G1 X122.589 Y125.035
G1 X122.784 Y125.062
G1 X122.979 Y125.096
G1 X123.172 Y125.139
G1 X123.364 Y125.189
G1 X123.554 Y125.246
G1 X123.742 Y125.311
G1 X123.928 Y125.384
G1 X124.112 Y125.463
G1 X124.292 Y125.550
G1 X124.470 Y125.644
G1 X124.644 Y125.746
G1 X124.814 Y125.854
G1 X124.981 Y125.969
G1 X125.144 Y126.090
G1 X125.302 Y126.218
G1 X125.456 Y126.352
G1 X125.604 Y126.493
G1 X125.748 Y126.640
G1 X125.887 Y126.792
G1 X126.020 Y126.950
G1 X126.148 Y127.113
G1 X126.270 Y127.282
G1 X126.385 Y127.456
G1 X126.495 Y127.634
G1 X126.598 Y127.818
G1 X126.694 Y128.005
G1 X126.784 Y128.197
G1 X126.867 Y128.392
G1 X126.943 Y128.591
G1 X127.012 Y128.794
G1 X127.073 Y129.000
G1 X127.127 Y129.208
G1 X127.174 Y129.419
G1 X127.213 Y129.632
G1 X127.244 Y129.848
G1 X127.268 Y130.065
G1 X127.284 Y130.284
G1 X127.292 Y130.504
G1 X127.292 Y130.725
G1 X127.284 Y130.946
G1 X127.268 Y131.168
G1 X127.244 Y131.390
G1 X127.212 Y131.612
G1 X127.172 Y131.833
G1 X127.125 Y132.054
G1 X127.069 Y132.273
G1 X127.005 Y132.491
G1 X126.934 Y132.707
G1 X126.854 Y132.922
G1 X126.767 Y133.134
G1 X126.673 Y133.344
G1 X126.570 Y133.551
G1 X126.461 Y133.755
G1 X126.344 Y133.955
G1 X126.219 Y134.153
G1 X126.088 Y134.346
G1 X125.950 Y134.535
G1 X125.804 Y134.720
G1 X125.652 Y134.900
G1 X125.494 Y135.076
G1 X125.329 Y135.246
G1 X125.158 Y135.411
G1 X124.981 Y135.571
G1 X124.799 Y135.725
G1 X124.610 Y135.873
G1 X124.417 Y136.015
G1 X124.218 Y136.150
G1 X124.014 Y136.279
G1 X123.806 Y136.402
G1 X123.593 Y136.517
G1 X123.376 Y136.626
G1 X123.155 Y136.727
G1 X122.930 Y136.821
G1 X122.702 Y136.908
G1 X122.471 Y136.987
G1 X122.237 Y137.059
G1 X122.000 Y137.122
G1 X121.761 Y137.178
G1 X121.520 Y137.226
G1 X121.277 Y137.266
G1 X121.032 Y137.298
G1 X120.786 Y137.321
G1 X120.540 Y137.337
G1 X120.293 Y137.344
G1 X120.045 Y137.343
G1 X119.797 Y137.334
G1 X119.550 Y137.317
G1 X119.303 Y137.291
G1 X119.057 Y137.257
G1 X118.813 Y137.215
G1 X118.569 Y137.165
G1 X118.327 Y137.107
G1 X118.088 Y137.040
G1 X117.851 Y136.966
G1 X117.616 Y136.884
G1 X117.384 Y136.794
G1 X117.155 Y136.697
G1 X116.930 Y136.592
G1 X116.708 Y136.479
G1 X116.490 Y136.359
G1 X116.277 Y136.232
G1 X116.068 Y136.098
G1 X115.864 Y135.957
G1 X115.664 Y135.810
G1 X115.470 Y135.656
G1 X115.281 Y135.496
G1 X115.098 Y135.329
G1 X114.921 Y135.157
G1 X114.750 Y134.979
G1 X114.585 Y134.796
G1 X114.426 Y134.607
G1 X114.275 Y134.413
G1 X114.130 Y134.215
G1 X113.992 Y134.012
G1 X113.861 Y133.805
G1 X113.738 Y133.593
G1 X113.622 Y133.378
G1 X113.513 Y133.160
G1 X113.413 Y132.938
G1 X113.320 Y132.714
G1 X113.235 Y132.486
G1 X113.158 Y132.257
G1 X113.089 Y132.025
G1 X113.028 Y131.791
G1 X112.976 Y131.556
G1 X112.932 Y131.320
G1 X112.896 Y131.083
G1 X112.868 Y130.846
G1 X112.849 Y130.608
G1 X112.839 Y130.370
G1 X112.836 Y130.132
G1 X112.842 Y129.895
G1 X112.856 Y129.659
G1 X112.879 Y129.424
G1 X112.910 Y129.191
G1 X112.949 Y128.959
G1 X112.996 Y128.730
G1 X113.051 Y128.502
G1 X113.114 Y128.278
G1 X113.185 Y128.057
G1 X113.264 Y127.838
G1 X113.351 Y127.624
G1 X113.444 Y127.413
G1 X113.546 Y127.206
G1 X113.654 Y127.004
G1 X113.770 Y126.806
G1 X113.892 Y126.613
G1 X114.021 Y126.425
G1 X114.156 Y126.242
G1 X114.298 Y126.065
G1 X114.446 Y125.894
G1 X114.600 Y125.729
G1 X114.760 Y125.570
G1 X114.925 Y125.417
G1 X115.095 Y125.271
G1 X115.270 Y125.132
G1 X115.450 Y125.000
G1 X115.634 Y124.875
G1 X115.823 Y124.757
G1 X116.016 Y124.647
G1 X116.212 Y124.544
G1 X116.411 Y124.450
G1 X116.614 Y124.363
G1 X116.820 Y124.283
G1 X117.028 Y124.212
G1 X117.238 Y124.150
G1 X117.450 Y124.095
G1 X117.664 Y124.049
G1 X117.880 Y124.011
G1 X118.096 Y123.981
G1 X118.313 Y123.960
G1 X118.531 Y123.948
G1 X118.748 Y123.943
G1 X118.966 Y123.948
G1 X119.183 Y123.961
G1 X119.399 Y123.982
G1 X119.614 Y124.012
G1 X119.828 Y124.050
G1 X120.040 Y124.096
G1 X120.250 Y124.151
G1 X120.457 Y124.214
G1 X120.662 Y124.285
G1 X120.864 Y124.364
G1 X121.063 Y124.451
G1 X121.259 Y124.546
G1 X121.450 Y124.648
G1 X121.638 Y124.758
G1 X121.821 Y124.875
G1 X122.000 Y125.000
G1 X122.174 Y125.132
G1 X122.343 Y125.270
G1 X122.506 Y125.415
G1 X122.664 Y125.567
G1 X122.816 Y125.725
G1 X122.962 Y125.889
G1 X123.101 Y126.059
G1 X123.234 Y126.234
G1 X123.361 Y126.415
G1 X123.480 Y126.602
G1 X123.593 Y126.793
G1 X123.698 Y126.988
G1 X123.796 Y127.188
G1 X123.886 Y127.392
G1 X123.969 Y127.601
G1 X124.043 Y127.812
G1 X124.110 Y128.027
G1 X124.168 Y128.245
G1 X124.218 Y128.465
G1 X124.260 Y128.688
G1 X124.294 Y128.913
G1 X124.319 Y129.140
G1 X124.335 Y129.369
G1 X124.343 Y129.598
G1 X124.342 Y129.828
G1 X124.332 Y130.059
G1 X124.314 Y130.290
G1 X124.287 Y130.521
G1 X124.251 Y130.752
G1 X124.207 Y130.982
G1 X124.154 Y131.211
G1 X124.092 Y131.439
G1 X124.022 Y131.665
G1 X123.943 Y131.889
G1 X123.855 Y132.110
G1 X123.760 Y132.329
G1 X123.656 Y132.546
G1 X123.543 Y132.759
G1 X123.423 Y132.968
G1 X123.295 Y133.174
G1 X123.159 Y133.376
G1 X123.015 Y133.573
G1 X122.863 Y133.766
G1 X122.705 Y133.954
G1 X122.539 Y134.137
G1 X122.366 Y134.314
G1 X122.186 Y134.486
G1 X122.000 Y134.652
G1 X121.807 Y134.812
G1 X121.608 Y134.965
G1 X121.404 Y135.112
G1 X121.193 Y135.252
G1 X120.977 Y135.384
G1 X120.756 Y135.510
G1 X120.530 Y135.628
G1 X120.299 Y135.739
G1 X120.064 Y135.842
G1 X119.825 Y135.937
G1 X119.581 Y136.024
G1 X119.334 Y136.103
G1 X119.084 Y136.173
G1 X118.831 Y136.235
G1 X118.576 Y136.288
G1 X118.318 Y136.333
G1 X118.057 Y136.369
G1 X117.796 Y136.397
G1 X117.532 Y136.415
G1 X117.268 Y136.424
G1 X117.003 Y136.425
G1 X116.737 Y136.416
G1 X116.471 Y136.399
G1 X116.206 Y136.372
G1 X115.940 Y136.337
G1 X115.676 Y136.292
G1 X115.413 Y136.239
G1 X115.151 Y136.176
G1 X114.891 Y136.105
G1 X114.633 Y136.025
G1 X114.378 Y135.936
G1 X114.125 Y135.839
G1 X113.876 Y135.733
G1 X113.629 Y135.618
G1 X113.386 Y135.496
G1 X113.148 Y135.365
G1 X112.913 Y135.226
G1 X112.683 Y135.079
G1 X112.458 Y134.924
G1 X112.238 Y134.762
G1 X112.023 Y134.593
G1 X111.814 Y134.416
G1 X111.610 Y134.232
G1 X111.413 Y134.042
G1 X111.222 Y133.845
G1 X111.038 Y133.642
G1 X110.860 Y133.432
G1 X110.690 Y133.217
G1 X110.527 Y132.996
G1 X110.371 Y132.770
G1 X110.223 Y132.539
G1 X110.082 Y132.303
G1 X109.950 Y132.063
G1 X109.825 Y131.818
G1 X109.709 Y131.569
G1 X109.602 Y131.317
G1 X109.503 Y131.062
G1 X109.412 Y130.803
G1 X109.330 Y130.542
G1 X109.258 Y130.278
G1 X109.194 Y130.012
G1 X109.139 Y129.745
G1 X109.093 Y129.476
G1 X109.056 Y129.206
G1 X109.029 Y128.935
G1 X109.010 Y128.663
G1 X109.001 Y128.392
G1 X109.001 Y128.121
G1 X109.010 Y127.850
G1 X109.029 Y127.580
G1 X109.056 Y127.311
G1 X109.093 Y127.044
G1 X109.138 Y126.779
G1 X109.193 Y126.516
G1 X109.256 Y126.255
G1 X109.328 Y125.997
G1 X109.409 Y125.743
G1 X109.498 Y125.491
G1 X109.596 Y125.244
G1 X109.702 Y125.000
G1 X109.817 Y124.761
G1 X109.939 Y124.526
G1 X110.069 Y124.296
G1 X110.207 Y124.072
G1 X110.352 Y123.853
G1 X110.504 Y123.639
G1 X110.664 Y123.432
G1 X110.830 Y123.231
G1 X111.003 Y123.036
G1 X111.182 Y122.848
G1 X111.367 Y122.667
G1 X111.559 Y122.493
G1 X111.755 Y122.327
G1 X111.957 Y122.168
G1 X112.165 Y122.016
G1 X112.377 Y121.873
G1 X112.593 Y121.738
G1 X112.814 Y121.611
G1 X113.038 Y121.492
G1 X113.266 Y121.382
G1 X113.498 Y121.281
G1 X113.732 Y121.188
G1 X113.969 Y121.105
G1 X114.208 Y121.030
G1 X114.450 Y120.964
G1 X114.693 Y120.908
G1 X114.937 Y120.860
G1 X115.182 Y120.822
G1 X115.428 Y120.793
G1 X115.675 Y120.774
G1 X115.921 Y120.763
G1 X116.167 Y120.762
G1 X116.412 Y120.770
G1 X116.657 Y120.788
G1 X116.900 Y120.814
G1 X117.141 Y120.850
G1 X117.380 Y120.895
G1 X117.617 Y120.949
G1 X117.852 Y121.012
G1 X118.083 Y121.083
G1 X118.311 Y121.163
G1 X118.536 Y121.252
G1 X118.756 Y121.350
G1 X118.972 Y121.455
G1 X119.184 Y121.569
G1 X119.391 Y121.691
G1 X119.593 Y121.820
G1 X119.790 Y121.958
G1 X119.980 Y122.102
G1 X120.165 Y122.254
G1 X120.344 Y122.413
G1 X120.516 Y122.578
G1 X120.682 Y122.751
G1 X120.840 Y122.929
G1 X120.992 Y123.114
G1 X121.136 Y123.304
G1 X121.272 Y123.500
G1 X121.401 Y123.701
G1 X121.522 Y123.906
G1 X121.634 Y124.117
G1 X121.739 Y124.332
G1 X121.834 Y124.551
G1 X121.922 Y124.774
G1 X122.000 Y125.000
G1 X122.070 Y125.229
G1 X122.130 Y125.461
G1 X122.182 Y125.696
G1 X122.224 Y125.933
G1 X122.257 Y126.171
G1 X122.281 Y126.411
G1 X122.295 Y126.653
G1 X122.300 Y126.894
G1 X122.296 Y127.137
G1 X122.282 Y127.379
G1 X122.258 Y127.622
G1 X122.225 Y127.863
G1 X122.183 Y128.104
G1 X122.131 Y128.344
G1 X122.070 Y128.582
G1 X122.000 Y128.818
G1 X121.920 Y129.051
G1 X121.832 Y129.282
G1 X121.734 Y129.511
G1 X121.627 Y129.735
G1 X121.512 Y129.957
G1 X121.388 Y130.174
G1 X121.255 Y130.387
G1 X121.114 Y130.596
G1 X120.964 Y130.800
G1 X120.807 Y130.998
G1 X120.642 Y131.191
G1 X120.469 Y131.379
G1 X120.288 Y131.560
G1 X120.100 Y131.736
G1 X119.906 Y131.904
G1 X119.704 Y132.066
G1 X119.496 Y132.221
G1 X119.281 Y132.369
G1 X119.061 Y132.509
G1 X118.835 Y132.641
G1 X118.603 Y132.766
G1 X118.366 Y132.882
G1 X118.124 Y132.990
G1 X117.878 Y133.090
G1 X117.627 Y133.181
G1 X117.372 Y133.263
G1 X117.114 Y133.336
G1 X116.852 Y133.400
G1 X116.587 Y133.455
G1 X116.320 Y133.501
G1 X116.050 Y133.537
G1 X115.778 Y133.564
G1 X115.504 Y133.581
G1 X115.230 Y133.588
G1 X114.954 Y133.586
G1 X114.677 Y133.574
G1 X114.400 Y133.552
G1 X114.123 Y133.521
G1 X113.847 Y133.480
G1 X113.571 Y133.429
G1 X113.297 Y133.368
G1 X113.023 Y133.298
G1 X112.752 Y133.218
G1 X112.483 Y133.128
G1 X112.216 Y133.029
G1 X111.952 Y132.921
G1 X111.692 Y132.803
G1 X111.435 Y132.676
G1 X111.181 Y132.540
G1 X110.932 Y132.395
G1 X110.687 Y132.242
G1 X110.447 Y132.080
G1 X110.212 Y131.909
G1 X109.983 Y131.730
G1 X109.759 Y131.543
G1 X109.541 Y131.348
G1 X109.330 Y131.146
G1 X109.125 Y130.936
G1 X108.926 Y130.719
G1 X108.735 Y130.495
G1 X108.551 Y130.264
G1 X108.375 Y130.027
G1 X108.206 Y129.783
G1 X108.046 Y129.534
G1 X107.893 Y129.279
G1 X107.749 Y129.019
G1 X107.614 Y128.754
G1 X107.487 Y128.484
G1 X107.370 Y128.210
G1 X107.261 Y127.932
G1 X107.162 Y127.650
G1 X107.072 Y127.364
G1 X106.991 Y127.076
G1 X106.920 Y126.785
G1 X106.859 Y126.491
G1 X106.807 Y126.196
G1 X106.765 Y125.898
G1 X106.734 Y125.600
G1 X106.712 Y125.300
G1 X106.700 Y125.000
G1 X106.698 Y124.700
G1 X106.706 Y124.399
G1 X106.724 Y124.099
G1 X106.752 Y123.800
G1 X106.791 Y123.502
G1 X106.838 Y123.206
G1 X106.896 Y122.911
G1 X106.964 Y122.618
G1 X107.041 Y122.329
G1 X107.128 Y122.042
G1 X107.224 Y121.758
G1 X107.330 Y121.478
G1 X107.445 Y121.202
G1 X107.569 Y120.930
G1 X107.702 Y120.663
G1 X107.844 Y120.400
G1 X107.994 Y120.143
G1 X108.153 Y119.891
G1 X108.320 Y119.646
G1 X108.495 Y119.406
G1 X108.677 Y119.172
G1 X108.867 Y118.946
G1 X109.065 Y118.726
G1 X109.269 Y118.513
G1 X109.481 Y118.308
G1 X109.699 Y118.111
G1 X109.923 Y117.921
G1 X110.153 Y117.740
G1 X110.388 Y117.567
G1 X110.629 Y117.402
G1 X110.875 Y117.247
G1 X111.126 Y117.100
G1 X111.381 Y116.962
G1 X111.641 Y116.833
G1 X111.904 Y116.714
G1 X112.170 Y116.604
G1 X112.439 Y116.504
G1 X112.712 Y116.414
G1 X112.986 Y116.333
G1 X113.263 Y116.263
G1 X113.541 Y116.202
G1 X113.820 Y116.151
G1 X114.101 Y116.111
G1 X114.382 Y116.080
G1 X114.663 Y116.060
G1 X114.944 Y116.049
G1 X115.224 Y116.049
G1 X115.504 Y116.059
G1 X115.782 Y116.079
G1 X116.059 Y116.108
G1 X116.333 Y116.148
G1 X116.606 Y116.198
G1 X116.876 Y116.257
G1 X117.142 Y116.326
G1 X117.406 Y116.404
G1 X117.665 Y116.492
G1 X117.921 Y116.589
G1 X118.172 Y116.696
G1 X118.418 Y116.811
G1 X118.659 Y116.935
G1 X118.895 Y117.068
G1 X119.126 Y117.209
G1 X119.350 Y117.358
G1 X119.568 Y117.515
G1 X119.780 Y117.680
G1 X119.984 Y117.853
G1 X120.182 Y118.032
G1 X120.372 Y118.219
G1 X120.555 Y118.412
G1 X120.729 Y118.612
G1 X120.896 Y118.818
G1 X121.054 Y119.030
G1 X121.204 Y119.247
G1 X121.345 Y119.470
G1 X121.478 Y119.698
G1 X121.601 Y119.930
G1 X121.715 Y120.166
G1 X121.820 Y120.407
G1 X121.915 Y120.650
G1 X122.000 Y120.898
G1 X122.076 Y121.148
G1 X122.141 Y121.400
G1 X122.197 Y121.655
G1 X122.243 Y121.912
G1 X122.279 Y122.170
G1 X122.304 Y122.429
G1 X122.320 Y122.689
G1 X122.325 Y122.950
G1 X122.320 Y123.210
G1 X122.304 Y123.470
G1 X122.279 Y123.729
G1 X122.243 Y123.987
G1 X122.197 Y124.243
G1 X122.142 Y124.498
G1 X122.076 Y124.750
G1 X122.000 Y125.000
G1 X121.914 Y125.247
G1 X121.819 Y125.490
G1 X121.714 Y125.730
G1 X121.600 Y125.966
G1 X121.476 Y126.198
G1 X121.343 Y126.424
G1 X121.202 Y126.646
G1 X121.051 Y126.863
G1 X120.892 Y127.073
G1 X120.724 Y127.278
G1 X120.548 Y127.477
G1 X120.365 Y127.669
G1 X120.173 Y127.854
G1 X119.974 Y128.032
G1 X119.768 Y128.202
G1 X119.555 Y128.365
G1 X119.336 Y128.520
G1 X119.110 Y128.667
G1 X118.877 Y128.805
G1 X118.640 Y128.935
G1 X118.396 Y129.056
G1 X118.148 Y129.167
G1 X117.894 Y129.270
G1 X117.637 Y129.363
G1 X117.375 Y129.447
G1 X117.109 Y129.521
G1 X116.840 Y129.585
G1 X116.568 Y129.640
G1 X116.293 Y129.684
G1 X116.015 Y129.718
G1 X115.736 Y129.742
G1 X115.455 Y129.755
G1 X115.173 Y129.758
G1 X114.890 Y129.751
G1 X114.606 Y129.733
G1 X114.322 Y129.705
G1 X114.039 Y129.666
G1 X113.756 Y129.617
G1 X113.474 Y129.557
G1 X113.194 Y129.487
G1 X112.915 Y129.406
G1 X112.639 Y129.316
G1 X112.365 Y129.215
G1 X112.094 Y129.103
G1 X111.826 Y128.982
G1 X111.561 Y128.851
G1 X111.301 Y128.710
G1 X111.045 Y128.559
G1 X110.794 Y128.399
G1 X110.547 Y128.230
G1 X110.306 Y128.051
G1 X110.071 Y127.864
G1 X109.841 Y127.668
G1 X109.618 Y127.463
G1 X109.402 Y127.250
G1 X109.192 Y127.029
G1 X108.990 Y126.800
G1 X108.795 Y126.563
G1 X108.608 Y126.319
G1 X108.429 Y126.068
G1 X108.258 Y125.810
G1 X108.095 Y125.546
G1 X107.942 Y125.276
G1 X107.797 Y125.000
G1 X107.662 Y124.718
G1 X107.536 Y124.432
G1 X107.419 Y124.140
G1 X107.312 Y123.844
G1 X107.215 Y123.544
G1 X107.128 Y123.240
G1 X107.051 Y122.932
G1 X106.985 Y122.622
G1 X106.929 Y122.309
G1 X106.883 Y121.993
G1 X106.848 Y121.676
G1 X106.823 Y121.356
G1 X106.810 Y121.036
G1 X106.807 Y120.715
G1 X106.815 Y120.394
G1 X106.833 Y120.072
G1 X106.862 Y119.751
G1 X106.903 Y119.430
G1 X106.953 Y119.111
G1 X107.015 Y118.793
G1 X107.087 Y118.477
G1 X107.170 Y118.163
G1 X107.263 Y117.852
G1 X107.367 Y117.544
G1 X107.481 Y117.239
G1 X107.605 Y116.938
G1 X107.739 Y116.641
G1 X107.883 Y116.349
G1 X108.037 Y116.061
G1 X108.200 Y115.779
G1 X108.372 Y115.502
G1 X108.554 Y115.231
G1 X108.745 Y114.966
G1 X108.944 Y114.708
G1 X109.152 Y114.456
G1 X109.368 Y114.211
G1 X109.592 Y113.974
G1 X109.824 Y113.745
G1 X110.063 Y113.523
G1 X110.310 Y113.310
G1 X110.563 Y113.105
G1 X110.823 Y112.909
G1 X111.089 Y112.721
G1 X111.361 Y112.543
G1 X111.639 Y112.375
G1 X111.921 Y112.215
G1 X112.209 Y112.066
G1 X112.501 Y111.926
G1 X112.798 Y111.797
G1 X113.098 Y111.678
G1 X113.402 Y111.569
G1 X113.709 Y111.470
G1 X114.019 Y111.382
G1 X114.330 Y111.305
G1 X114.644 Y111.239
G1 X114.960 Y111.183
G1 X115.276 Y111.138
G1 X115.594 Y111.104
G1 X115.912 Y111.081
G1 X116.230 Y111.069
G1 X116.547 Y111.068
G1 X116.864 Y111.078
G1 X117.179 Y111.098
G1 X117.493 Y111.130
G1 X117.805 Y111.172
G1 X118.115 Y111.225
G1 X118.422 Y111.289
G1 X118.726 Y111.363
G1 X119.026 Y111.447
G1 X119.323 Y111.542
G1 X119.615 Y111.647
G1 X119.903 Y111.761
G1 X120.186 Y111.886
G1 X120.464 Y112.020
G1 X120.736 Y112.163
G1 X121.002 Y112.316
G1 X121.262 Y112.478
G1 X121.515 Y112.648
G1 X121.761 Y112.827
G1 X122.000 Y113.015
G1 X122.232 Y113.210
G1 X122.455 Y113.413
G1 X122.671 Y113.623
G1 X122.878 Y113.840
G1 X123.077 Y114.065
G1 X123.267 Y114.296
G1 X123.448 Y114.533
G1 X123.619 Y114.775
G1 X123.782 Y115.024
G1 X123.934 Y115.277
G1 X124.077 Y115.536
G1 X124.209 Y115.799
G1 X124.331 Y116.066
G1 X124.443 Y116.336
G1 X124.545 Y116.610
G1 X124.636 Y116.887
G1 X124.716 Y117.167
G1 X124.786 Y117.449
G1 X124.844 Y117.733
G1 X124.892 Y118.018
G1 X124.929 Y118.304
G1 X124.955 Y118.591
G1 X124.970 Y118.877
G1 X124.973 Y119.164
G1 X124.966 Y119.450
G1 X124.948 Y119.736
G1 X124.919 Y120.020
G1 X124.879 Y120.302
G1 X124.828 Y120.582
G1 X124.767 Y120.859
G1 X124.695 Y121.134
G1 X124.612 Y121.405
G1 X124.519 Y121.672
G1 X124.416 Y121.936
G1 X124.302 Y122.195
G1 X124.179 Y122.449
G1 X124.046 Y122.698
G1 X123.903 Y122.941
G1 X123.751 Y123.179
G1 X123.590 Y123.410
G1 X123.420 Y123.635
G1 X123.241 Y123.853
G1 X123.053 Y124.064
G1 X122.858 Y124.267
G1 X122.655 Y124.463
G1 X122.444 Y124.650
G1 X122.225 Y124.829
G1 X122.000 Y125.000
G1 X121.768 Y125.162
G1 X121.530 Y125.314
G1 X121.285 Y125.458
G1 X121.035 Y125.591
G1 X120.779 Y125.715
G1 X120.519 Y125.830
G1 X120.253 Y125.934
G1 X119.984 Y126.027
G1 X119.711 Y126.110
G1 X119.434 Y126.183
G1 X119.153 Y126.245
G1 X118.871 Y126.296
G1 X118.585 Y126.336
G1 X118.298 Y126.366
G1 X118.009 Y126.384
G1 X117.719 Y126.391
G1 X117.429 Y126.387
G1 X117.138 Y126.371
G1 X116.847 Y126.345
G1 X116.556 Y126.307
G1 X116.266 Y126.258
G1 X115.978 Y126.198
G1 X115.691 Y126.127
G1 X115.406 Y126.044
G1 X115.124 Y125.951
G1 X114.845 Y125.847
G1 X114.568 Y125.732
G1 X114.296 Y125.606
G1 X114.027 Y125.470
G1 X113.763 Y125.324
G1 X113.504 Y125.167
G1 X113.250 Y125.000
G1 X113.001 Y124.823
G1 X112.759 Y124.637
G1 X112.522 Y124.441
G1 X112.292 Y124.236
G1 X112.069 Y124.022
G1 X111.853 Y123.799
G1 X111.645 Y123.568
G1 X111.445 Y123.328
G1 X111.252 Y123.081
G1 X111.069 Y122.826
G1 X110.894 Y122.563
G1 X110.727 Y122.294
G1 X110.570 Y122.017
G1 X110.423 Y121.735
G1 X110.285 Y121.446
G1 X110.157 Y121.152
G1 X110.040 Y120.852
G1 X109.932 Y120.548
G1 X109.835 Y120.239
G1 X109.749 Y119.925
G1 X109.673 Y119.608
G1 X109.609 Y119.288
G1 X109.555 Y118.964
G1 X109.513 Y118.638
G1 X109.482 Y118.309
G1 X109.462 Y117.978
G1 X109.454 Y117.647
G1 X109.457 Y117.314
G1 X109.472 Y116.980
G1 X109.498 Y116.646
G1 X109.536 Y116.313
G1 X109.585 Y115.980
G1 X109.646 Y115.648
G1 X109.718 Y115.318
G1 X109.801 Y114.989
G1 X109.896 Y114.663
G1 X110.003 Y114.339
G1 X110.120 Y114.018
G1 X110.249 Y113.701
G1 X110.388 Y113.388
G1 X110.538 Y113.079
G1 X110.699 Y112.775
G1 X110.870 Y112.475
G1 X111.052 Y112.181
G1 X111.243 Y111.893
G1 X111.445 Y111.611
G1 X111.656 Y111.335
G1 X111.877 Y111.067
G1 X112.107 Y110.805
G1 X112.346 Y110.551
G1 X112.593 Y110.305
G1 X112.849 Y110.067
G1 X113.113 Y109.837
G1 X113.384 Y109.616
G1 X113.664 Y109.404
G1 X113.950 Y109.201
G1 X114.243 Y109.007
G1 X114.543 Y108.824
G1 X114.848 Y108.650
G1 X115.160 Y108.486
G1 X115.477 Y108.333
G1 X115.799 Y108.191
G1 X116.125 Y108.059
G1 X116.456 Y107.938
G1 X116.791 Y107.828
G1 X117.129 Y107.730
G1 X117.471 Y107.642
G1 X117.815 Y107.566
G1 X118.161 Y107.502
G1 X118.509 Y107.449
G1 X118.858 Y107.408
G1 X119.209 Y107.379
G1 X119.560 Y107.361
G1 X119.912 Y107.355
G1 X120.263 Y107.361
G1 X120.613 Y107.378
G1 X120.963 Y107.408
G1 X121.310 Y107.448
G1 X121.656 Y107.501
G1 X122.000 Y107.565
G1 X122.341 Y107.641
G1 X122.679 Y107.727
G1 X123.013 Y107.825
G1 X123.343 Y107.935
G1 X123.669 Y108.055
G1 X123.990 Y108.186
G1 X124.306 Y108.327
G1 X124.617 Y108.479
G1 X124.921 Y108.641
G1 X125.220 Y108.813
G1 X125.512 Y108.995
G1 X125.796 Y109.187
G1 X126.074 Y109.388
G1 X126.344 Y109.597
G1 X126.606 Y109.816
G1 X126.860 Y110.043
G1 X127.105 Y110.278
G1 X127.342 Y110.521
G1 X127.569 Y110.771
G1 X127.787 Y111.029
G1 X127.995 Y111.293
G1 X128.194 Y111.564
G1 X128.382 Y111.841
G1 X128.561 Y112.124
G1 X128.728 Y112.412
G1 X128.885 Y112.706
G1 X129.031 Y113.004
G1 X129.166 Y113.306
G1 X129.290 Y113.612
G1 X129.403 Y113.921
G1 X129.504 Y114.233
G1 X129.594 Y114.548
G1 X129.672 Y114.866
G1 X129.738 Y115.185
G1 X129.792 Y115.505
G1 X129.835 Y115.826
G1 X129.866 Y116.148
G1 X129.885 Y116.470
G1 X129.893 Y116.791
G1 X129.888 Y117.112
G1 X129.872 Y117.431
G1 X129.844 Y117.749
G1 X129.804 Y118.065
G1 X129.753 Y118.378
G1 X129.691 Y118.689
G1 X129.616 Y118.996
G1 X129.531 Y119.299
G1 X129.435 Y119.598
G1 X129.328 Y119.893
G1 X129.209 Y120.183
G1 X129.081 Y120.467
G1 X128.942 Y120.746
G1 X128.792 Y121.019
G1 X128.633 Y121.285
G1 X128.464 Y121.545
G1 X128.286 Y121.797
G1 X128.098 Y122.042
G1 X127.902 Y122.279
G1 X127.696 Y122.508
G1 X127.483 Y122.729
G1 X127.261 Y122.941
G1 X127.032 Y123.144
G1 X126.795 Y123.337
G1 X126.551 Y123.521
G1 X126.301 Y123.695
G1 X126.044 Y123.859
G1 X125.781 Y124.013
G1 X125.513 Y124.157
G1 X125.239 Y124.289
G1 X124.961 Y124.411
G1 X124.678 Y124.522
G1 X124.391 Y124.621
G1 X124.100 Y124.710
G1 X123.806 Y124.786
G1 X123.510 Y124.851
G1 X123.211 Y124.905
G1 X122.910 Y124.946
G1 X122.608 Y124.976
G1 X122.304 Y124.994
G1 X122.000 Y125.000
G1 X121.696 Y124.994
G1 X121.391 Y124.976
G1 X121.088 Y124.946
G1 X120.785 Y124.904
G1 X120.485 Y124.851
G1 X120.186 Y124.785
G1 X119.889 Y124.708
G1 X119.595 Y124.619
G1 X119.304 Y124.519
G1 X119.017 Y124.407
G1 X118.734 Y124.284
G1 X118.456 Y124.149
G1 X118.182 Y124.004
G1 X117.914 Y123.848
G1 X117.651 Y123.681
G1 X117.395 Y123.504
G1 X117.144 Y123.316
G1 X116.901 Y123.119
G1 X116.664 Y122.912
G1 X116.435 Y122.695
G1 X116.214 Y122.469
G1 X116.002 Y122.235
G1 X115.797 Y121.991
G1 X115.602 Y121.740
G1 X115.415 Y121.480
G1 X115.238 Y121.213
G1 X115.071 Y120.939
G1 X114.913 Y120.657
G1 X114.766 Y120.369
G1 X114.629 Y120.075
G1 X114.503 Y119.775
G1 X114.387 Y119.469
G1 X114.283 Y119.158
G1 X114.190 Y118.843
G1 X114.108 Y118.523
G1 X114.038 Y118.200
G1 X113.979 Y117.873
G1 X113.933 Y117.543
G1 X113.898 Y117.210
G1 X113.875 Y116.875
G1 X113.864 Y116.539
G1 X113.866 Y116.201
G1 X113.880 Y115.862
G1 X113.906 Y115.523
G1 X113.944 Y115.184
G1 X113.994 Y114.845
G1 X114.057 Y114.507
G1 X114.132 Y114.171
G1 X114.219 Y113.836
G1 X114.318 Y113.504
G1 X114.430 Y113.174
G1 X114.553 Y112.847
G1 X114.688 Y112.524
G1 X114.834 Y112.205
G1 X114.993 Y111.890
G1 X115.162 Y111.580
G1 X115.343 Y111.275
G1 X115.535 Y110.975
G1 X115.737 Y110.682
G1 X115.950 Y110.395
G1 X116.174 Y110.115
G1 X116.408 Y109.842
G1 X116.651 Y109.576
G1 X116.905 Y109.318
G1 X117.167 Y109.068
G1 X117.439 Y108.827
G1 X117.719 Y108.595
G1 X118.008 Y108.371
G1 X118.305 Y108.158
G1 X118.609 Y107.954
G1 X118.921 Y107.759
G1 X119.240 Y107.576
G1 X119.566 Y107.402
G1 X119.898 Y107.240
G1 X120.236 Y107.088
G1 X120.579 Y106.948
G1 X120.928 Y106.819
G1 X121.281 Y106.702
G1 X121.639 Y106.596
G1 X122.000 Y106.503
G1 X122.365 Y106.421
G1 X122.733 Y106.351
G1 X123.103 Y106.294
G1 X123.476 Y106.249
G1 X123.850 Y106.216
G1 X124.226 Y106.196
G1 X124.602 Y106.189
G1 X124.979 Y106.194
G1 X125.355 Y106.211
G1 X125.731 Y106.241
G1 X126.106 Y106.284
G1 X126.480 Y106.339
G1 X126.852 Y106.406
G1 X127.221 Y106.486
G1 X127.588 Y106.578
G1 X127.952 Y106.683
G1 X128.312 Y106.799
G1 X128.667 Y106.927
G1 X129.019 Y107.067
G1 X129.365 Y107.219
G1 X129.706 Y107.382
G1 X130.042 Y107.556
G1 X130.371 Y107.741
G1 X130.694 Y107.937
G1 X131.010 Y108.144
G1 X131.318 Y108.361
G1 X131.619 Y108.588
G1 X131.912 Y108.825
G1 X132.197 Y109.071
G1 X132.473 Y109.326
G1 X132.740 Y109.591
G1 X132.997 Y109.863
G1 X133.245 Y110.144
G1 X133.484 Y110.433
G1 X133.712 Y110.729
G1 X133.929 Y111.033
G1 X134.136 Y111.343
G1 X134.332 Y111.659
G1 X134.517 Y111.982
G1 X134.690 Y112.310
G1 X134.852 Y112.643
G1 X135.002 Y112.981
G1 X135.140 Y113.323
G1 X135.266 Y113.669
G1 X135.380 Y114.019
G1 X135.482 Y114.372
G1 X135.571 Y114.727
G1 X135.648 Y115.084
G1 X135.713 Y115.443
G1 X135.764 Y115.803
G1 X135.803 Y116.164
G1 X135.830 Y116.525
G1 X135.843 Y116.886
G1 X135.845 Y117.247
G1 X135.833 Y117.606
G1 X135.809 Y117.964
G1 X135.772 Y118.320
G1 X135.723 Y118.673
G1 X135.662 Y119.024
G1 X135.588 Y119.372
G1 X135.503 Y119.715
G1 X135.405 Y120.055
G1 X135.295 Y120.390
G1 X135.174 Y120.719
G1 X135.042 Y121.044
G1 X134.898 Y121.362
G1 X134.743 Y121.675
G1 X134.577 Y121.980
G1 X134.401 Y122.279
G1 X134.215 Y122.570
G1 X134.018 Y122.854
G1 X133.812 Y123.129
G1 X133.596 Y123.396
G1 X133.371 Y123.654
G1 X133.138 Y123.903
G1 X132.896 Y124.142
G1 X132.646 Y124.372
G1 X132.388 Y124.592
G1 X132.122 Y124.801
G1 X131.850 Y125.000
G1 X131.571 Y125.188
G1 X131.286 Y125.365
G1 X130.995 Y125.530
G1 X130.698 Y125.685
G1 X130.397 Y125.827
G1 X130.091 Y125.958
G1 X129.781 Y126.076
G1 X129.467 Y126.183
G1 X129.150 Y126.277
G1 X128.830 Y126.359
G1 X128.507 Y126.428
G1 X128.183 Y126.484
G1 X127.857 Y126.528
G1 X127.531 Y126.560
G1 X127.204 Y126.578
G1 X126.876 Y126.584
G1 X126.549 Y126.578
G1 X126.223 Y126.558
G1 X125.899 Y126.526
G1 X125.576 Y126.481
G1 X125.255 Y126.424
G1 X124.937 Y126.354
G1 X124.622 Y126.272
G1 X124.310 Y126.177
G1 X124.003 Y126.071
G1 X123.700 Y125.952
G1 X123.402 Y125.822
G1 X123.109 Y125.680
G1 X122.822 Y125.526
G1 X122.542 Y125.362
G1 X122.267 Y125.186
G1 X122.000 Y125.000
G1 X121.740 Y124.803
G1 X121.488 Y124.596
G1 X121.244 Y124.379
G1 X121.008 Y124.153
G1 X120.781 Y123.917
G1 X120.563 Y123.672
G1 X120.355 Y123.418
G1 X120.156 Y123.156
G1 X119.968 Y122.886
G1 X119.790 Y122.609
G1 X119.622 Y122.324
G1 X119.466 Y122.033
G1 X119.320 Y121.735
G1 X119.186 Y121.431
G1 X119.064 Y121.121
G1 X118.953 Y120.806
G1 X118.854 Y120.486
G1 X118.767 Y120.162
G1 X118.693 Y119.834
G1 X118.631 Y119.503
G1 X118.582 Y119.168
G1 X118.545 Y118.831
G1 X118.522 Y118.492
G1 X118.511 Y118.152
G1 X118.512 Y117.810
G1 X118.527 Y117.467
G1 X118.555 Y117.124
G1 X118.596 Y116.782
G1 X118.650 Y116.440
G1 X118.716 Y116.099
G1 X118.796 Y115.760
G1 X118.888 Y115.423
G1 X118.993 Y115.088
G1 X119.111 Y114.757
G1 X119.242 Y114.429
G1 X119.384 Y114.105
G1 X119.539 Y113.786
G1 X119.707 Y113.471
G1 X119.886 Y113.161
G1 X120.077 Y112.857
G1 X120.279 Y112.560
G1 X120.493 Y112.269
G1 X120.718 Y111.984
G1 X120.954 Y111.707
G1 X121.200 Y111.438
G1 X121.457 Y111.177
G1 X121.724 Y110.925
G1 X122.000 Y110.681
G1 X122.286 Y110.447
G1 X122.581 Y110.222
G1 X122.884 Y110.007
G1 X123.196 Y109.802
G1 X123.516 Y109.607
G1 X123.844 Y109.423
G1 X124.178 Y109.251
G1 X124.520 Y109.089
G1 X124.868 Y108.939
G1 X125.222 Y108.801
G1 X125.582 Y108.675
G1 X125.947 Y108.561
G1 X126.316 Y108.460
G1 X126.690 Y108.371
G1 X127.068 Y108.294
G1 X127.449 Y108.231
G1 X127.833 Y108.180
G1 X128.219 Y108.143
G1 X128.607 Y108.118
G1 X128.997 Y108.107
G1 X129.388 Y108.109
G1 X129.780 Y108.124
G1 X130.171 Y108.153
G1 X130.563 Y108.195
G1 X130.953 Y108.250
G1 X131.342 Y108.318
G1 X131.729 Y108.400
G1 X132.114 Y108.495
G1 X132.497 Y108.603
G1 X132.876 Y108.724
G1 X133.251 Y108.857
G1 X133.622 Y109.004
G1 X133.989 Y109.163
G1 X134.350 Y109.334
G1 X134.706 Y109.518
G1 X135.056 Y109.713
G1 X135.400 Y109.920
G1 X135.737 Y110.139
G1 X136.067 Y110.370
G1 X136.389 Y110.611
G1 X136.703 Y110.863
G1 X137.009 Y111.125
G1 X137.307 Y111.398
G1 X137.595 Y111.681
G1 X137.873 Y111.973
G1 X138.142 Y112.274
G1 X138.401 Y112.585
G1 X138.650 Y112.903
G1 X138.887 Y113.230
G1 X139.114 Y113.565
G1 X139.329 Y113.907
G1 X139.533 Y114.256
G1 X139.725 Y114.611
G1 X139.905 Y114.973
G1 X140.073 Y115.340
G1 X140.229 Y115.712
G1 X140.371 Y116.089
G1 X140.502 Y116.471
G1 X140.619 Y116.856
G1 X140.723 Y117.245
G1 X140.814 Y117.636
G1 X140.892 Y118.031
G1 X140.956 Y118.427
G1 X141.007 Y118.824
G1 X141.044 Y119.223
G1 X141.068 Y119.622
G1 X141.079 Y120.021
G1 X141.076 Y120.420
G1 X141.060 Y120.818
G1 X141.030 Y121.215
G1 X140.986 Y121.609
G1 X140.930 Y122.002
G1 X140.860 Y122.391
G1 X140.777 Y122.778
G1 X140.682 Y123.160
G1 X140.573 Y123.538
G1 X140.452 Y123.912
G1 X140.318 Y124.280
G1 X140.172 Y124.643
G1 X140.013 Y125.000
G1 X139.843 Y125.350
G1 X139.661 Y125.694
G1 X139.468 Y126.030
G1 X139.264 Y126.359
G1 X139.049 Y126.679
G1 X138.823 Y126.991
G1 X138.587 Y127.294
G1 X138.342 Y127.588
G1 X138.086 Y127.873
G1 X137.822 Y128.147
G1 X137.548 Y128.411
G1 X137.266 Y128.665
G1 X136.977 Y128.908
G1 X136.679 Y129.140
G1 X136.374 Y129.360
G1 X136.062 Y129.569
G1 X135.744 Y129.766
G1 X135.419 Y129.951
G1 X135.089 Y130.123
G1 X134.754 Y130.283
G1 X134.414 Y130.430
G1 X134.070 Y130.565
G1 X133.723 Y130.686
G1 X133.372 Y130.794
G1 X133.018 Y130.889
G1 X132.662 Y130.971
G1 X132.304 Y131.039
G1 X131.944 Y131.094
G1 X131.584 Y131.135
G1 X131.223 Y131.163
G1 X130.863 Y131.177
G1 X130.503 Y131.178
G1 X130.144 Y131.165
G1 X129.787 Y131.138
G1 X129.431 Y131.099
G1 X129.079 Y131.046
G1 X128.729 Y130.980
G1 X128.383 Y130.900
G1 X128.041 Y130.808
G1 X127.703 Y130.703
G1 X127.370 Y130.585
G1 X127.042 Y130.455
G1 X126.721 Y130.312
G1 X126.405 Y130.158
G1 X126.097 Y129.992
G1 X125.795 Y129.814
G1 X125.501 Y129.625
G1 X125.215 Y129.424
G1 X124.937 Y129.213
G1 X124.667 Y128.992
G1 X124.407 Y128.761
G1 X124.157 Y128.519
G1 X123.916 Y128.269
G1 X123.685 Y128.009
G1 X123.465 Y127.741
G1 X123.255 Y127.464
G1 X123.057 Y127.179
G1 X122.870 Y126.887
G1 X122.694 Y126.588
G1 X122.531 Y126.282
G1 X122.379 Y125.970
G1 X122.240 Y125.652
G1 X122.114 Y125.328
G1 X122.000 Y125.000
G1 X121.899 Y124.667
G1 X121.811 Y124.331
G1 X121.737 Y123.991
G1 X121.675 Y123.647
G1 X121.627 Y123.302
G1 X121.593 Y122.954
G1 X121.572 Y122.605
G1 X121.565 Y122.255
G1 X121.572 Y121.904
G1 X121.592 Y121.553
G1 X121.626 Y121.203
G1 X121.674 Y120.853
G1 X121.735 Y120.505
G1 X121.810 Y120.159
G1 X121.898 Y119.815
G1 X122.000 Y119.474
G1 X122.115 Y119.137
G1 X122.243 Y118.803
G1 X122.385 Y118.474
G1 X122.539 Y118.150
G1 X122.706 Y117.831
G1 X122.886 Y117.517
G1 X123.077 Y117.210
G1 X123.281 Y116.910
G1 X123.497 Y116.616
G1 X123.725 Y116.330
G1 X123.963 Y116.052
G1 X124.213 Y115.783
G1 X124.473 Y115.522
G1 X124.744 Y115.270
G1 X125.025 Y115.028
G1 X125.316 Y114.795
G1 X125.616 Y114.573
G1 X125.925 Y114.361
G1 X126.242 Y114.161
G1 X126.568 Y113.971
G1 X126.902 Y113.793
G1 X127.243 Y113.626
G1 X127.591 Y113.472
G1 X127.946 Y113.330
G1 X128.307 Y113.201
G1 X128.673 Y113.084
G1 X129.045 Y112.980
G1 X129.422 Y112.889
G1 X129.802 Y112.812
G1 X130.187 Y112.748
G1 X130.574 Y112.697
G1 X130.965 Y112.661
G1 X131.358 Y112.638
G1 X131.753 Y112.629
G1 X132.149 Y112.634
G1 X132.546 Y112.653
G1 X132.943 Y112.686
G1 X133.340 Y112.733
G1 X133.736 Y112.794
G1 X134.131 Y112.869
G1 X134.525 Y112.958
G1 X134.916 Y113.061
G1 X135.305 Y113.177
G1 X135.690 Y113.308
G1 X136.072 Y113.452
G1 X136.449 Y113.609
G1 X136.822 Y113.780
G1 X137.190 Y113.964
G1 X137.552 Y114.161
G1 X137.908 Y114.371
G1 X138.257 Y114.593
G1 X138.600 Y114.828
G1 X138.935 Y115.074
G1 X139.262 Y115.333
G1 X139.581 Y115.603
G1 X139.892 Y115.884
G1 X140.193 Y116.176
G1 X140.485 Y116.478
G1 X140.767 Y116.791
G1 X141.039 Y117.114
G1 X141.300 Y117.446
G1 X141.551 Y117.787
G1 X141.790 Y118.138
G1 X142.017 Y118.496
G1 X142.233 Y118.862
G1 X142.437 Y119.236
G1 X142.628 Y119.617
G1 X142.807 Y120.005
G1 X142.973 Y120.398
G1 X143.126 Y120.798
G1 X143.265 Y121.202
G1 X143.391 Y121.612
G1 X143.504 Y122.026
G1 X143.603 Y122.443
G1 X143.688 Y122.864
G1 X143.758 Y123.288
G1 X143.815 Y123.713
G1 X143.858 Y124.141
G1 X143.886 Y124.570
G1 X143.900 Y125.000
G1 X143.900 Y125.430
G1 X143.885 Y125.860
G1 X143.856 Y126.289
G1 X143.813 Y126.717
G1 X143.756 Y127.143
G1 X143.684 Y127.566
G1 X143.599 Y127.987
G1 X143.499 Y128.405
G1 X143.386 Y128.819
G1 X143.259 Y129.229
G1 X143.118 Y129.633
G1 X142.964 Y130.033
G1 X142.797 Y130.427
G1 X142.617 Y130.815
G1 X142.425 Y131.196
G1 X142.219 Y131.570
G1 X142.002 Y131.936
G1 X141.773 Y132.295
G1 X141.532 Y132.645
G1 X141.279 Y132.986
G1 X141.016 Y133.318
G1 X140.742 Y133.640
G1 X140.458 Y133.953
G1 X140.164 Y134.255
G1 X139.860 Y134.546
G1 X139.547 Y134.827
G1 X139.225 Y135.096
G1 X138.894 Y135.353
G1 X138.556 Y135.598
G1 X138.210 Y135.831
G1 X137.857 Y136.052
G1 X137.498 Y136.260
G1 X137.132 Y136.455
G1 X136.761 Y136.637
G1 X136.384 Y136.805
G1 X136.003 Y136.960
G1 X135.617 Y137.101
G1 X135.228 Y137.228
G1 X134.835 Y137.341
G1 X134.440 Y137.440
G1 X134.042 Y137.525
G1 X133.643 Y137.595
G1 X133.242 Y137.651
G1 X132.841 Y137.693
G1 X132.440 Y137.721
G1 X132.039 Y137.734
G1 X131.638 Y137.733
G1 X131.239 Y137.717
G1 X130.842 Y137.687
G1 X130.448 Y137.643
G1 X130.056 Y137.585
G1 X129.668 Y137.513
G1 X129.284 Y137.427
G1 X128.904 Y137.327
G1 X128.529 Y137.214
G1 X128.159 Y137.088
G1 X127.795 Y136.948
G1 X127.438 Y136.795
G1 X127.087 Y136.630
G1 X126.744 Y136.453
G1 X126.408 Y136.263
G1 X126.081 Y136.061
G1 X125.762 Y135.848
G1 X125.452 Y135.623
G1 X125.151 Y135.388
G1 X124.860 Y135.142
G1 X124.580 Y134.886
G1 X124.309 Y134.620
G1 X124.050 Y134.344
G1 X123.802 Y134.059
G1 X123.565 Y133.766
G1 X123.341 Y133.465
G1 X123.128 Y133.155
G1 X122.928 Y132.839
G1 X122.740 Y132.515
G1 X122.565 Y132.185
G1 X122.404 Y131.849
G1 X122.256 Y131.508
G1 X122.121 Y131.161
G1 X122.000 Y130.810
G1 X121.893 Y130.456
G1 X121.800 Y130.097
G1 X121.721 Y129.736
G1 X121.656 Y129.372
G1 X121.605 Y129.006
G1 X121.569 Y128.638
G1 X121.548 Y128.270
G1 X121.540 Y127.901
G1 X121.548 Y127.533
G1 X121.569 Y127.165
G1 X121.605 Y126.798
G1 X121.656 Y126.433
G1 X121.721 Y126.070
G1 X121.800 Y125.710
G1 X121.893 Y125.353
G1 X122.000 Y125.000
G1 X122.121 Y124.651
G1 X122.256 Y124.307
G1 X122.404 Y123.968
G1 X122.565 Y123.635
G1 X122.740 Y123.308
G1 X122.927 Y122.988
G1 X123.128 Y122.675
G1 X123.340 Y122.370
G1 X123.565 Y122.073
G1 X123.801 Y121.784
G1 X124.049 Y121.504
G1 X124.308 Y121.234
G1 X124.578 Y120.973
G1 X124.858 Y120.722
G1 X125.149 Y120.482
G1 X125.449 Y120.253
G1 X125.758 Y120.035
G1 X126.077 Y119.829
G1 X126.403 Y119.634
G1 X126.738 Y119.452
G1 X127.081 Y119.282
G1 X127.430 Y119.125
G1 X127.787 Y118.981
G1 X128.149 Y118.851
G1 X128.518 Y118.733
G1 X128.891 Y118.630
G1 X129.270 Y118.540
G1 X129.652 Y118.464
G1 X130.038 Y118.403
G1 X130.428 Y118.356
G1 X130.820 Y118.323
G1 X131.215 Y118.305
G1 X131.611 Y118.302
G1 X132.008 Y118.313
G1 X132.406 Y118.339
G1 X132.804 Y118.379
G1 X133.201 Y118.435
G1 X133.598 Y118.505
G1 X133.993 Y118.590
G1 X134.386 Y118.689
G1 X134.776 Y118.803
G1 X135.164 Y118.931
G1 X135.547 Y119.074
G1 X135.927 Y119.231
G1 X136.302 Y119.402
G1 X136.671 Y119.587
G1 X137.036 Y119.786
G1 X137.393 Y119.998
G1 X137.745 Y120.224
G1 X138.089 Y120.462
G1 X138.426 Y120.714
G1 X138.754 Y120.978
G1 X139.074 Y121.254
G1 X139.385 Y121.542
G1 X139.687 Y121.841
G1 X139.979 Y122.152
G1 X140.261 Y122.474
G1 X140.533 Y122.807
G1 X140.793 Y123.149
G1 X141.042 Y123.501
G1 X141.279 Y123.863
G1 X141.505 Y124.234
G1 X141.718 Y124.613
G1 X141.919 Y125.000
G1 X142.106 Y125.395
G1 X142.281 Y125.797
G1 X142.442 Y126.206
G1 X142.589 Y126.620
G1 X142.723 Y127.041
G1 X142.842 Y127.467
G1 X142.947 Y127.897
G1 X143.038 Y128.332
G1 X143.114 Y128.770
G1 X143.175 Y129.212
G1 X143.222 Y129.656
G1 X143.254 Y130.103
G1 X143.270 Y130.550
G1 X143.272 Y130.999
G1 X143.259 Y131.449
G1 X143.230 Y131.898
G1 X143.186 Y132.347
G1 X143.128 Y132.794
G1 X143.054 Y133.240
G1 X142.966 Y133.684
G1 X142.862 Y134.125
G1 X142.744 Y134.563
G1 X142.611 Y134.997
G1 X142.464 Y135.427
G1 X142.302 Y135.852
G1 X142.126 Y136.271
G1 X141.936 Y136.685
G1 X141.733 Y137.092
G1 X141.515 Y137.493
G1 X141.285 Y137.886
G1 X141.042 Y138.271
G1 X140.785 Y138.648
G1 X140.517 Y139.017
G1 X140.236 Y139.376
G1 X139.944 Y139.726
G1 X139.640 Y140.066
G1 X139.325 Y140.395
G1 X138.999 Y140.714
G1 X138.663 Y141.021
G1 X138.317 Y141.317
G1 X137.962 Y141.601
G1 X137.597 Y141.873
G1 X137.224 Y142.132
G1 X136.843 Y142.379
G1 X136.454 Y142.612
G1 X136.058 Y142.832
G1 X135.655 Y143.039
G1 X135.246 Y143.231
G1 X134.831 Y143.410
G1 X134.411 Y143.574
G1 X133.986 Y143.724
G1 X133.557 Y143.859
G1 X133.124 Y143.979
G1 X132.688 Y144.084
G1 X132.249 Y144.175
G1 X131.808 Y144.250
G1 X131.366 Y144.310
G1 X130.923 Y144.355
G1 X130.479 Y144.385
G1 X130.036 Y144.400
G1 X129.593 Y144.399
G1 X129.151 Y144.383
G1 X128.711 Y144.352
G1 X128.273 Y144.306
G1 X127.838 Y144.245
G1 X127.406 Y144.169
G1 X126.978 Y144.079
G1 X126.555 Y143.973
G1 X126.137 Y143.854
G1 X125.724 Y143.720
G1 X125.317 Y143.572
G1 X124.916 Y143.410
G1 X124.522 Y143.235
G1 X124.136 Y143.047
G1 X123.758 Y142.845
G1 X123.388 Y142.631
G1 X123.026 Y142.404
G1 X122.674 Y142.165
G1 X122.332 Y141.914
G1 X122.000 Y141.652
G1 X121.678 Y141.379
G1 X121.368 Y141.096
G1 X121.068 Y140.802
G1 X120.780 Y140.498
G1 X120.504 Y140.185
G1 X120.241 Y139.862
G1 X119.990 Y139.532
G1 X119.752 Y139.193
G1 X119.527 Y138.847
G1 X119.316 Y138.493
G1 X119.119 Y138.133
G1 X118.935 Y137.767
G1 X118.766 Y137.395
G1 X118.611 Y137.018
G1 X118.470 Y136.637
G1 X118.344 Y136.251
G1 X118.233 Y135.862
G1 X118.137 Y135.470
G1 X118.057 Y135.076
G1 X117.991 Y134.679
G1 X117.940 Y134.282
G1 X117.905 Y133.883
G1 X117.885 Y133.485
G1 X117.880 Y133.086
G1 X117.890 Y132.689
G1 X117.916 Y132.293
G1 X117.957 Y131.899
G1 X118.012 Y131.507
G1 X118.083 Y131.119
G1 X118.169 Y130.734
G1 X118.269 Y130.353
G1 X118.384 Y129.977
G1 X118.513 Y129.606
G1 X118.656 Y129.241
G1 X118.814 Y128.882
G1 X118.985 Y128.530
G1 X119.169 Y128.185
G1 X119.367 Y127.848
G1 X119.578 Y127.519
G1 X119.801 Y127.199
G1 X120.037 Y126.888
G1 X120.284 Y126.586
G1 X120.543 Y126.294
G1 X120.814 Y126.013
G1 X121.095 Y125.743
G1 X121.387 Y125.483
G1 X121.689 Y125.236
G1 X122.000 Y125.000
G1 X122.321 Y124.777
G1 X122.650 Y124.566
G1 X122.988 Y124.368
G1 X123.333 Y124.183
G1 X123.686 Y124.012
G1 X124.046 Y123.854
G1 X124.412 Y123.711
G1 X124.784 Y123.582
G1 X125.161 Y123.467
G1 X125.543 Y123.367
G1 X125.929 Y123.281
G1 X126.319 Y123.211
G1 X126.712 Y123.156
G1 X127.108 Y123.116
G1 X127.506 Y123.091
G1 X127.905 Y123.081
G1 X128.306 Y123.087
G1 X128.706 Y123.109
G1 X129.107 Y123.145
G1 X129.507 Y123.198
G1 X129.906 Y123.265
G1 X130.302 Y123.349
G1 X130.697 Y123.447
G1 X131.088 Y123.561
G1 X131.476 Y123.689
G1 X131.860 Y123.833
G1 X132.240 Y123.991
G1 X132.614 Y124.165
G1 X132.983 Y124.352
G1 X133.345 Y124.554
G1 X133.701 Y124.770
G1 X134.050 Y125.000
G1 X134.391 Y125.243
G1 X134.724 Y125.500
G1 X135.048 Y125.769
G1 X135.363 Y126.052
G1 X135.669 Y126.346
G1 X135.964 Y126.653
G1 X136.249 Y126.971
G1 X136.524 Y127.300
G1 X136.787 Y127.641
G1 X137.038 Y127.991
G1 X137.277 Y128.352
G1 X137.504 Y128.722
G1 X137.718 Y129.102
G1 X137.919 Y129.490
G1 X138.107 Y129.886
G1 X138.281 Y130.290
G1 X138.441 Y130.701
G1 X138.587 Y131.119
G1 X138.719 Y131.544
G1 X138.836 Y131.974
G1 X138.938 Y132.409
G1 X139.024 Y132.848
G1 X139.096 Y133.292
G1 X139.153 Y133.740
G1 X139.193 Y134.190
G1 X139.219 Y134.643
G1 X139.228 Y135.098
G1 X139.222 Y135.554
G1 X139.200 Y136.010
G1 X139.162 Y136.467
G1 X139.109 Y136.924
G1 X139.039 Y137.380
G1 X138.954 Y137.834
G1 X138.853 Y138.286
G1 X138.737 Y138.735
G1 X138.605 Y139.182
G1 X138.457 Y139.624
G1 X138.294 Y140.062
G1 X138.117 Y140.496
G1 X137.924 Y140.924
G1 X137.716 Y141.346
G1 X137.494 Y141.761
G1 X137.258 Y142.170
G1 X137.007 Y142.571
G1 X136.743 Y142.964
G1 X136.465 Y143.349
G1 X136.174 Y143.725
G1 X135.870 Y144.091
G1 X135.554 Y144.447
G1 X135.225 Y144.793
G1 X134.885 Y145.129
G1 X134.533 Y145.453
G1 X134.171 Y145.765
G1 X133.797 Y146.066
G1 X133.414 Y146.354
G1 X133.021 Y146.630
G1 X132.618 Y146.892
G1 X132.207 Y147.141
G1 X131.788 Y147.377
G1 X131.360 Y147.598
G1 X130.926 Y147.805
G1 X130.484 Y147.998
G1 X130.037 Y148.176
G1 X129.583 Y148.339
G1 X129.125 Y148.487
G1 X128.661 Y148.619
G1 X128.194 Y148.736
G1 X127.723 Y148.838
G1 X127.249 Y148.923
G1 X126.772 Y148.993
G1 X126.294 Y149.047
G1 X125.815 Y149.084
G1 X125.334 Y149.106
G1 X124.854 Y149.112
G1 X124.374 Y149.101
G1 X123.895 Y149.075
G1 X123.417 Y149.033
G1 X122.942 Y148.974
G1 X122.469 Y148.900
G1 X122.000 Y148.810
G1 X121.535 Y148.705
G1 X121.073 Y148.584
G1 X120.617 Y148.447
G1 X120.167 Y148.296
G1 X119.722 Y148.130
G1 X119.284 Y147.949
G1 X118.853 Y147.753
G1 X118.429 Y147.543
G1 X118.014 Y147.320
G1 X117.607 Y147.083
G1 X117.210 Y146.832
G1 X116.822 Y146.569
G1 X116.444 Y146.293
G1 X116.076 Y146.005
G1 X115.719 Y145.705
G1 X115.374 Y145.393
G1 X115.040 Y145.071
G1 X114.718 Y144.738
G1 X114.409 Y144.394
G1 X114.113 Y144.041
G1 X113.830 Y143.679
G1 X113.560 Y143.308
G1 X113.304 Y142.928
G1 X113.062 Y142.541
G1 X112.835 Y142.147
G1 X112.622 Y141.746
G1 X112.424 Y141.338
G1 X112.241 Y140.925
G1 X112.073 Y140.507
G1 X111.921 Y140.084
G1 X111.784 Y139.657
G1 X111.663 Y139.227
G1 X111.558 Y138.794
G1 X111.469 Y138.359
G1 X111.396 Y137.921
G1 X111.339 Y137.483
G1 X111.298 Y137.044
G1 X111.273 Y136.605
G1 X111.264 Y136.166
G1 X111.271 Y135.729
G1 X111.294 Y135.294
G1 X111.333 Y134.860
G1 X111.388 Y134.430
G1 X111.459 Y134.003
G1 X111.545 Y133.580
G1 X111.646 Y133.162
G1 X111.763 Y132.749
G1 X111.895 Y132.341
G1 X112.042 Y131.940
G1 X112.204 Y131.546
G1 X112.379 Y131.159
G1 X112.569 Y130.779
G1 X112.773 Y130.408
G1 X112.990 Y130.046
G1 X113.221 Y129.693
G1 X113.464 Y129.349
G1 X113.719 Y129.016
G1 X113.987 Y128.694
G1 X114.266 Y128.383
G1 X114.557 Y128.083
G1 X114.859 Y127.795
G1 X115.171 Y127.519
G1 X115.493 Y127.257
G1 X115.824 Y127.007
G1 X116.165 Y126.770
G1 X116.514 Y126.547
G1 X116.871 Y126.338
G1 X117.235 Y126.144
G1 X117.607 Y125.964
G1 X117.985 Y125.799
G1 X118.369 Y125.648
G1 X118.758 Y125.513
G1 X119.153 Y125.394
G1 X119.551 Y125.290
G1 X119.953 Y125.202
G1 X120.359 Y125.129
G1 X120.767 Y125.073
G1 X121.177 Y125.032
G1 X121.588 Y125.008
G1 X122.000 Y125.000
G1 X122.412 Y125.008
G1 X122.824 Y125.032
G1 X123.235 Y125.073
G1 X123.645 Y125.129
G1 X124.052 Y125.202
G1 X124.457 Y125.291
G1 X124.858 Y125.395
G1 X125.256 Y125.516
G1 X125.649 Y125.652
G1 X126.037 Y125.803
G1 X126.420 Y125.970
G1 X126.796 Y126.151
G1 X127.166 Y126.348
G1 X127.529 Y126.559
G1 X127.883 Y126.785
G1 X128.230 Y127.024
G1 X128.568 Y127.278
G1 X128.897 Y127.544
G1 X129.216 Y127.824
G1 X129.525 Y128.117
G1 X129.823 Y128.422
G1 X130.110 Y128.739
G1 X130.385 Y129.067
G1 X130.649 Y129.407
G1 X130.900 Y129.757
G1 X131.139 Y130.118
G1 X131.364 Y130.488
G1 X131.576 Y130.868
G1 X131.774 Y131.257
G1 X131.958 Y131.654
G1 X132.128 Y132.059
G1 X132.283 Y132.471
G1 X132.423 Y132.890
G1 X132.547 Y133.315
G1 X132.657 Y133.746
G1 X132.751 Y134.182
G1 X132.828 Y134.622
G1 X132.890 Y135.067
G1 X132.936 Y135.515
G1 X132.966 Y135.966
G1 X132.979 Y136.419
G1 X132.976 Y136.874
G1 X132.957 Y137.330
G1 X132.920 Y137.786
G1 X132.868 Y138.242
G1 X132.799 Y138.698
G1 X132.713 Y139.152
G1 X132.611 Y139.605
G1 X132.492 Y140.055
G1 X132.358 Y140.501
G1 X132.207 Y140.945
G1 X132.040 Y141.384
G1 X131.857 Y141.818
G1 X131.658 Y142.246
G1 X131.444 Y142.669
G1 X131.215 Y143.086
G1 X130.971 Y143.495
G1 X130.711 Y143.897
G1 X130.438 Y144.290
G1 X130.150 Y144.675
G1 X129.848 Y145.051
G1 X129.532 Y145.417
G1 X129.203 Y145.773
G1 X128.862 Y146.118
G1 X128.508 Y146.452
G1 X128.141 Y146.775
G1 X127.763 Y147.086
G1 X127.374 Y147.384
G1 X126.974 Y147.670
G1 X126.564 Y147.943
G1 X126.143 Y148.202
G1 X125.714 Y148.447
G1 X125.275 Y148.678
G1 X124.828 Y148.894
G1 X124.373 Y149.096
G1 X123.911 Y149.282
G1 X123.442 Y149.453
G1 X122.967 Y149.609
G1 X122.486 Y149.749
G1 X122.000 Y149.873
G1 X121.509 Y149.980
G1 X121.015 Y150.071
G1 X120.517 Y150.146
G1 X120.016 Y150.204
G1 X119.514 Y150.246
G1 X119.009 Y150.270
G1 X118.504 Y150.278
G1 X117.998 Y150.269
G1 X117.492 Y150.243
G1 X116.987 Y150.201
G1 X116.484 Y150.141
G1 X115.982 Y150.065
G1 X115.484 Y149.972
G1 X114.988 Y149.863
G1 X114.496 Y149.737
G1 X114.009 Y149.594
G1 X113.526 Y149.436
G1 X113.049 Y149.262
G1 X112.579 Y149.071
G1 X112.114 Y148.866
G1 X111.658 Y148.645
G1 X111.208 Y148.409
G1 X110.768 Y148.158
G1 X110.335 Y147.893
G1 X109.913 Y147.614
G1 X109.500 Y147.321
G1 X109.097 Y147.014
G1 X108.706 Y146.695
G1 X108.325 Y146.362
G1 X107.956 Y146.018
G1 X107.599 Y145.662
G1 X107.255 Y145.294
G1 X106.924 Y144.916
G1 X106.606 Y144.527
G1 X106.302 Y144.128
G1 X106.012 Y143.720
G1 X105.736 Y143.302
G1 X105.475 Y142.876
G1 X105.229 Y142.443
G1 X104.998 Y142.002
G1 X104.783 Y141.554
G1 X104.584 Y141.100
G1 X104.400 Y140.640
G1 X104.233 Y140.175
G1 X104.081 Y139.705
G1 X103.947 Y139.232
G1 X103.829 Y138.755
G1 X103.728 Y138.276
G1 X103.643 Y137.794
G1 X103.576 Y137.311
G1 X103.525 Y136.827
G1 X103.491 Y136.342
G1 X103.474 Y135.858
G1 X103.475 Y135.375
G1 X103.492 Y134.893
G1 X103.526 Y134.413
G1 X103.576 Y133.936
G1 X103.643 Y133.462
G1 X103.727 Y132.993
G1 X103.827 Y132.527
G1 X103.944 Y132.067
G1 X104.076 Y131.613
G1 X104.224 Y131.164
G1 X104.387 Y130.723
G1 X104.566 Y130.289
G1 X104.760 Y129.862
G1 X104.968 Y129.444
G1 X105.191 Y129.035
G1 X105.428 Y128.636
G1 X105.679 Y128.246
G1 X105.943 Y127.867
G1 X106.220 Y127.499
G1 X106.509 Y127.143
G1 X106.811 Y126.798
G1 X107.124 Y126.465
G1 X107.449 Y126.145
G1 X107.784 Y125.838
G1 X108.130 Y125.545
G1 X108.485 Y125.265
G1 X108.850 Y125.000
G1 X109.224 Y124.749
G1 X109.605 Y124.513
G1 X109.995 Y124.292
G1 X110.392 Y124.086
G1 X110.795 Y123.896
G1 X111.204 Y123.722
G1 X111.619 Y123.564
G1 X112.039 Y123.422
G1 X112.462 Y123.297
G1 X112.890 Y123.188
G1 X113.321 Y123.096
G1 X113.754 Y123.020
G1 X114.189 Y122.962
G1 X114.625 Y122.920
G1 X115.062 Y122.895
G1 X115.499 Y122.888
G1 X115.936 Y122.897
G1 X116.371 Y122.923
G1 X116.804 Y122.966
G1 X117.235 Y123.026
G1 X117.663 Y123.103
G1 X118.087 Y123.196
G1 X118.507 Y123.306
G1 X118.922 Y123.432
G1 X119.332 Y123.574
G1 X119.736 Y123.732
G1 X120.133 Y123.906
G1 X120.523 Y124.095
G1 X120.905 Y124.299
G1 X121.279 Y124.518
G1 X121.644 Y124.752
G1 X122.000 Y125.000
G1 X122.346 Y125.262
G1 X122.682 Y125.537
G1 X123.007 Y125.826
G1 X123.320 Y126.128
G1 X123.622 Y126.441
G1 X123.912 Y126.767
G1 X124.189 Y127.104
G1 X124.453 Y127.453
G1 X124.703 Y127.812
G1 X124.940 Y128.180
G1 X125.163 Y128.559
G1 X125.371 Y128.946
G1 X125.564 Y129.342
G1 X125.742 Y129.746
G1 X125.904 Y130.158
G1 X126.051 Y130.576
G1 X126.182 Y131.001
G1 X126.297 Y131.431
G1 X126.395 Y131.866
G1 X126.477 Y132.306
G1 X126.542 Y132.750
G1 X126.591 Y133.197
G1 X126.622 Y133.647
G1 X126.636 Y134.099
G1 X126.633 Y134.552
G1 X126.613 Y135.007
G1 X126.576 Y135.461
G1 X126.521 Y135.915
G1 X126.450 Y136.368
G1 X126.361 Y136.820
G1 X126.255 Y137.269
G1 X126.132 Y137.716
G1 X125.992 Y138.159
G1 X125.835 Y138.597
G1 X125.661 Y139.032
G1 X125.472 Y139.460
G1 X125.265 Y139.883
G1 X125.043 Y140.300
G1 X124.805 Y140.709
G1 X124.552 Y141.111
G1 X124.283 Y141.505
G1 X123.999 Y141.889
G1 X123.700 Y142.265
G1 X123.388 Y142.631
G1 X123.061 Y142.986
G1 X122.720 Y143.331
G1 X122.367 Y143.664
G1 X122.000 Y143.986
G1 X121.621 Y144.295
G1 X121.230 Y144.592
G1 X120.828 Y144.875
G1 X120.415 Y145.145
G1 X119.991 Y145.401
G1 X119.557 Y145.643
G1 X119.113 Y145.870
G1 X118.661 Y146.082
G1 X118.200 Y146.279
G1 X117.731 Y146.460
G1 X117.255 Y146.626
G1 X116.772 Y146.775
G1 X116.283 Y146.908
G1 X115.789 Y147.024
G1 X115.289 Y147.123
G1 X114.785 Y147.205
G1 X114.277 Y147.270
G1 X113.766 Y147.318
G1 X113.253 Y147.349
G1 X112.737 Y147.362
G1 X112.221 Y147.357
G1 X111.703 Y147.335
G1 X111.186 Y147.296
G1 X110.669 Y147.238
G1 X110.153 Y147.163
G1 X109.640 Y147.071
G1 X109.128 Y146.961
G1 X108.620 Y146.834
G1 X108.116 Y146.689
G1 X107.616 Y146.528
G1 X107.120 Y146.349
G1 X106.631 Y146.154
G1 X106.147 Y145.942
G1 X105.671 Y145.714
G1 X105.201 Y145.469
G1 X104.740 Y145.209
G1 X104.287 Y144.933
G1 X103.843 Y144.642
G1 X103.408 Y144.337
G1 X102.984 Y144.016
G1 X102.570 Y143.682
G1 X102.167 Y143.333
G1 X101.776 Y142.971
G1 X101.397 Y142.596
G1 X101.031 Y142.209
G1 X100.677 Y141.809
G1 X100.337 Y141.398
G1 X100.011 Y140.976
G1 X99.699 Y140.543
G1 X99.401 Y140.100
G1 X99.119 Y139.647
G1 X98.851 Y139.185
G1 X98.600 Y138.715
G1 X98.364 Y138.237
G1 X98.144 Y137.751
G1 X97.941 Y137.259
G1 X97.754 Y136.760
G1 X97.585 Y136.256
G1 X97.432 Y135.746
G1 X97.297 Y135.232
G1 X97.179 Y134.715
G1 X97.078 Y134.194
G1 X96.995 Y133.671
G1 X96.930 Y133.146
G1 X96.883 Y132.619
G1 X96.853 Y132.092
G1 X96.841 Y131.565
G1 X96.847 Y131.039
G1 X96.871 Y130.514
G1 X96.912 Y129.990
G1 X96.971 Y129.470
G1 X97.048 Y128.952
G1 X97.141 Y128.438
G1 X97.253 Y127.929
G1 X97.381 Y127.425
G1 X97.526 Y126.926
G1 X97.688 Y126.434
G1 X97.866 Y125.948
G1 X98.061 Y125.470
G1 X98.271 Y125.000
G1 X98.497 Y124.538
G1 X98.738 Y124.086
G1 X98.994 Y123.643
G1 X99.265 Y123.211
G1 X99.550 Y122.789
G1 X99.849 Y122.378
G1 X100.161 Y121.979
G1 X100.487 Y121.593
G1 X100.824 Y121.219
G1 X101.174 Y120.858
G1 X101.536 Y120.510
G1 X101.908 Y120.176
G1 X102.292 Y119.857
G1 X102.685 Y119.553
G1 X103.088 Y119.263
G1 X103.500 Y118.989
G1 X103.920 Y118.730
G1 X104.348 Y118.488
G1 X104.783 Y118.262
G1 X105.225 Y118.052
G1 X105.674 Y117.859
G1 X106.127 Y117.683
G1 X106.586 Y117.524
G1 X107.048 Y117.382
G1 X107.515 Y117.258
G1 X107.984 Y117.151
G1 X108.456 Y117.062
G1 X108.929 Y116.990
G1 X109.404 Y116.937
G1 X109.879 Y116.901
G1 X110.354 Y116.883
G1 X110.827 Y116.883
G1 X111.300 Y116.900
G1 X111.770 Y116.935
G1 X112.238 Y116.988
G1 X112.702 Y117.058
G1 X113.162 Y117.146
G1 X113.617 Y117.251
G1 X114.067 Y117.373
G1 X114.511 Y117.511
G1 X114.949 Y117.666
G1 X115.379 Y117.838
G1 X115.802 Y118.025
G1 X116.217 Y118.229
G1 X116.623 Y118.448
G1 X117.019 Y118.682
G1 X117.405 Y118.930
G1 X117.781 Y119.194
G1 X118.146 Y119.471
G1 X118.500 Y119.762
G1 X118.841 Y120.066
G1 X119.171 Y120.383
G1 X119.487 Y120.712
G1 X119.790 Y121.053
G1 X120.079 Y121.405
G1 X120.354 Y121.769
G1 X120.614 Y122.142
G1 X120.859 Y122.526
G1 X121.089 Y122.918
G1 X121.304 Y123.319
G1 X121.502 Y123.729
G1 X121.685 Y124.146
G1 X121.851 Y124.570
G1 X122.000 Y125.000
G1 X122.132 Y125.436
G1 X122.247 Y125.877
G1 X122.345 Y126.323
G1 X122.425 Y126.772
G1 X122.488 Y127.225
G1 X122.533 Y127.680
G1 X122.560 Y128.138
G1 X122.570 Y128.596
G1 X122.561 Y129.055
G1 X122.534 Y129.515
G1 X122.490 Y129.973
G1 X122.427 Y130.431
G1 X122.347 Y130.886
G1 X122.249 Y131.339
G1 X122.133 Y131.788
G1 X122.000 Y132.234
G1 X121.849 Y132.675
G1 X121.681 Y133.111
G1 X121.496 Y133.541
G1 X121.294 Y133.965
G1 X121.076 Y134.382
G1 X120.841 Y134.792
G1 X120.590 Y135.193
G1 X120.323 Y135.585
G1 X120.041 Y135.968
G1 X119.744 Y136.341
G1 X119.432 Y136.704
G1 X119.106 Y137.056
G1 X118.765 Y137.396
G1 X118.411 Y137.725
G1 X118.044 Y138.040
G1 X117.664 Y138.343
G1 X117.273 Y138.633
G1 X116.869 Y138.909
G1 X116.454 Y139.170
G1 X116.028 Y139.417
G1 X115.593 Y139.648
G1 X115.147 Y139.865
G1 X114.693 Y140.065
G1 X114.230 Y140.250
G1 X113.759 Y140.418
G1 X113.281 Y140.569
G1 X112.796 Y140.704
G1 X112.305 Y140.821
G1 X111.808 Y140.921
G1 X111.307 Y141.004
G1 X110.801 Y141.068
G1 X110.292 Y141.115
G1 X109.780 Y141.144
G1 X109.265 Y141.154
G1 X108.749 Y141.147
G1 X108.232 Y141.121
G1 X107.714 Y141.076
G1 X107.197 Y141.014
G1 X106.681 Y140.933
G1 X106.166 Y140.834
G1 X105.654 Y140.716
G1 X105.145 Y140.581
G1 X104.639 Y140.428
G1 X104.137 Y140.256
G1 X103.641 Y140.067
G1 X103.149 Y139.861
G1 X102.664 Y139.637
G1 X102.186 Y139.396
G1 X101.715 Y139.138
G1 X101.252 Y138.863
G1 X100.798 Y138.572
G1 X100.353 Y138.265
G1 X99.918 Y137.943
G1 X99.492 Y137.605
G1 X99.078 Y137.252
G1 X98.675 Y136.885
G1 X98.284 Y136.503
G1 X97.905 Y136.108
G1 X97.540 Y135.699
G1 X97.187 Y135.278
G1 X96.848 Y134.844
G1 X96.524 Y134.399
G1 X96.214 Y133.942
G1 X95.920 Y133.474
G1 X95.640 Y132.996
G1 X95.377 Y132.509
G1 X95.129 Y132.012
G1 X94.899 Y131.506
G1 X94.685 Y130.993
G1 X94.487 Y130.473
G1 X94.308 Y129.945
G1 X94.146 Y129.412
G1 X94.001 Y128.873
G1 X93.875 Y128.329
G1 X93.766 Y127.781
G1 X93.676 Y127.229
G1 X93.604 Y126.675
G1 X93.551 Y126.118
G1 X93.516 Y125.559
G1 X93.500 Y125.000
G1 X93.502 Y124.440
G1 X93.523 Y123.881
G1 X93.563 Y123.323
G1 X93.621 Y122.767
G1 X93.698 Y122.212
G1 X93.793 Y121.661
G1 X93.906 Y121.114
G1 X94.038 Y120.571
G1 X94.187 Y120.033
G1 X94.354 Y119.501
G1 X94.539 Y118.975
G1 X94.741 Y118.456
G1 X94.960 Y117.944
G1 X95.196 Y117.441
G1 X95.449 Y116.946
G1 X95.717 Y116.460
G1 X96.002 Y115.985
G1 X96.302 Y115.519
G1 X96.617 Y115.065
G1 X96.947 Y114.623
G1 X97.290 Y114.192
G1 X97.648 Y113.774
G1 X98.019 Y113.369
G1 X98.403 Y112.977
G1 X98.800 Y112.599
G1 X99.208 Y112.236
G1 X99.628 Y111.888
G1 X100.059 Y111.554
G1 X100.499 Y111.237
G1 X100.950 Y110.935
G1 X101.410 Y110.649
G1 X101.878 Y110.380
G1 X102.354 Y110.128
G1 X102.838 Y109.894
G1 X103.328 Y109.676
G1 X103.824 Y109.476
G1 X104.326 Y109.295
G1 X104.833 Y109.131
G1 X105.343 Y108.985
G1 X105.858 Y108.858
G1 X106.375 Y108.749
G1 X106.894 Y108.658
G1 X107.415 Y108.587
G1 X107.936 Y108.534
G1 X108.458 Y108.499
G1 X108.979 Y108.483
G1 X109.499 Y108.486
G1 X110.017 Y108.507
G1 X110.533 Y108.547
G1 X111.046 Y108.606
G1 X111.554 Y108.682
G1 X112.058 Y108.777
G1 X112.557 Y108.889
G1 X113.051 Y109.020
G1 X113.537 Y109.167
G1 X114.017 Y109.332
G1 X114.489 Y109.515
G1 X114.953 Y109.713
G1 X115.408 Y109.929
G1 X115.853 Y110.160
G1 X116.288 Y110.407
G1 X116.713 Y110.669
G1 X117.127 Y110.946
G1 X117.529 Y111.238
G1 X117.918 Y111.544
G1 X118.295 Y111.864
G1 X118.659 Y112.197
G1 X119.009 Y112.542
G1 X119.345 Y112.900
G1 X119.667 Y113.269
G1 X119.973 Y113.650
G1 X120.264 Y114.041
G1 X120.540 Y114.442
G1 X120.799 Y114.852
G1 X121.042 Y115.272
G1 X121.268 Y115.700
G1 X121.477 Y116.135
G1 X121.669 Y116.578
G1 X121.843 Y117.027
G1 X122.000 Y117.481
G1 X122.139 Y117.941
G1 X122.259 Y118.405
G1 X122.361 Y118.873
G1 X122.445 Y119.345
G1 X122.510 Y119.818
G1 X122.557 Y120.294
G1 X122.585 Y120.771
G1 X122.594 Y121.248
G1 X122.585 Y121.725
G1 X122.557 Y122.201
G1 X122.510 Y122.675
G1 X122.445 Y123.147
G1 X122.361 Y123.617
G1 X122.259 Y124.082
G1 X122.138 Y124.544
G1 X122.000 Y125.000
G1 X121.844 Y125.451
G1 X121.670 Y125.896
G1 X121.478 Y126.333
G1 X121.269 Y126.764
G1 X121.044 Y127.186
G1 X120.802 Y127.599
G1 X120.543 Y128.003
G1 X120.269 Y128.398
G1 X119.979 Y128.781
G1 X119.674 Y129.154
G1 X119.354 Y129.515
G1 X119.019 Y129.864
G1 X118.671 Y130.201
G1 X118.309 Y130.524
G1 X117.934 Y130.833
G1 X117.547 Y131.129
G1 X117.148 Y131.410
G1 X116.737 Y131.676
G1 X116.316 Y131.926
G1 X115.884 Y132.161
G1 X115.442 Y132.380
G1 X114.991 Y132.582
G1 X114.532 Y132.767
G1 X114.065 Y132.935
G1 X113.590 Y133.086
G1 X113.109 Y133.219
G1 X112.621 Y133.334
G1 X112.128 Y133.431
G1 X111.631 Y133.510
G1 X111.129 Y133.570
G1 X110.624 Y133.612
G1 X110.116 Y133.635
G1 X109.605 Y133.638
G1 X109.094 Y133.624
G1 X108.582 Y133.590
G1 X108.070 Y133.537
G1 X107.558 Y133.465
G1 X107.048 Y133.374
G1 X106.540 Y133.264
G1 X106.034 Y133.135
G1 X105.532 Y132.988
G1 X105.034 Y132.821
G1 X104.541 Y132.637
G1 X104.053 Y132.434
G1 X103.571 Y132.213
G1 X103.096 Y131.974
G1 X102.628 Y131.718
G1 X102.168 Y131.444
G1 X101.717 Y131.153
G1 X101.275 Y130.845
G1 X100.843 Y130.521
G1 X100.421 Y130.181
G1 X100.010 Y129.825
G1 X99.611 Y129.454
G1 X99.223 Y129.067
G1 X98.849 Y128.667
G1 X98.488 Y128.252
G1 X98.140 Y127.824
G1 X97.806 Y127.383
G1 X97.487 Y126.929
G1 X97.183 Y126.464
G1 X96.895 Y125.986
G1 X96.622 Y125.498
G1 X96.366 Y125.000
G1 X96.126 Y124.492
G1 X95.903 Y123.975
G1 X95.698 Y123.449
G1 X95.510 Y122.915
G1 X95.340 Y122.374
G1 X95.188 Y121.827
G1 X95.055 Y121.273
G1 X94.940 Y120.714
G1 X94.844 Y120.150
G1 X94.766 Y119.583
G1 X94.708 Y119.012
G1 X94.669 Y118.438
G1 X94.650 Y117.863
G1 X94.649 Y117.286
G1 X94.668 Y116.709
G1 X94.707 Y116.132
G1 X94.765 Y115.556
G1 X94.842 Y114.981
G1 X94.938 Y114.408
G1 X95.054 Y113.839
G1 X95.189 Y113.273
G1 X95.342 Y112.711
G1 X95.515 Y112.154
G1 X95.706 Y111.603
G1 X95.916 Y111.058
G1 X96.143 Y110.520
G1 X96.389 Y109.989
G1 X96.652 Y109.467
G1 X96.933 Y108.953
G1 X97.230 Y108.449
G1 X97.545 Y107.955
G1 X97.875 Y107.472
G1 X98.222 Y107.000
G1 X98.584 Y106.540
G1 X98.961 Y106.092
G1 X99.352 Y105.657
G1 X99.758 Y105.235
G1 X100.178 Y104.828
G1 X100.611 Y104.434
G1 X101.056 Y104.056
G1 X101.513 Y103.693
G1 X101.982 Y103.345
G1 X102.463 Y103.014
G1 X102.953 Y102.699
G1 X103.453 Y102.401
G1 X103.963 Y102.120
G1 X104.481 Y101.857
G1 X105.007 Y101.611
G1 X105.540 Y101.384
G1 X106.080 Y101.175
G1 X106.627 Y100.984
G1 X107.178 Y100.813
G1 X107.734 Y100.660
G1 X108.294 Y100.526
G1 X108.857 Y100.412
G1 X109.423 Y100.317
G1 X109.991 Y100.241
G1 X110.560 Y100.185
G1 X111.130 Y100.149
G1 X111.699 Y100.132
G1 X112.268 Y100.134
G1 X112.835 Y100.156
G1 X113.399 Y100.197
G1 X113.961 Y100.258
G1 X114.519 Y100.338
G1 X115.072 Y100.436
G1 X115.621 Y100.554
G1 X116.164 Y100.691
G1 X116.700 Y100.845
G1 X117.230 Y101.018
G1 X117.752 Y101.209
G1 X118.265 Y101.418
G1 X118.769 Y101.644
G1 X119.264 Y101.887
G1 X119.749 Y102.147
G1 X120.223 Y102.423
G1 X120.686 Y102.714
G1 X121.136 Y103.022
G1 X121.575 Y103.344
G1 X122.000 Y103.681
G1 X122.412 Y104.032
G1 X122.810 Y104.396
G1 X123.193 Y104.774
G1 X123.561 Y105.164
G1 X123.914 Y105.566
G1 X124.251 Y105.980
G1 X124.572 Y106.404
G1 X124.876 Y106.839
G1 X125.164 Y107.283
G1 X125.434 Y107.736
G1 X125.686 Y108.198
G1 X125.921 Y108.668
G1 X126.137 Y109.144
G1 X126.335 Y109.628
G1 X126.515 Y110.117
G1 X126.675 Y110.611
G1 X126.817 Y111.109
G1 X126.939 Y111.611
G1 X127.043 Y112.116
G1 X127.126 Y112.624
G1 X127.191 Y113.133
G1 X127.236 Y113.643
G1 X127.261 Y114.154
G1 X127.267 Y114.663
G1 X127.253 Y115.172
G1 X127.220 Y115.679
G1 X127.168 Y116.183
G1 X127.096 Y116.684
G1 X127.005 Y117.181
G1 X126.896 Y117.673
G1 X126.767 Y118.160
G1 X126.620 Y118.641
G1 X126.455 Y119.115
G1 X126.271 Y119.582
G1 X126.070 Y120.041
G1 X125.851 Y120.491
G1 X125.615 Y120.931
G1 X125.363 Y121.362
G1 X125.093 Y121.783
G1 X124.808 Y122.192
G1 X124.507 Y122.589
G1 X124.191 Y122.975
G1 X123.860 Y123.347
G1 X123.514 Y123.707
G1 X123.155 Y124.052
G1 X122.783 Y124.383
G1 X122.398 Y124.699
G1 X122.000 Y125.000
G1 X121.591 Y125.285
G1 X121.170 Y125.554
G1 X120.740 Y125.807
G1 X120.299 Y126.043
G1 X119.849 Y126.261
G1 X119.390 Y126.462
G1 X118.923 Y126.645
G1 X118.449 Y126.809
G1 X117.968 Y126.956
G1 X117.481 Y127.083
G1 X116.988 Y127.192
G1 X116.491 Y127.282
G1 X115.990 Y127.352
G1 X115.486 Y127.403
G1 X114.979 Y127.435
G1 X114.470 Y127.447
G1 X113.960 Y127.439
G1 X113.450 Y127.411
G1 X112.940 Y127.364
G1 X112.430 Y127.297
G1 X111.923 Y127.211
G1 X111.417 Y127.105
G1 X110.915 Y126.979
G1 X110.417 Y126.835
G1 X109.923 Y126.670
G1 X109.435 Y126.487
G1 X108.952 Y126.285
G1 X108.476 Y126.064
G1 X108.007 Y125.825
G1 X107.546 Y125.568
G1 X107.093 Y125.293
G1 X106.650 Y125.000
G1 X106.217 Y124.690
G1 X105.794 Y124.363
G1 X105.382 Y124.020
G1 X104.981 Y123.661
G1 X104.593 Y123.286
G1 X104.218 Y122.895
G1 X103.856 Y122.490
G1 X103.508 Y122.071
G1 X103.174 Y121.638
G1 X102.856 Y121.192
G1 X102.552 Y120.733
G1 X102.264 Y120.262
G1 X101.993 Y119.779
G1 X101.738 Y119.286
G1 X101.501 Y118.782
G1 X101.280 Y118.268
G1 X101.078 Y117.745
G1 X100.893 Y117.213
G1 X100.727 Y116.674
G1 X100.580 Y116.128
G1 X100.452 Y115.575
G1 X100.342 Y115.016
G1 X100.252 Y114.452
G1 X100.182 Y113.883
G1 X100.131 Y113.311
G1 X100.101 Y112.736
G1 X100.090 Y112.158
G1 X100.099 Y111.579
G1 X100.128 Y110.999
G1 X100.178 Y110.419
G1 X100.247 Y109.839
G1 X100.337 Y109.261
G1 X100.446 Y108.684
G1 X100.576 Y108.110
G1 X100.725 Y107.540
G1 X100.894 Y106.974
G1 X101.083 Y106.413
G1 X101.291 Y105.857
G1 X101.518 Y105.307
G1 X101.765 Y104.765
G1 X102.030 Y104.230
G1 X102.313 Y103.703
G1 X102.615 Y103.185
G1 X102.934 Y102.677
G1 X103.271 Y102.179
G1 X103.625 Y101.691
G1 X103.996 Y101.215
G1 X104.383 Y100.752
G1 X104.785 Y100.300
G1 X105.204 Y99.862
G1 X105.637 Y99.438
G1 X106.084 Y99.028
G1 X106.546 Y98.633
G1 X107.021 Y98.253
G1 X107.508 Y97.888
G1 X108.008 Y97.540
G1 X108.520 Y97.208
G1 X109.043 Y96.894
G1 X109.576 Y96.597
G1 X110.119 Y96.317
G1 X110.672 Y96.056
G1 X111.232 Y95.813
G1 X111.801 Y95.589
G1 X112.377 Y95.384
G1 X112.960 Y95.198
G1 X113.548 Y95.032
G1 X114.142 Y94.885
G1 X114.740 Y94.759
G1 X115.341 Y94.652
G1 X115.946 Y94.565
G1 X116.553 Y94.499
G1 X117.162 Y94.453
G1 X117.771 Y94.427
G1 X118.381 Y94.422
G1 X118.990 Y94.437
G1 X119.597 Y94.472
G1 X120.203 Y94.527
G1 X120.806 Y94.603
G1 X121.405 Y94.699
G1 X122.000 Y94.815
G1 X122.590 Y94.950
G1 X123.175 Y95.106
G1 X123.753 Y95.280
G1 X124.324 Y95.474
G1 X124.887 Y95.686
G1 X125.442 Y95.917
G1 X125.988 Y96.167
G1 X126.524 Y96.434
G1 X127.050 Y96.719
G1 X127.565 Y97.021
G1 X128.069 Y97.340
G1 X128.560 Y97.675
G1 X129.039 Y98.026
G1 X129.504 Y98.393
G1 X129.955 Y98.775
G1 X130.392 Y99.171
G1 X130.815 Y99.581
G1 X131.221 Y100.004
G1 X131.612 Y100.440
G1 X131.987 Y100.889
G1 X132.345 Y101.349
G1 X132.686 Y101.820
G1 X133.009 Y102.302
G1 X133.315 Y102.793
G1 X133.602 Y103.294
G1 X133.871 Y103.803
G1 X134.121 Y104.320
G1 X134.352 Y104.844
G1 X134.563 Y105.374
G1 X134.755 Y105.910
G1 X134.927 Y106.452
G1 X135.080 Y106.997
G1 X135.212 Y107.546
G1 X135.324 Y108.098
G1 X135.416 Y108.653
G1 X135.488 Y109.208
G1 X135.539 Y109.764
G1 X135.570 Y110.321
G1 X135.580 Y110.876
G1 X135.570 Y111.430
G1 X135.540 Y111.981
G1 X135.490 Y112.530
G1 X135.420 Y113.075
G1 X135.330 Y113.615
G1 X135.220 Y114.151
G1 X135.091 Y114.680
G1 X134.942 Y115.203
G1 X134.774 Y115.719
G1 X134.588 Y116.227
G1 X134.383 Y116.726
G1 X134.160 Y117.216
G1 X133.920 Y117.696
G1 X133.661 Y118.165
G1 X133.386 Y118.623
G1 X133.095 Y119.070
G1 X132.787 Y119.504
G1 X132.463 Y119.925
G1 X132.124 Y120.333
G1 X131.771 Y120.726
G1 X131.403 Y121.105
G1 X131.021 Y121.469
G1 X130.627 Y121.817
G1 X130.220 Y122.150
G1 X129.801 Y122.465
G1 X129.370 Y122.764
G1 X128.929 Y123.046
G1 X128.478 Y123.310
G1 X128.017 Y123.555
G1 X127.547 Y123.783
G1 X127.070 Y123.992
G1 X126.584 Y124.181
G1 X126.093 Y124.352
G1 X125.595 Y124.503
G1 X125.091 Y124.634
G1 X124.583 Y124.746
G1 X124.072 Y124.837
G1 X123.557 Y124.908
G1 X123.039 Y124.959
G1 X122.520 Y124.990
G1 X122.000 Y125.000
G1 X121.480 Y124.990
G1 X120.960 Y124.959
G1 X120.441 Y124.908
G1 X119.925 Y124.837
G1 X119.411 Y124.745
G1 X118.901 Y124.633
G1 X118.395 Y124.501
G1 X117.893 Y124.350
G1 X117.398 Y124.178
G1 X116.908 Y123.987
G1 X116.426 Y123.777
G1 X115.952 Y123.548
G1 X115.486 Y123.300
G1 X115.029 Y123.034
G1 X114.582 Y122.750
G1 X114.145 Y122.448
G1 X113.720 Y122.129
G1 X113.306 Y121.793
G1 X112.904 Y121.440
G1 X112.515 Y121.071
G1 X112.140 Y120.687
G1 X111.779 Y120.288
G1 X111.432 Y119.874
G1 X111.101 Y119.447
G1 X110.785 Y119.005
G1 X110.485 Y118.551
G1 X110.202 Y118.085
G1 X109.935 Y117.607
G1 X109.686 Y117.117
G1 X109.455 Y116.618
G1 X109.242 Y116.108
G1 X109.048 Y115.590
G1 X108.872 Y115.062
G1 X108.716 Y114.527
G1 X108.579 Y113.985
G1 X108.461 Y113.437
G1 X108.364 Y112.883
G1 X108.287 Y112.323
G1 X108.230 Y111.760
G1 X108.193 Y111.193
G1 X108.177 Y110.623
G1 X108.182 Y110.051
G1 X108.207 Y109.478
G1 X108.253 Y108.905
G1 X108.320 Y108.331
G1 X108.408 Y107.759
G1 X108.517 Y107.188
G1 X108.646 Y106.620
G1 X108.796 Y106.054
G1 X108.966 Y105.493
G1 X109.157 Y104.937
G1 X109.367 Y104.385
G1 X109.598 Y103.840
G1 X109.849 Y103.302
G1 X110.119 Y102.771
G1 X110.408 Y102.249
G1 X110.716 Y101.735
G1 X111.043 Y101.231
G1 X111.388 Y100.738
G1 X111.750 Y100.255
G1 X112.131 Y99.784
G1 X112.528 Y99.325
G1 X112.942 Y98.879
G1 X113.372 Y98.446
G1 X113.818 Y98.027
G1 X114.279 Y97.623
G1 X114.754 Y97.233
G1 X115.244 Y96.860
G1 X115.747 Y96.502
G1 X116.264 Y96.161
G1 X116.792 Y95.837
G1 X117.333 Y95.531
G1 X117.884 Y95.242
G1 X118.446 Y94.972
G1 X119.018 Y94.720
G1 X119.599 Y94.487
G1 X120.188 Y94.274
G1 X120.785 Y94.080
G1 X121.389 Y93.906
G1 X122.000 Y93.752
G1 X122.616 Y93.619
G1 X123.237 Y93.506
G1 X123.863 Y93.414
G1 X124.491 Y93.343
G1 X125.123 Y93.292
G1 X125.756 Y93.263
G1 X126.391 Y93.255
G1 X127.026 Y93.268
G1 X127.661 Y93.302
G1 X128.294 Y93.357
G1 X128.926 Y93.434
G1 X129.555 Y93.531
G1 X130.181 Y93.649
G1 X130.803 Y93.789
G1 X131.419 Y93.948
G1 X132.031 Y94.129
G1 X132.636 Y94.329
G1 X133.234 Y94.550
G1 X133.824 Y94.790
G1 X134.406 Y95.050
G1 X134.979 Y95.329
G1 X135.541 Y95.626
G1 X136.094 Y95.943
G1 X136.635 Y96.277
G1 X137.165 Y96.629
G1 X137.682 Y96.998
G1 X138.186 Y97.384
G1 X138.677 Y97.786
G1 X139.153 Y98.204
G1 X139.615 Y98.638
G1 X140.061 Y99.086
G1 X140.492 Y99.548
G1 X140.906 Y100.024
G1 X141.304 Y100.513
G1 X141.684 Y101.015
G1 X142.047 Y101.528
G1 X142.392 Y102.053
G1 X142.718 Y102.588
G1 X143.025 Y103.133
G1 X143.313 Y103.687
G1 X143.582 Y104.249
G1 X143.831 Y104.820
G1 X144.060 Y105.397
G1 X144.269 Y105.981
G1 X144.457 Y106.570
G1 X144.624 Y107.164
G1 X144.771 Y107.763
G1 X144.897 Y108.365
G1 X145.001 Y108.969
G1 X145.085 Y109.575
G1 X145.147 Y110.183
G1 X145.188 Y110.790
G1 X145.208 Y111.398
G1 X145.206 Y112.004
G1 X145.183 Y112.608
G1 X145.140 Y113.210
G1 X145.075 Y113.808
G1 X144.990 Y114.402
G1 X144.884 Y114.990
G1 X144.757 Y115.574
G1 X144.610 Y116.150
G1 X144.444 Y116.720
G1 X144.257 Y117.282
G1 X144.051 Y117.835
G1 X143.826 Y118.379
G1 X143.582 Y118.913
G1 X143.320 Y119.437
G1 X143.040 Y119.949
G1 X142.743 Y120.449
G1 X142.428 Y120.937
G1 X142.096 Y121.411
G1 X141.749 Y121.872
G1 X141.385 Y122.319
G1 X141.007 Y122.750
G1 X140.614 Y123.167
G1 X140.207 Y123.567
G1 X139.786 Y123.951
G1 X139.353 Y124.318
G1 X138.907 Y124.668
G1 X138.450 Y125.000
G1 X137.982 Y125.314
G1 X137.503 Y125.609
G1 X137.015 Y125.886
G1 X136.519 Y126.143
G1 X136.013 Y126.380
G1 X135.501 Y126.598
G1 X134.981 Y126.796
G1 X134.456 Y126.973
G1 X133.925 Y127.130
G1 X133.390 Y127.266
G1 X132.851 Y127.381
G1 X132.309 Y127.475
G1 X131.765 Y127.548
G1 X131.219 Y127.600
G1 X130.672 Y127.631
G1 X130.125 Y127.640
G1 X129.580 Y127.628
G1 X129.035 Y127.596
G1 X128.493 Y127.542
G1 X127.955 Y127.467
G1 X127.420 Y127.371
G1 X126.889 Y127.254
G1 X126.364 Y127.117
G1 X125.845 Y126.959
G1 X125.333 Y126.782
G1 X124.829 Y126.584
G1 X124.333 Y126.367
G1 X123.845 Y126.131
G1 X123.368 Y125.876
G1 X122.901 Y125.602
G1 X122.444 Y125.310
G1 X122.000 Y125.000
G1 X121.568 Y124.673
G1 X121.149 Y124.329
G1 X120.743 Y123.968
G1 X120.351 Y123.592
G1 X119.975 Y123.200
G1 X119.613 Y122.794
G1 X119.267 Y122.373
G1 X118.938 Y121.938
G1 X118.626 Y121.490
G1 X118.330 Y121.030
G1 X118.053 Y120.558
G1 X117.793 Y120.074
G1 X117.552 Y119.581
G1 X117.330 Y119.077
G1 X117.128 Y118.564
G1 X116.945 Y118.042
G1 X116.782 Y117.513
G1 X116.639 Y116.976
G1 X116.516 Y116.433
G1 X116.414 Y115.885
G1 X116.333 Y115.332
G1 X116.273 Y114.775
G1 X116.235 Y114.214
G1 X116.217 Y113.651
G1 X116.221 Y113.086
G1 X116.247 Y112.520
G1 X116.293 Y111.953
G1 X116.362 Y111.388
G1 X116.451 Y110.823
G1 X116.563 Y110.261
G1 X116.695 Y109.702
G1 X116.849 Y109.146
G1 X117.023 Y108.594
G1 X117.219 Y108.048
G1 X117.435 Y107.508
G1 X117.672 Y106.974
G1 X117.930 Y106.448
G1 X118.207 Y105.930
G1 X118.504 Y105.420
G1 X118.820 Y104.921
G1 X119.155 Y104.431
G1 X119.509 Y103.953
G1 X119.881 Y103.486
G1 X120.271 Y103.031
G1 X120.678 Y102.589
G1 X121.103 Y102.161
G1 X121.543 Y101.747
G1 X122.000 Y101.347
G1 X122.472 Y100.963
G1 X122.959 Y100.595
G1 X123.460 Y100.243
G1 X123.975 Y99.908
G1 X124.503 Y99.590
G1 X125.043 Y99.290
G1 X125.595 Y99.009
G1 X126.158 Y98.746
G1 X126.732 Y98.502
G1 X127.315 Y98.278
G1 X127.908 Y98.073
G1 X128.509 Y97.889
G1 X129.117 Y97.725
G1 X129.733 Y97.582
G1 X130.354 Y97.460
G1 X130.981 Y97.359
G1 X131.613 Y97.279
G1 X132.248 Y97.221
G1 X132.887 Y97.184
G1 X133.528 Y97.169
G1 X134.170 Y97.176
G1 X134.814 Y97.205
G1 X135.457 Y97.256
G1 X136.099 Y97.329
G1 X136.740 Y97.423
G1 X137.379 Y97.540
G1 X138.014 Y97.678
G1 X138.645 Y97.837
G1 X139.272 Y98.018
G1 X139.893 Y98.221
G1 X140.508 Y98.444
G1 X141.116 Y98.689
G1 X141.717 Y98.953
G1 X142.309 Y99.239
G1 X142.891 Y99.544
G1 X143.464 Y99.869
G1 X144.027 Y100.213
G1 X144.578 Y100.576
G1 X145.117 Y100.957
G1 X145.643 Y101.357
G1 X146.156 Y101.774
G1 X146.656 Y102.208
G1 X147.141 Y102.659
G1 X147.611 Y103.126
G1 X148.065 Y103.609
G1 X148.503 Y104.107
G1 X148.924 Y104.619
G1 X149.329 Y105.145
G1 X149.715 Y105.684
G1 X150.083 Y106.235
G1 X150.433 Y106.799
G1 X150.764 Y107.373
G1 X151.075 Y107.959
G1 X151.367 Y108.554
G1 X151.638 Y109.158
G1 X151.889 Y109.771
G1 X152.120 Y110.391
G1 X152.329 Y111.018
G1 X152.517 Y111.652
G1 X152.684 Y112.290
G1 X152.829 Y112.934
G1 X152.952 Y113.581
G1 X153.054 Y114.232
G1 X153.133 Y114.884
G1 X153.190 Y115.538
G1 X153.226 Y116.193
G1 X153.239 Y116.848
G1 X153.230 Y117.502
G1 X153.199 Y118.155
G1 X153.146 Y118.805
G1 X153.071 Y119.451
G1 X152.975 Y120.094
G1 X152.857 Y120.732
G1 X152.717 Y121.364
G1 X152.557 Y121.990
G1 X152.375 Y122.609
G1 X152.173 Y123.221
G1 X151.950 Y123.823
G1 X151.707 Y124.417
G1 X151.445 Y125.000
G1 X151.163 Y125.573
G1 X150.862 Y126.134
G1 X150.543 Y126.683
G1 X150.206 Y127.220
G1 X149.851 Y127.743
G1 X149.479 Y128.252
G1 X149.090 Y128.747
G1 X148.685 Y129.226
G1 X148.265 Y129.690
G1 X147.829 Y130.138
G1 X147.380 Y130.569
G1 X146.917 Y130.982
G1 X146.440 Y131.378
G1 X145.951 Y131.755
G1 X145.451 Y132.114
G1 X144.939 Y132.453
G1 X144.417 Y132.773
G1 X143.885 Y133.074
G1 X143.344 Y133.354
G1 X142.795 Y133.614
G1 X142.239 Y133.853
G1 X141.675 Y134.070
G1 X141.106 Y134.267
G1 X140.531 Y134.442
G1 X139.953 Y134.596
G1 X139.370 Y134.728
G1 X138.785 Y134.838
G1 X138.197 Y134.926
G1 X137.608 Y134.992
G1 X137.019 Y135.035
G1 X136.430 Y135.057
G1 X135.842 Y135.057
G1 X135.256 Y135.035
G1 X134.673 Y134.991
G1 X134.093 Y134.925
G1 X133.518 Y134.837
G1 X132.948 Y134.728
G1 X132.383 Y134.598
G1 X131.825 Y134.447
G1 X131.275 Y134.275
G1 X130.732 Y134.082
G1 X130.199 Y133.869
G1 X129.675 Y133.637
G1 X129.161 Y133.384
G1 X128.658 Y133.113
G1 X128.167 Y132.823
G1 X127.688 Y132.515
G1 X127.223 Y132.188
G1 X126.771 Y131.845
G1 X126.333 Y131.484
G1 X125.910 Y131.108
G1 X125.502 Y130.715
G1 X125.111 Y130.307
G1 X124.736 Y129.885
G1 X124.378 Y129.449
G1 X124.038 Y128.999
G1 X123.715 Y128.536
G1 X123.412 Y128.062
G1 X123.127 Y127.576
G1 X122.861 Y127.079
G1 X122.616 Y126.573
G1 X122.390 Y126.057
G1 X122.185 Y125.532
G1 X122.000 Y125.000
G1 X121.836 Y124.461
G1 X121.694 Y123.915
G1 X121.573 Y123.364
G1 X121.474 Y122.808
G1 X121.396 Y122.248
G1 X121.341 Y121.685
G1 X121.307 Y121.120
G1 X121.296 Y120.553
G1 X121.306 Y119.985
G1 X121.339 Y119.418
G1 X121.394 Y118.851
G1 X121.472 Y118.286
G1 X121.571 Y117.723
G1 X121.692 Y117.164
G1 X121.835 Y116.608
G1 X122.000 Y116.058
G1 X122.186 Y115.513
G1 X122.394 Y114.974
G1 X122.623 Y114.443
G1 X122.872 Y113.920
G1 X123.142 Y113.405
G1 X123.432 Y112.900
G1 X123.742 Y112.405
G1 X124.072 Y111.920
G1 X124.420 Y111.448
G1 X124.787 Y110.987
G1 X125.173 Y110.540
G1 X125.576 Y110.106
G1 X125.996 Y109.686
G1 X126.433 Y109.281
G1 X126.886 Y108.892
G1 X127.355 Y108.518
G1 X127.839 Y108.161
G1 X128.337 Y107.822
G1 X128.850 Y107.500
G1 X129.375 Y107.196
G1 X129.913 Y106.910
G1 X130.462 Y106.644
G1 X131.023 Y106.397
G1 X131.594 Y106.170
G1 X132.175 Y105.964
G1 X132.765 Y105.777
G1 X133.363 Y105.612
G1 X133.969 Y105.468
G1 X134.581 Y105.346
G1 X135.200 Y105.245
G1 X135.823 Y105.166
G1 X136.451 Y105.109
G1 X137.083 Y105.075
G1 X137.717 Y105.063
G1 X138.353 Y105.073
G1 X138.991 Y105.106
G1 X139.629 Y105.162
G1 X140.266 Y105.240
G1 X140.902 Y105.340
G1 X141.536 Y105.464
G1 X142.167 Y105.609
G1 X142.795 Y105.777
G1 X143.418 Y105.968
G1 X144.036 Y106.180
G1 X144.647 Y106.414
G1 X145.252 Y106.670
G1 X145.849 Y106.947
G1 X146.438 Y107.245
G1 X147.018 Y107.564
G1 X147.587 Y107.903
G1 X148.146 Y108.263
G1 X148.694 Y108.642
G1 X149.230 Y109.040
G1 X149.753 Y109.458
G1 X150.262 Y109.893
G1 X150.758 Y110.347
G1 X151.239 Y110.818
G1 X151.704 Y111.306
G1 X152.154 Y111.810
G1 X152.587 Y112.330
G1 X153.003 Y112.866
G1 X153.401 Y113.415
G1 X153.782 Y113.979
G1 X154.144 Y114.556
G1 X154.486 Y115.145
G1 X154.809 Y115.747
G1 X155.113 Y116.359
G1 X155.396 Y116.982
G1 X155.658 Y117.615
G1 X155.899 Y118.257
G1 X156.119 Y118.907
G1 X156.317 Y119.565
G1 X156.494 Y120.229
G1 X156.648 Y120.899
G1 X156.780 Y121.574
G1 X156.890 Y122.254
G1 X156.976 Y122.937
G1 X157.040 Y123.623
G1 X157.082 Y124.311
G1 X157.100 Y125.000
G1 X157.095 Y125.689
G1 X157.068 Y126.378
G1 X157.017 Y127.065
G1 X156.944 Y127.750
G1 X156.848 Y128.432
G1 X156.730 Y129.111
G1 X156.589 Y129.784
G1 X156.425 Y130.452
G1 X156.240 Y131.114
G1 X156.032 Y131.769
G1 X155.803 Y132.417
G1 X155.553 Y133.055
G1 X155.282 Y133.685
G1 X154.990 Y134.304
G1 X154.678 Y134.913
G1 X154.346 Y135.510
G1 X153.994 Y136.095
G1 X153.624 Y136.667
G1 X153.235 Y137.225
G1 X152.828 Y137.769
G1 X152.403 Y138.299
G1 X151.961 Y138.812
G1 X151.503 Y139.310
G1 X151.030 Y139.791
G1 X150.541 Y140.255
G1 X150.037 Y140.701
G1 X149.519 Y141.129
G1 X148.989 Y141.539
G1 X148.445 Y141.929
G1 X147.890 Y142.299
G1 X147.323 Y142.649
G1 X146.746 Y142.979
G1 X146.160 Y143.288
G1 X145.564 Y143.576
G1 X144.960 Y143.843
G1 X144.349 Y144.088
G1 X143.731 Y144.310
G1 X143.107 Y144.511
G1 X142.478 Y144.689
G1 X141.845 Y144.845
G1 X141.208 Y144.978
G1 X140.569 Y145.088
G1 X139.928 Y145.175
G1 X139.286 Y145.240
G1 X138.644 Y145.281
G1 X138.003 Y145.300
G1 X137.363 Y145.295
G1 X136.726 Y145.268
G1 X136.091 Y145.218
G1 X135.461 Y145.146
G1 X134.835 Y145.051
G1 X134.215 Y144.934
G1 X133.602 Y144.794
G1 X132.995 Y144.634
G1 X132.397 Y144.451
G1 X131.807 Y144.247
G1 X131.227 Y144.023
G1 X130.657 Y143.778
G1 X130.098 Y143.513
G1 X129.550 Y143.228
G1 X129.015 Y142.924
G1 X128.493 Y142.601
G1 X127.985 Y142.259
G1 X127.491 Y141.900
G1 X127.012 Y141.524
G1 X126.549 Y141.131
G1 X126.102 Y140.721
G1 X125.672 Y140.296
G1 X125.260 Y139.857
G1 X124.865 Y139.402
G1 X124.488 Y138.935
G1 X124.131 Y138.454
G1 X123.793 Y137.961
G1 X123.474 Y137.456
G1 X123.176 Y136.941
G1 X122.898 Y136.415
G1 X122.642 Y135.880
G1 X122.406 Y135.337
G1 X122.192 Y134.785
G1 X122.000 Y134.227
G1 X121.830 Y133.662
G1 X121.682 Y133.092
G1 X121.557 Y132.517
G1 X121.454 Y131.939
G1 X121.374 Y131.357
G1 X121.317 Y130.774
G1 X121.282 Y130.189
G1 X121.271 Y129.603
G1 X121.283 Y129.018
G1 X121.317 Y128.434
G1 X121.374 Y127.852
G1 X121.454 Y127.272
G1 X121.557 Y126.697
G1 X121.683 Y126.126
G1 X121.830 Y125.560
G1 X122.000 Y125.000
G1 X122.192 Y124.447
G1 X122.405 Y123.902
G1 X122.640 Y123.365
G1 X122.896 Y122.838
G1 X123.172 Y122.320
G1 X123.469 Y121.813
G1 X123.786 Y121.318
G1 X124.122 Y120.835
G1 X124.478 Y120.364
G1 X124.852 Y119.908
G1 X125.244 Y119.465
G1 X125.654 Y119.038
G1 X126.080 Y118.626
G1 X126.524 Y118.230
G1 X126.983 Y117.851
G1 X127.457 Y117.489
G1 X127.946 Y117.145
G1 X128.449 Y116.820
G1 X128.965 Y116.513
G1 X129.494 Y116.226
G1 X130.035 Y115.958
G1 X130.587 Y115.711
G1 X131.149 Y115.484
G1 X131.721 Y115.279
G1 X132.302 Y115.095
G1 X132.892 Y114.932
G1 X133.488 Y114.791
G1 X134.092 Y114.673
G1 X134.701 Y114.577
G1 X135.315 Y114.504
G1 X135.933 Y114.453
G1 X136.554 Y114.426
G1 X137.178 Y114.421
G1 X137.804 Y114.440
G1 X138.430 Y114.482
G1 X139.057 Y114.548
G1 X139.682 Y114.636
G1 X140.306 Y114.748
G1 X140.928 Y114.883
G1 X141.546 Y115.041
G1 X142.160 Y115.222
G1 X142.768 Y115.426
G1 X143.371 Y115.652
G1 X143.968 Y115.901
G1 X144.557 Y116.172
G1 X145.137 Y116.464
G1 X145.709 Y116.779
G1 X146.270 Y117.114
G1 X146.822 Y117.470
G1 X147.361 Y117.847
G1 X147.889 Y118.244
G1 X148.404 Y118.661
G1 X148.906 Y119.097
G1 X149.393 Y119.551
G1 X149.866 Y120.024
G1 X150.323 Y120.514
G1 X150.764 Y121.022
G1 X151.188 Y121.545
G1 X151.595 Y122.085
G1 X151.984 Y122.640
G1 X152.354 Y123.210
G1 X152.706 Y123.794
G1 X153.038 Y124.390
G1 X153.350 Y125.000
G1 X153.642 Y125.621
G1 X153.913 Y126.254
G1 X154.163 Y126.897
G1 X154.391 Y127.549
G1 X154.598 Y128.211
G1 X154.782 Y128.880
G1 X154.944 Y129.557
G1 X155.083 Y130.240
G1 X155.199 Y130.929
G1 X155.292 Y131.622
G1 X155.362 Y132.320
G1 X155.408 Y133.020
G1 X155.430 Y133.724
G1 X155.429 Y134.428
G1 X155.405 Y135.133
G1 X155.356 Y135.838
G1 X155.284 Y136.542
G1 X155.188 Y137.244
G1 X155.069 Y137.943
G1 X154.926 Y138.639
G1 X154.760 Y139.330
G1 X154.571 Y140.016
G1 X154.359 Y140.695
G1 X154.124 Y141.368
G1 X153.867 Y142.033
G1 X153.587 Y142.690
G1 X153.286 Y143.337
G1 X152.963 Y143.974
G1 X152.619 Y144.601
G1 X152.254 Y145.215
G1 X151.869 Y145.818
G1 X151.464 Y146.407
G1 X151.040 Y146.983
G1 X150.597 Y147.544
G1 X150.135 Y148.090
G1 X149.656 Y148.620
G1 X149.159 Y149.134
G1 X148.645 Y149.631
G1 X148.116 Y150.110
G1 X147.571 Y150.571
G1 X147.011 Y151.013
G1 X146.438 Y151.437
G1 X145.851 Y151.840
G1 X145.251 Y152.223
G1 X144.639 Y152.586
G1 X144.016 Y152.928
G1 X143.383 Y153.248
G1 X142.740 Y153.546
G1 X142.088 Y153.823
G1 X141.428 Y154.077
G1 X140.761 Y154.308
G1 X140.088 Y154.516
G1 X139.408 Y154.701
G1 X138.724 Y154.863
G1 X138.036 Y155.001
G1 X137.345 Y155.116
G1 X136.651 Y155.207
G1 X135.957 Y155.274
G1 X135.261 Y155.318
G1 X134.566 Y155.337
G1 X133.872 Y155.333
G1 X133.180 Y155.305
G1 X132.491 Y155.253
G1 X131.805 Y155.178
G1 X131.125 Y155.080
G1 X130.449 Y154.958
G1 X129.780 Y154.813
G1 X129.117 Y154.646
G1 X128.463 Y154.456
G1 X127.817 Y154.243
G1 X127.180 Y154.009
G1 X126.554 Y153.754
G1 X125.939 Y153.477
G1 X125.335 Y153.180
G1 X124.744 Y152.862
G1 X124.166 Y152.524
G1 X123.602 Y152.167
G1 X123.053 Y151.792
G1 X122.518 Y151.398
G1 X122.000 Y150.986
G1 X121.498 Y150.557
G1 X121.013 Y150.112
G1 X120.546 Y149.651
G1 X120.097 Y149.174
G1 X119.667 Y148.683
G1 X119.257 Y148.178
G1 X118.866 Y147.660
G1 X118.495 Y147.130
G1 X118.145 Y146.587
G1 X117.816 Y146.034
G1 X117.509 Y145.471
G1 X117.223 Y144.898
G1 X116.960 Y144.316
G1 X116.718 Y143.727
G1 X116.500 Y143.130
G1 X116.305 Y142.528
G1 X116.133 Y141.920
G1 X115.984 Y141.308
G1 X115.858 Y140.692
G1 X115.757 Y140.073
G1 X115.678 Y139.452
G1 X115.624 Y138.830
G1 X115.593 Y138.208
G1 X115.587 Y137.587
G1 X115.603 Y136.967
G1 X115.644 Y136.350
G1 X115.708 Y135.735
G1 X115.795 Y135.125
G1 X115.906 Y134.520
G1 X116.040 Y133.920
G1 X116.197 Y133.327
G1 X116.376 Y132.741
G1 X116.577 Y132.164
G1 X116.801 Y131.595
G1 X117.046 Y131.037
G1 X117.312 Y130.488
G1 X117.600 Y129.952
G1 X117.908 Y129.427
G1 X118.235 Y128.915
G1 X118.583 Y128.417
G1 X118.949 Y127.933
G1 X119.334 Y127.464
G1 X119.737 Y127.011
G1 X120.157 Y126.574
G1 X120.594 Y126.154
G1 X121.048 Y125.751
G1 X121.516 Y125.366
G1 X122.000 Y125.000
G1 X122.498 Y124.653
G1 X123.009 Y124.326
G1 X123.533 Y124.019
G1 X124.069 Y123.732
G1 X124.617 Y123.466
G1 X125.175 Y123.222
G1 X125.742 Y123.000
G1 X126.319 Y122.799
G1 X126.903 Y122.622
G1 X127.496 Y122.467
G1 X128.094 Y122.334
G1 X128.698 Y122.226
G1 X129.307 Y122.140
G1 X129.920 Y122.078
G1 X130.536 Y122.040
G1 X131.154 Y122.026
G1 X131.774 Y122.035
G1 X132.394 Y122.069
G1 X133.014 Y122.126
G1 X133.633 Y122.207
G1 X134.249 Y122.312
G1 X134.863 Y122.441
G1 X135.472 Y122.594
G1 X136.078 Y122.770
G1 X136.677 Y122.970
G1 X137.270 Y123.193
G1 X137.856 Y123.438
G1 X138.434 Y123.707
G1 X139.004 Y123.997
G1 X139.563 Y124.310
G1 X140.112 Y124.644
G1 X140.650 Y125.000
G1 X141.176 Y125.377
G1 X141.689 Y125.774
G1 X142.189 Y126.191
G1 X142.674 Y126.627
G1 X143.145 Y127.083
G1 X143.600 Y127.556
G1 X144.038 Y128.048
G1 X144.460 Y128.557
G1 X144.865 Y129.083
G1 X145.251 Y129.625
G1 X145.619 Y130.182
G1 X145.967 Y130.754
G1 X146.296 Y131.340
G1 X146.604 Y131.939
G1 X146.892 Y132.551
G1 X147.158 Y133.174
G1 X147.403 Y133.809
G1 X147.626 Y134.454
G1 X147.827 Y135.108
G1 X148.004 Y135.771
G1 X148.159 Y136.442
G1 X148.291 Y137.120
G1 X148.399 Y137.804
G1 X148.483 Y138.494
G1 X148.544 Y139.188
G1 X148.580 Y139.886
G1 X148.592 Y140.586
G1 X148.580 Y141.288
G1 X148.544 Y141.992
G1 X148.483 Y142.695
G1 X148.397 Y143.398
G1 X148.288 Y144.099
G1 X148.154 Y144.798
G1 X147.995 Y145.493
G1 X147.813 Y146.184
G1 X147.607 Y146.870
G1 X147.377 Y147.551
G1 X147.124 Y148.224
G1 X146.847 Y148.890
G1 X146.547 Y149.547
G1 X146.225 Y150.195
G1 X145.880 Y150.833
G1 X145.513 Y151.460
G1 X145.125 Y152.076
G1 X144.715 Y152.679
G1 X144.285 Y153.269
G1 X143.835 Y153.845
G1 X143.365 Y154.406
G1 X142.875 Y154.952
G1 X142.367 Y155.482
G1 X141.841 Y155.995
G1 X141.298 Y156.491
G1 X140.738 Y156.969
G1 X140.161 Y157.429
G1 X139.569 Y157.869
G1 X138.962 Y158.290
G1 X138.341 Y158.691
G1 X137.707 Y159.071
G1 X137.060 Y159.430
G1 X136.401 Y159.767
G1 X135.731 Y160.083
G1 X135.051 Y160.375
G1 X134.361 Y160.646
G1 X133.662 Y160.893
G1 X132.956 Y161.117
G1 X132.242 Y161.317
G1 X131.523 Y161.493
G1 X130.798 Y161.645
G1 X130.068 Y161.773
G1 X129.335 Y161.877
G1 X128.599 Y161.956
G1 X127.862 Y162.010
G1 X127.123 Y162.040
G1 X126.385 Y162.045
G1 X125.647 Y162.026
G1 X124.910 Y161.981
G1 X124.177 Y161.913
G1 X123.447 Y161.819
G1 X122.721 Y161.702
G1 X122.000 Y161.560
G1 X121.285 Y161.395
G1 X120.577 Y161.205
G1 X119.877 Y160.993
G1 X119.186 Y160.757
G1 X118.504 Y160.498
G1 X117.832 Y160.217
G1 X117.171 Y159.914
G1 X116.522 Y159.589
G1 X115.885 Y159.242
G1 X115.262 Y158.875
G1 X114.653 Y158.488
G1 X114.058 Y158.081
G1 X113.479 Y157.654
G1 X112.916 Y157.209
G1 X112.370 Y156.746
G1 X111.841 Y156.265
G1 X111.331 Y155.768
G1 X110.839 Y155.254
G1 X110.366 Y154.725
G1 X109.913 Y154.181
G1 X109.480 Y153.623
G1 X109.068 Y153.052
G1 X108.677 Y152.468
G1 X108.308 Y151.872
G1 X107.961 Y151.265
G1 X107.636 Y150.648
G1 X107.334 Y150.022
G1 X107.056 Y149.387
G1 X106.800 Y148.744
G1 X106.569 Y148.095
G1 X106.361 Y147.439
G1 X106.177 Y146.778
G1 X106.018 Y146.113
G1 X105.883 Y145.445
G1 X105.772 Y144.774
G1 X105.686 Y144.101
G1 X105.625 Y143.427
G1 X105.588 Y142.754
G1 X105.576 Y142.082
G1 X105.589 Y141.411
G1 X105.626 Y140.744
G1 X105.687 Y140.080
G1 X105.773 Y139.420
G1 X105.882 Y138.766
G1 X106.016 Y138.118
G1 X106.172 Y137.477
G1 X106.353 Y136.845
G1 X106.556 Y136.221
G1 X106.782 Y135.607
G1 X107.030 Y135.003
G1 X107.300 Y134.410
G1 X107.591 Y133.830
G1 X107.904 Y133.262
G1 X108.237 Y132.708
G1 X108.590 Y132.168
G1 X108.963 Y131.643
G1 X109.354 Y131.134
G1 X109.764 Y130.641
G1 X110.192 Y130.165
G1 X110.637 Y129.707
G1 X111.099 Y129.267
G1 X111.576 Y128.846
G1 X112.068 Y128.444
G1 X112.575 Y128.062
G1 X113.095 Y127.701
G1 X113.629 Y127.361
G1 X114.174 Y127.042
G1 X114.731 Y126.745
G1 X115.299 Y126.470
G1 X115.876 Y126.218
G1 X116.462 Y125.989
G1 X117.057 Y125.783
G1 X117.658 Y125.601
G1 X118.266 Y125.442
G1 X118.880 Y125.307
G1 X119.498 Y125.197
G1 X120.120 Y125.111
G1 X120.745 Y125.049
G1 X121.372 Y125.012
G1 X122.000 Y125.000
G1 X122.628 Y125.012
G1 X123.256 Y125.049
G1 X123.882 Y125.111
G1 X124.506 Y125.197
G1 X125.126 Y125.308
G1 X125.742 Y125.443
G1 X126.353 Y125.602
G1 X126.958 Y125.785
G1 X127.556 Y125.992
G1 X128.146 Y126.223
G1 X128.728 Y126.476
G1 X129.300 Y126.753
G1 X129.862 Y127.052
G1 X130.413 Y127.373
G1 X130.953 Y127.716
G1 X131.479 Y128.080
G1 X131.993 Y128.465
G1 X132.492 Y128.871
G1 X132.976 Y129.296
G1 X133.445 Y129.740
G1 X133.897 Y130.204
G1 X134.332 Y130.685
G1 X134.750 Y131.184
G1 X135.150 Y131.700
G1 X135.530 Y132.232
G1 X135.892 Y132.780
G1 X136.233 Y133.342
G1 X136.554 Y133.919
G1 X136.854 Y134.508
G1 X137.132 Y135.111
G1 X137.388 Y135.725
G1 X137.622 Y136.350
G1 X137.833 Y136.986
G1 X138.021 Y137.630
G1 X138.186 Y138.284
G1 X138.327 Y138.945
G1 X138.444 Y139.612
G1 X138.536 Y140.286
G1 X138.605 Y140.965
G1 X138.648 Y141.648
G1 X138.667 Y142.334
G1 X138.660 Y143.023
G1 X138.629 Y143.713
G1 X138.573 Y144.404
G1 X138.491 Y145.095
G1 X138.385 Y145.784
G1 X138.254 Y146.472
G1 X138.097 Y147.156
G1 X137.916 Y147.836
G1 X137.710 Y148.512
G1 X137.480 Y149.182
G1 X137.225 Y149.845
G1 X136.947 Y150.501
G1 X136.644 Y151.149
G1 X136.318 Y151.788
G1 X135.969 Y152.416
G1 X135.598 Y153.034
G1 X135.203 Y153.641
G1 X134.787 Y154.234
G1 X134.350 Y154.815
G1 X133.891 Y155.382
G1 X133.412 Y155.933
G1 X132.913 Y156.470
G1 X132.394 Y156.990
G1 X131.857 Y157.494
G1 X131.301 Y157.979
G1 X130.728 Y158.447
G1 X130.138 Y158.896
G1 X129.531 Y159.326
G1 X128.909 Y159.735
G1 X128.272 Y160.124
G1 X127.621 Y160.492
G1 X126.957 Y160.838
G1 X126.280 Y161.163
G1 X125.591 Y161.464
G1 X124.892 Y161.743
G1 X124.182 Y161.999
G1 X123.463 Y162.231
G1 X122.735 Y162.439
G1 X122.000 Y162.623
G1 X121.258 Y162.782
G1 X120.510 Y162.917
G1 X119.757 Y163.026
G1 X119.001 Y163.111
G1 X118.241 Y163.170
G1 X117.478 Y163.204
G1 X116.715 Y163.212
G1 X115.950 Y163.195
G1 X115.187 Y163.153
G1 X114.424 Y163.085
G1 X113.664 Y162.991
G1 X112.908 Y162.873
G1 X112.155 Y162.729
G1 X111.407 Y162.560
G1 X110.665 Y162.367
G1 X109.930 Y162.148
G1 X109.202 Y161.906
G1 X108.483 Y161.639
G1 X107.773 Y161.349
G1 X107.074 Y161.035
G1 X106.385 Y160.698
G1 X105.709 Y160.339
G1 X105.045 Y159.957
G1 X104.394 Y159.554
G1 X103.758 Y159.129
G1 X103.136 Y158.684
G1 X102.530 Y158.218
G1 X101.941 Y157.733
G1 X101.369 Y157.229
G1 X100.814 Y156.707
G1 X100.278 Y156.167
G1 X99.761 Y155.609
G1 X99.263 Y155.036
G1 X98.786 Y154.447
G1 X98.330 Y153.843
G1 X97.894 Y153.224
G1 X97.481 Y152.593
G1 X97.089 Y151.948
G1 X96.721 Y151.292
G1 X96.375 Y150.625
G1 X96.053 Y149.948
G1 X95.754 Y149.261
G1 X95.480 Y148.566
G1 X95.230 Y147.863
G1 X95.005 Y147.154
G1 X94.805 Y146.439
G1 X94.629 Y145.719
G1 X94.479 Y144.995
G1 X94.355 Y144.268
G1 X94.255 Y143.538
G1 X94.181 Y142.808
G1 X94.133 Y142.077
G1 X94.110 Y141.346
G1 X94.113 Y140.617
G1 X94.141 Y139.891
G1 X94.195 Y139.167
G1 X94.273 Y138.448
G1 X94.377 Y137.734
G1 X94.505 Y137.026
G1 X94.658 Y136.325
G1 X94.836 Y135.632
G1 X95.037 Y134.947
G1 X95.262 Y134.272
G1 X95.510 Y133.607
G1 X95.781 Y132.953
G1 X96.075 Y132.312
G1 X96.391 Y131.683
G1 X96.728 Y131.067
G1 X97.087 Y130.466
G1 X97.466 Y129.880
G1 X97.865 Y129.310
G1 X98.283 Y128.756
G1 X98.720 Y128.220
G1 X99.175 Y127.701
G1 X99.648 Y127.201
G1 X100.138 Y126.721
G1 X100.644 Y126.259
G1 X101.165 Y125.819
G1 X101.700 Y125.399
G1 X102.250 Y125.000
G1 X102.813 Y124.623
G1 X103.388 Y124.269
G1 X103.974 Y123.937
G1 X104.571 Y123.628
G1 X105.178 Y123.343
G1 X105.794 Y123.082
G1 X106.418 Y122.845
G1 X107.049 Y122.632
G1 X107.687 Y122.444
G1 X108.330 Y122.281
G1 X108.977 Y122.143
G1 X109.628 Y122.030
G1 X110.282 Y121.942
G1 X110.937 Y121.880
G1 X111.594 Y121.843
G1 X112.250 Y121.832
G1 X112.905 Y121.846
G1 X113.559 Y121.886
G1 X114.209 Y121.951
G1 X114.856 Y122.041
G1 X115.498 Y122.156
G1 X116.134 Y122.296
G1 X116.764 Y122.461
G1 X117.387 Y122.650
G1 X118.001 Y122.863
G1 X118.607 Y123.100
G1 X119.202 Y123.360
G1 X119.787 Y123.644
G1 X120.359 Y123.950
G1 X120.920 Y124.278
G1 X121.467 Y124.628
G1 X122.000 Y125.000
G1 X122.518 Y125.392
G1 X123.021 Y125.805
G1 X123.507 Y126.237
G1 X123.977 Y126.688
G1 X124.428 Y127.158
G1 X124.862 Y127.645
G1 X125.276 Y128.150
G1 X125.671 Y128.671
G1 X126.046 Y129.208
G1 X126.400 Y129.759
G1 X126.732 Y130.325
G1 X127.043 Y130.905
G1 X127.332 Y131.497
G1 X127.597 Y132.100
G1 X127.840 Y132.715
G1 X128.059 Y133.340
G1 X128.255 Y133.974
G1 X128.426 Y134.617
G1 X128.572 Y135.267
G1 X128.694 Y135.924
G1 X128.791 Y136.586
G1 X128.863 Y137.254
G1 X128.909 Y137.925
G1 X128.929 Y138.600
G1 X128.924 Y139.276
G1 X128.894 Y139.954
G1 X128.838 Y140.632
G1 X128.755 Y141.309
G1 X128.648 Y141.985
G1 X128.514 Y142.658
G1 X128.355 Y143.327
G1 X128.171 Y143.993
G1 X127.962 Y144.652
G1 X127.727 Y145.306
G1 X127.468 Y145.953
G1 X127.184 Y146.591
G1 X126.875 Y147.221
G1 X126.543 Y147.841
G1 X126.188 Y148.450
G1 X125.809 Y149.048
G1 X125.407 Y149.633
G1 X124.983 Y150.205
G1 X124.538 Y150.764
G1 X124.070 Y151.307
G1 X123.583 Y151.835
G1 X123.074 Y152.347
G1 X122.547 Y152.842
G1 X122.000 Y153.320
G1 X121.435 Y153.779
G1 X120.852 Y154.219
G1 X120.252 Y154.639
G1 X119.636 Y155.039
G1 X119.004 Y155.418
G1 X118.357 Y155.776
G1 X117.697 Y156.112
G1 X117.023 Y156.426
G1 X116.336 Y156.716
G1 X115.638 Y156.984
G1 X114.929 Y157.227
G1 X114.210 Y157.447
G1 X113.482 Y157.642
G1 X112.746 Y157.812
G1 X112.002 Y157.957
G1 X111.253 Y158.077
G1 X110.497 Y158.172
G1 X109.737 Y158.240
G1 X108.973 Y158.283
G1 X108.207 Y158.299
G1 X107.439 Y158.290
G1 X106.670 Y158.254
G1 X105.901 Y158.192
G1 X105.133 Y158.104
G1 X104.366 Y157.990
G1 X103.603 Y157.850
G1 X102.844 Y157.683
G1 X102.089 Y157.491
G1 X101.340 Y157.274
G1 X100.598 Y157.031
G1 X99.863 Y156.762
G1 X99.136 Y156.469
G1 X98.419 Y156.151
G1 X97.712 Y155.809
G1 X97.016 Y155.443
G1 X96.332 Y155.054
G1 X95.660 Y154.641
G1 X95.002 Y154.206
G1 X94.358 Y153.749
G1 X93.730 Y153.270
G1 X93.117 Y152.770
G1 X92.521 Y152.250
G1 X91.942 Y151.710
G1 X91.381 Y151.151
G1 X90.839 Y150.573
G1 X90.317 Y149.977
G1 X89.814 Y149.364
G1 X89.332 Y148.735
G1 X88.871 Y148.090
G1 X88.432 Y147.430
G1 X88.015 Y146.755
G1 X87.621 Y146.068
G1 X87.250 Y145.367
G1 X86.902 Y144.656
G1 X86.579 Y143.933
G1 X86.280 Y143.200
G1 X86.006 Y142.458
G1 X85.757 Y141.708
G1 X85.534 Y140.951
G1 X85.336 Y140.187
G1 X85.164 Y139.417
G1 X85.018 Y138.644
G1 X84.898 Y137.866
G1 X84.804 Y137.086
G1 X84.737 Y136.304
G1 X84.696 Y135.521
G1 X84.681 Y134.738
G1 X84.693 Y133.957
G1 X84.731 Y133.177
G1 X84.795 Y132.400
G1 X84.886 Y131.628
G1 X85.002 Y130.860
G1 X85.145 Y130.098
G1 X85.313 Y129.342
G1 X85.506 Y128.594
G1 X85.724 Y127.855
G1 X85.967 Y127.125
G1 X86.234 Y126.405
G1 X86.525 Y125.697
G1 X86.839 Y125.000
G1 X87.177 Y124.316
G1 X87.537 Y123.646
G1 X87.920 Y122.990
G1 X88.324 Y122.350
G1 X88.749 Y121.725
G1 X89.194 Y121.117
G1 X89.659 Y120.527
G1 X90.143 Y119.954
G1 X90.646 Y119.401
G1 X91.167 Y118.867
G1 X91.704 Y118.353
G1 X92.258 Y117.860
G1 X92.828 Y117.388
G1 X93.412 Y116.937
G1 X94.011 Y116.510
G1 X94.623 Y116.105
G1 X95.247 Y115.723
G1 X95.882 Y115.365
G1 X96.528 Y115.031
G1 X97.185 Y114.721
G1 X97.849 Y114.436
G1 X98.522 Y114.177
G1 X99.202 Y113.942
G1 X99.889 Y113.734
G1 X100.580 Y113.551
G1 X101.276 Y113.394
G1 X101.975 Y113.263
G1 X102.677 Y113.159
G1 X103.380 Y113.080
G1 X104.083 Y113.028
G1 X104.786 Y113.003
G1 X105.488 Y113.003
G1 X106.187 Y113.030
G1 X106.884 Y113.083
G1 X107.575 Y113.162
G1 X108.262 Y113.267
G1 X108.943 Y113.397
G1 X109.617 Y113.553
G1 X110.282 Y113.734
G1 X110.939 Y113.939
G1 X111.587 Y114.169
G1 X112.223 Y114.424
G1 X112.848 Y114.701
G1 X113.461 Y115.002
G1 X114.061 Y115.326
G1 X114.647 Y115.673
G1 X115.218 Y116.040
G1 X115.773 Y116.430
G1 X116.313 Y116.840
G1 X116.835 Y117.270
G1 X117.339 Y117.719
G1 X117.825 Y118.187
G1 X118.292 Y118.673
G1 X118.739 Y119.177
G1 X119.166 Y119.697
G1 X119.571 Y120.233
G1 X119.955 Y120.785
G1 X120.318 Y121.351
G1 X120.657 Y121.930
G1 X120.974 Y122.522
G1 X121.266 Y123.126
G1 X121.535 Y123.741
G1 X121.780 Y124.366
G1 X122.000 Y125.000
G1 X122.195 Y125.643
G1 X122.365 Y126.293
G1 X122.509 Y126.949
G1 X122.627 Y127.612
G1 X122.719 Y128.279
G1 X122.786 Y128.949
G1 X122.826 Y129.623
G1 X122.839 Y130.298
G1 X122.826 Y130.974
G1 X122.787 Y131.650
G1 X122.721 Y132.325
G1 X122.629 Y132.998
G1 X122.511 Y133.668
G1 X122.367 Y134.334
G1 X122.196 Y134.995
G1 X122.000 Y135.650
G1 X121.778 Y136.299
G1 X121.531 Y136.940
G1 X121.259 Y137.572
G1 X120.962 Y138.195
G1 X120.640 Y138.808
G1 X120.295 Y139.409
G1 X119.926 Y139.998
G1 X119.533 Y140.574
G1 X119.118 Y141.137
G1 X118.681 Y141.684
G1 X118.223 Y142.217
G1 X117.743 Y142.733
G1 X117.242 Y143.232
G1 X116.722 Y143.713
G1 X116.183 Y144.176
G1 X115.625 Y144.620
G1 X115.049 Y145.044
G1 X114.456 Y145.448
G1 X113.847 Y145.831
G1 X113.222 Y146.192
G1 X112.582 Y146.531
G1 X111.928 Y146.847
G1 X111.261 Y147.140
G1 X110.582 Y147.410
G1 X109.891 Y147.655
G1 X109.189 Y147.876
G1 X108.478 Y148.072
G1 X107.757 Y148.242
G1 X107.029 Y148.387
G1 X106.294 Y148.506
G1 X105.552 Y148.599
G1 X104.806 Y148.666
G1 X104.055 Y148.706
G1 X103.301 Y148.720
G1 X102.544 Y148.707
G1 X101.786 Y148.667
G1 X101.028 Y148.600
G1 X100.271 Y148.507
G1 X99.515 Y148.386
G1 X98.761 Y148.239
G1 X98.011 Y148.065
G1 X97.266 Y147.864
G1 X96.525 Y147.637
G1 X95.791 Y147.384
G1 X95.065 Y147.105
G1 X94.346 Y146.800
G1 X93.637 Y146.470
G1 X92.938 Y146.115
G1 X92.250 Y145.735
G1 X91.573 Y145.331
G1 X90.909 Y144.903
G1 X90.259 Y144.451
G1 X89.623 Y143.977
G1 X89.002 Y143.480
G1 X88.397 Y142.961
G1 X87.809 Y142.421
G1 X87.239 Y141.861
G1 X86.686 Y141.280
G1 X86.153 Y140.680
G1 X85.639 Y140.061
G1 X85.146 Y139.425
G1 X84.673 Y138.771
G1 X84.222 Y138.100
G1 X83.793 Y137.414
G1 X83.387 Y136.713
G1 X83.004 Y135.998
G1 X82.645 Y135.270
G1 X82.310 Y134.529
G1 X82.000 Y133.776
G1 X81.714 Y133.013
G1 X81.454 Y132.241
G1 X81.220 Y131.459
G1 X81.011 Y130.669
G1 X80.829 Y129.873
G1 X80.674 Y129.070
G1 X80.545 Y128.263
G1 X80.443 Y127.451
G1 X80.368 Y126.636
G1 X80.320 Y125.818
G1 X80.300 Y125.000
G1 X80.307 Y124.181
G1 X80.341 Y123.363
G1 X80.402 Y122.547
G1 X80.490 Y121.733
G1 X80.606 Y120.923
G1 X80.748 Y120.117
G1 X80.917 Y119.317
G1 X81.112 Y118.524
G1 X81.333 Y117.738
G1 X81.581 Y116.960
G1 X81.854 Y116.192
G1 X82.153 Y115.433
G1 X82.476 Y114.686
G1 X82.824 Y113.951
G1 X83.196 Y113.229
G1 X83.591 Y112.520
G1 X84.010 Y111.826
G1 X84.451 Y111.147
G1 X84.914 Y110.485
G1 X85.398 Y109.839
G1 X85.904 Y109.211
G1 X86.429 Y108.602
G1 X86.974 Y108.011
G1 X87.537 Y107.440
G1 X88.119 Y106.890
G1 X88.718 Y106.361
G1 X89.333 Y105.854
G1 X89.964 Y105.369
G1 X90.610 Y104.906
G1 X91.271 Y104.467
G1 X91.944 Y104.052
G1 X92.630 Y103.661
G1 X93.327 Y103.295
G1 X94.035 Y102.954
G1 X94.752 Y102.638
G1 X95.479 Y102.349
G1 X96.213 Y102.085
G1 X96.954 Y101.847
G1 X97.701 Y101.637
G1 X98.453 Y101.453
G1 X99.209 Y101.296
G1 X99.968 Y101.166
G1 X100.729 Y101.063
G1 X101.491 Y100.987
G1 X102.253 Y100.939
G1 X103.015 Y100.917
G1 X103.774 Y100.923
G1 X104.531 Y100.956
G1 X105.284 Y101.016
G1 X106.032 Y101.103
G1 X106.775 Y101.216
G1 X107.511 Y101.356
G1 X108.239 Y101.522
G1 X108.959 Y101.713
G1 X109.669 Y101.930
G1 X110.369 Y102.173
G1 X111.057 Y102.440
G1 X111.734 Y102.731
G1 X112.397 Y103.046
G1 X113.047 Y103.384
G1 X113.681 Y103.746
G1 X114.300 Y104.129
G1 X114.903 Y104.535
G1 X115.489 Y104.961
G1 X116.057 Y105.408
G1 X116.606 Y105.875
G1 X117.136 Y106.361
G1 X117.646 Y106.865
G1 X118.136 Y107.387
G1 X118.604 Y107.926
G1 X119.050 Y108.481
G1 X119.474 Y109.051
G1 X119.875 Y109.636
G1 X120.252 Y110.235
G1 X120.606 Y110.846
G1 X120.935 Y111.470
G1 X121.240 Y112.104
G1 X121.519 Y112.749
G1 X121.772 Y113.403
G1 X122.000 Y114.065
G1 X122.202 Y114.734
G1 X122.377 Y115.410
G1 X122.525 Y116.092
G1 X122.647 Y116.777
G1 X122.742 Y117.467
G1 X122.810 Y118.159
G1 X122.850 Y118.852
G1 X122.864 Y119.546
G1 X122.850 Y120.240
G1 X122.809 Y120.932
G1 X122.741 Y121.621
G1 X122.646 Y122.308
G1 X122.525 Y122.990
G1 X122.376 Y123.666
G1 X122.201 Y124.337
G1 X122.000 Y125.000
G1 X121.773 Y125.655
G1 X121.520 Y126.301
G1 X121.242 Y126.936
G1 X120.939 Y127.561
G1 X120.612 Y128.174
G1 X120.260 Y128.774
G1 X119.885 Y129.361
G1 X119.487 Y129.933
G1 X119.066 Y130.490
G1 X118.623 Y131.030
G1 X118.159 Y131.554
G1 X117.674 Y132.060
G1 X117.168 Y132.548
G1 X116.644 Y133.016
G1 X116.100 Y133.465
G1 X115.539 Y133.893
G1 X114.960 Y134.300
G1 X114.365 Y134.685
G1 X113.754 Y135.048
G1 X113.128 Y135.387
G1 X112.488 Y135.704
G1 X111.835 Y135.996
G1 X111.170 Y136.264
G1 X110.493 Y136.507
G1 X109.805 Y136.725
G1 X109.108 Y136.917
G1 X108.402 Y137.083
G1 X107.689 Y137.223
G1 X106.968 Y137.336
G1 X106.242 Y137.422
G1 X105.511 Y137.482
G1 X104.776 Y137.514
G1 X104.038 Y137.519
G1 X103.298 Y137.496
G1 X102.557 Y137.446
G1 X101.817 Y137.368
G1 X101.077 Y137.263
G1 X100.339 Y137.130
G1 X99.605 Y136.970
G1 X98.874 Y136.783
G1 X98.149 Y136.569
G1 X97.429 Y136.327
G1 X96.717 Y136.059
G1 X96.012 Y135.765
G1 X95.316 Y135.444
G1 X94.630 Y135.097
G1 X93.955 Y134.725
G1 X93.291 Y134.328
G1 X92.640 Y133.906
G1 X92.002 Y133.460
G1 X91.379 Y132.990
G1 X90.771 Y132.497
G1 X90.178 Y131.982
G1 X89.603 Y131.444
G1 X89.045 Y130.885
G1 X88.506 Y130.305
G1 X87.985 Y129.705
G1 X87.485 Y129.085
G1 X87.005 Y128.447
G1 X86.546 Y127.790
G1 X86.109 Y127.117
G1 X85.694 Y126.426
G1 X85.302 Y125.721
G1 X84.934 Y125.000
G1 X84.590 Y124.265
G1 X84.271 Y123.518
G1 X83.976 Y122.758
G1 X83.708 Y121.986
G1 X83.465 Y121.205
G1 X83.248 Y120.413
G1 X83.058 Y119.614
G1 X82.895 Y118.806
G1 X82.759 Y117.992
G1 X82.650 Y117.173
G1 X82.569 Y116.348
G1 X82.515 Y115.521
G1 X82.490 Y114.690
G1 X82.492 Y113.858
G1 X82.522 Y113.025
G1 X82.581 Y112.192
G1 X82.667 Y111.361
G1 X82.781 Y110.531
G1 X82.923 Y109.706
G1 X83.093 Y108.884
G1 X83.290 Y108.068
G1 X83.515 Y107.258
G1 X83.767 Y106.456
G1 X84.045 Y105.661
G1 X84.351 Y104.876
G1 X84.682 Y104.101
G1 X85.039 Y103.337
G1 X85.421 Y102.585
G1 X85.829 Y101.845
G1 X86.261 Y101.120
G1 X86.717 Y100.409
G1 X87.196 Y99.713
G1 X87.698 Y99.034
G1 X88.223 Y98.372
G1 X88.769 Y97.728
G1 X89.337 Y97.103
G1 X89.924 Y96.497
G1 X90.531 Y95.911
G1 X91.158 Y95.346
G1 X91.802 Y94.802
G1 X92.464 Y94.280
G1 X93.142 Y93.782
G1 X93.836 Y93.306
G1 X94.545 Y92.854
G1 X95.268 Y92.427
G1 X96.004 Y92.025
G1 X96.753 Y91.647
G1 X97.513 Y91.296
G1 X98.283 Y90.971
G1 X99.063 Y90.672
G1 X99.851 Y90.400
G1 X100.647 Y90.155
G1 X101.449 Y89.937
G1 X102.258 Y89.747
G1 X103.070 Y89.585
G1 X103.887 Y89.451
G1 X104.706 Y89.344
G1 X105.527 Y89.266
G1 X106.348 Y89.216
G1 X107.169 Y89.194
G1 X107.988 Y89.200
G1 X108.805 Y89.234
G1 X109.619 Y89.296
G1 X110.428 Y89.386
G1 X111.232 Y89.503
G1 X112.030 Y89.648
G1 X112.820 Y89.820
G1 X113.602 Y90.018
G1 X114.374 Y90.244
G1 X115.137 Y90.495
G1 X115.888 Y90.772
G1 X116.627 Y91.075
G1 X117.353 Y91.402
G1 X118.065 Y91.754
G1 X118.763 Y92.130
G1 X119.444 Y92.529
G1 X120.110 Y92.951
G1 X120.758 Y93.395
G1 X121.388 Y93.860
G1 X122.000 Y94.347
G1 X122.592 Y94.854
G1 X123.164 Y95.380
G1 X123.715 Y95.925
G1 X124.244 Y96.487
G1 X124.751 Y97.067
G1 X125.235 Y97.664
G1 X125.696 Y98.276
G1 X126.134 Y98.902
G1 X126.546 Y99.542
G1 X126.934 Y100.195
G1 X127.296 Y100.861
G1 X127.633 Y101.537
G1 X127.944 Y102.223
G1 X128.228 Y102.919
G1 X128.485 Y103.623
G1 X128.715 Y104.334
G1 X128.918 Y105.051
G1 X129.093 Y105.773
G1 X129.241 Y106.500
G1 X129.361 Y107.230
G1 X129.452 Y107.962
G1 X129.516 Y108.696
G1 X129.552 Y109.430
G1 X129.560 Y110.163
G1 X129.540 Y110.894
G1 X129.492 Y111.622
G1 X129.416 Y112.347
G1 X129.313 Y113.066
G1 X129.182 Y113.780
G1 X129.024 Y114.487
G1 X128.840 Y115.186
G1 X128.628 Y115.877
G1 X128.391 Y116.558
G1 X128.127 Y117.228
G1 X127.838 Y117.886
G1 X127.524 Y118.532
G1 X127.185 Y119.165
G1 X126.822 Y119.783
G1 X126.436 Y120.386
G1 X126.026 Y120.974
G1 X125.595 Y121.544
G1 X125.141 Y122.097
G1 X124.666 Y122.631
G1 X124.171 Y123.146
G1 X123.656 Y123.641
G1 X123.122 Y124.115
G1 X122.570 Y124.569
G1 X122.000 Y125.000
G1 X121.414 Y125.409
G1 X120.811 Y125.794
G1 X120.194 Y126.156
G1 X119.563 Y126.494
G1 X118.918 Y126.806
G1 X118.261 Y127.094
G1 X117.593 Y127.356
G1 X116.914 Y127.592
G1 X116.225 Y127.801
G1 X115.528 Y127.984
G1 X114.824 Y128.139
G1 X114.112 Y128.267
G1 X113.395 Y128.368
G1 X112.674 Y128.441
G1 X111.949 Y128.485
G1 X111.221 Y128.502
G1 X110.492 Y128.491
G1 X109.762 Y128.452
G1 X109.032 Y128.384
G1 X108.304 Y128.288
G1 X107.579 Y128.164
G1 X106.857 Y128.012
G1 X106.140 Y127.832
G1 X105.428 Y127.625
G1 X104.722 Y127.390
G1 X104.025 Y127.128
G1 X103.335 Y126.838
G1 X102.656 Y126.522
G1 X101.986 Y126.180
G1 X101.328 Y125.812
G1 X100.682 Y125.419
G1 X100.050 Y125.000
G1 X99.432 Y124.557
G1 X98.828 Y124.090
G1 X98.241 Y123.599
G1 X97.670 Y123.085
G1 X97.117 Y122.549
G1 X96.583 Y121.992
G1 X96.067 Y121.413
G1 X95.571 Y120.814
G1 X95.096 Y120.196
G1 X94.642 Y119.558
G1 X94.211 Y118.903
G1 X93.802 Y118.230
G1 X93.416 Y117.541
G1 X93.054 Y116.836
G1 X92.716 Y116.117
G1 X92.403 Y115.383
G1 X92.116 Y114.637
G1 X91.855 Y113.879
G1 X91.620 Y113.109
G1 X91.411 Y112.330
G1 X91.230 Y111.541
G1 X91.076 Y110.744
G1 X90.950 Y109.939
G1 X90.851 Y109.129
G1 X90.781 Y108.313
G1 X90.739 Y107.493
G1 X90.726 Y106.670
G1 X90.741 Y105.844
G1 X90.785 Y105.018
G1 X90.857 Y104.191
G1 X90.958 Y103.365
G1 X91.088 Y102.541
G1 X91.247 Y101.720
G1 X91.434 Y100.903
G1 X91.649 Y100.091
G1 X91.892 Y99.285
G1 X92.163 Y98.486
G1 X92.462 Y97.695
G1 X92.788 Y96.913
G1 X93.141 Y96.141
G1 X93.521 Y95.380
G1 X93.927 Y94.631
G1 X94.359 Y93.895
G1 X94.816 Y93.172
G1 X95.298 Y92.464
G1 X95.805 Y91.771
G1 X96.335 Y91.095
G1 X96.888 Y90.436
G1 X97.464 Y89.796
G1 X98.062 Y89.174
G1 X98.680 Y88.571
G1 X99.320 Y87.989
G1 X99.979 Y87.428
G1 X100.657 Y86.889
G1 X101.353 Y86.373
G1 X102.067 Y85.879
G1 X102.797 Y85.410
G1 X103.543 Y84.964
G1 X104.304 Y84.543
G1 X105.079 Y84.148
G1 X105.866 Y83.779
G1 X106.666 Y83.436
G1 X107.477 Y83.119
G1 X108.298 Y82.830
G1 X109.129 Y82.568
G1 X109.967 Y82.334
G1 X110.813 Y82.128
G1 X111.665 Y81.951
G1 X112.522 Y81.802
G1 X113.383 Y81.681
G1 X114.248 Y81.589
G1 X115.115 Y81.527
G1 X115.982 Y81.493
G1 X116.850 Y81.488
G1 X117.717 Y81.512
G1 X118.582 Y81.565
G1 X119.443 Y81.647
G1 X120.301 Y81.758
G1 X121.154 Y81.897
G1 X122.000 Y82.065
G1 X122.839 Y82.260
G1 X123.670 Y82.484
G1 X124.493 Y82.735
G1 X125.304 Y83.013
G1 X126.105 Y83.318
G1 X126.894 Y83.649
G1 X127.670 Y84.006
G1 X128.432 Y84.389
G1 X129.179 Y84.797
G1 X129.911 Y85.229
G1 X130.626 Y85.685
G1 X131.324 Y86.164
G1 X132.003 Y86.665
G1 X132.664 Y87.189
G1 X133.305 Y87.733
G1 X133.925 Y88.299
G1 X134.524 Y88.884
G1 X135.101 Y89.487
G1 X135.656 Y90.110
G1 X136.187 Y90.749
G1 X136.695 Y91.405
G1 X137.178 Y92.076
G1 X137.636 Y92.762
G1 X138.069 Y93.462
G1 X138.476 Y94.175
G1 X138.857 Y94.900
G1 X139.210 Y95.636
G1 X139.537 Y96.382
G1 X139.836 Y97.137
G1 X140.108 Y97.900
G1 X140.351 Y98.670
G1 X140.566 Y99.446
G1 X140.753 Y100.227
G1 X140.911 Y101.012
G1 X141.040 Y101.800
G1 X141.140 Y102.590
