;  Created by Sandify
;  https://sandify.org
;  Version: 0.2.8
;
;  Machine type: Rectangular
;    Min X (mm): 0
;    Max X (mm): 270
;    Min Y (mm): 0
;    Max Y (mm): 300
;  Content type: shape
;  Layer:
;    Shape: Space Filler
;    Name: polygon
;    Type: Sierpinski Square
;    Iterations: 5
;    Visible: true
;    X offset: 0
;    Y offset: 0
;    Rotate (degrees): 0
;    Reverse path: false
;    Fine tuning:
;      Connect to next layer: line
;      Draw portion of path (%): 100
;      Backtrack at end (%): 0
;      Rotate starting point (%): 0
;  Reverse export path: false
;
; File name: 'Sierpinski'
; File type: gcode
;
; BEGIN PRE
G1 F3000
; END PRE

G1 X0.000 Y300.000
G1 X0.000 Y277.857
G1 X1.667 Y276.190
G1 X4.048 Y278.571
G1 X6.429 Y276.190
G1 X4.048 Y273.810
G1 X6.429 Y271.429
G1 X4.048 Y269.048
G1 X6.429 Y266.667
G1 X8.810 Y269.048
G1 X11.190 Y266.667
G1 X13.571 Y269.048
G1 X15.952 Y266.667
G1 X13.571 Y264.286
G1 X15.952 Y261.905
G1 X13.571 Y259.524
G1 X11.190 Y261.905
G1 X8.810 Y259.524
G1 X6.429 Y261.905
G1 X4.048 Y259.524
G1 X6.429 Y257.143
G1 X4.048 Y254.762
G1 X6.429 Y252.381
G1 X4.048 Y250.000
G1 X1.667 Y252.381
G1 X0.000 Y250.714
G1 X0.000 Y239.762
G1 X1.667 Y238.095
G1 X4.048 Y240.476
G1 X6.429 Y238.095
G1 X4.048 Y235.714
G1 X6.429 Y233.333
G1 X4.048 Y230.952
G1 X6.429 Y228.571
G1 X8.810 Y230.952
G1 X11.190 Y228.571
G1 X13.571 Y230.952
G1 X15.952 Y228.571
G1 X18.333 Y230.952
G1 X15.952 Y233.333
G1 X18.333 Y235.714
G1 X15.952 Y238.095
G1 X18.333 Y240.476
G1 X15.952 Y242.857
G1 X13.571 Y240.476
G1 X11.190 Y242.857
G1 X8.810 Y240.476
G1 X6.429 Y242.857
G1 X8.810 Y245.238
G1 X6.429 Y247.619
G1 X8.810 Y250.000
G1 X11.190 Y247.619
G1 X13.571 Y250.000
G1 X15.952 Y247.619
G1 X18.333 Y250.000
G1 X15.952 Y252.381
G1 X18.333 Y254.762
G1 X15.952 Y257.143
G1 X18.333 Y259.524
G1 X20.714 Y257.143
G1 X23.095 Y259.524
G1 X25.476 Y257.143
G1 X23.095 Y254.762
G1 X25.476 Y252.381
G1 X23.095 Y250.000
G1 X25.476 Y247.619
G1 X27.857 Y250.000
G1 X30.238 Y247.619
G1 X32.619 Y250.000
G1 X35.000 Y247.619
G1 X32.619 Y245.238
G1 X35.000 Y242.857
G1 X32.619 Y240.476
G1 X30.238 Y242.857
G1 X27.857 Y240.476
G1 X25.476 Y242.857
G1 X23.095 Y240.476
G1 X25.476 Y238.095
G1 X23.095 Y235.714
G1 X25.476 Y233.333
G1 X23.095 Y230.952
G1 X25.476 Y228.571
G1 X27.857 Y230.952
G1 X30.238 Y228.571
G1 X32.619 Y230.952
G1 X35.000 Y228.571
G1 X37.381 Y230.952
G1 X35.000 Y233.333
G1 X37.381 Y235.714
G1 X35.000 Y238.095
G1 X37.381 Y240.476
G1 X39.762 Y238.095
G1 X42.143 Y240.476
G1 X44.524 Y238.095
G1 X42.143 Y235.714
G1 X44.524 Y233.333
G1 X42.143 Y230.952
G1 X44.524 Y228.571
G1 X46.905 Y230.952
G1 X49.286 Y228.571
G1 X51.667 Y230.952
G1 X54.048 Y228.571
G1 X51.667 Y226.190
G1 X54.048 Y223.810
G1 X51.667 Y221.429
G1 X49.286 Y223.810
G1 X46.905 Y221.429
G1 X44.524 Y223.810
G1 X42.143 Y221.429
G1 X44.524 Y219.048
G1 X42.143 Y216.667
G1 X44.524 Y214.286
G1 X42.143 Y211.905
G1 X39.762 Y214.286
G1 X37.381 Y211.905
G1 X35.000 Y214.286
G1 X37.381 Y216.667
G1 X35.000 Y219.048
G1 X37.381 Y221.429
G1 X35.000 Y223.810
G1 X32.619 Y221.429
G1 X30.238 Y223.810
G1 X27.857 Y221.429
G1 X25.476 Y223.810
G1 X23.095 Y221.429
G1 X25.476 Y219.048
G1 X23.095 Y216.667
G1 X25.476 Y214.286
G1 X23.095 Y211.905
G1 X25.476 Y209.524
G1 X27.857 Y211.905
G1 X30.238 Y209.524
G1 X32.619 Y211.905
G1 X35.000 Y209.524
G1 X32.619 Y207.143
G1 X35.000 Y204.762
G1 X32.619 Y202.381
G1 X30.238 Y204.762
G1 X27.857 Y202.381
G1 X25.476 Y204.762
G1 X23.095 Y202.381
G1 X25.476 Y200.000
G1 X23.095 Y197.619
G1 X25.476 Y195.238
G1 X23.095 Y192.857
G1 X20.714 Y195.238
G1 X18.333 Y192.857
G1 X15.952 Y195.238
G1 X18.333 Y197.619
G1 X15.952 Y200.000
G1 X18.333 Y202.381
G1 X15.952 Y204.762
G1 X13.571 Y202.381
G1 X11.190 Y204.762
G1 X8.810 Y202.381
G1 X6.429 Y204.762
G1 X8.810 Y207.143
G1 X6.429 Y209.524
G1 X8.810 Y211.905
G1 X11.190 Y209.524
G1 X13.571 Y211.905
G1 X15.952 Y209.524
G1 X18.333 Y211.905
G1 X15.952 Y214.286
G1 X18.333 Y216.667
G1 X15.952 Y219.048
G1 X18.333 Y221.429
G1 X15.952 Y223.810
G1 X13.571 Y221.429
G1 X11.190 Y223.810
G1 X8.810 Y221.429
G1 X6.429 Y223.810
G1 X4.048 Y221.429
G1 X6.429 Y219.048
G1 X4.048 Y216.667
G1 X6.429 Y214.286
G1 X4.048 Y211.905
G1 X1.667 Y214.286
G1 X0.000 Y212.619
G1 X0.000 Y201.667
G1 X1.667 Y200.000
G1 X4.048 Y202.381
G1 X6.429 Y200.000
G1 X4.048 Y197.619
G1 X6.429 Y195.238
G1 X4.048 Y192.857
G1 X6.429 Y190.476
G1 X8.810 Y192.857
G1 X11.190 Y190.476
G1 X13.571 Y192.857
G1 X15.952 Y190.476
G1 X13.571 Y188.095
G1 X15.952 Y185.714
G1 X13.571 Y183.333
G1 X11.190 Y185.714
G1 X8.810 Y183.333
G1 X6.429 Y185.714
G1 X4.048 Y183.333
G1 X6.429 Y180.952
G1 X4.048 Y178.571
G1 X6.429 Y176.190
G1 X4.048 Y173.810
G1 X1.667 Y176.190
G1 X0.000 Y174.524
G1 X0.000 Y163.571
G1 X1.667 Y161.905
G1 X4.048 Y164.286
G1 X6.429 Y161.905
G1 X4.048 Y159.524
G1 X6.429 Y157.143
G1 X4.048 Y154.762
G1 X6.429 Y152.381
G1 X8.810 Y154.762
G1 X11.190 Y152.381
G1 X13.571 Y154.762
G1 X15.952 Y152.381
G1 X18.333 Y154.762
G1 X15.952 Y157.143
G1 X18.333 Y159.524
G1 X15.952 Y161.905
G1 X18.333 Y164.286
G1 X15.952 Y166.667
G1 X13.571 Y164.286
G1 X11.190 Y166.667
G1 X8.810 Y164.286
G1 X6.429 Y166.667
G1 X8.810 Y169.048
G1 X6.429 Y171.429
G1 X8.810 Y173.810
G1 X11.190 Y171.429
G1 X13.571 Y173.810
G1 X15.952 Y171.429
G1 X18.333 Y173.810
G1 X15.952 Y176.190
G1 X18.333 Y178.571
G1 X15.952 Y180.952
G1 X18.333 Y183.333
G1 X20.714 Y180.952
G1 X23.095 Y183.333
G1 X25.476 Y180.952
G1 X23.095 Y178.571
G1 X25.476 Y176.190
G1 X23.095 Y173.810
G1 X25.476 Y171.429
G1 X27.857 Y173.810
G1 X30.238 Y171.429
G1 X32.619 Y173.810
G1 X35.000 Y171.429
G1 X32.619 Y169.048
G1 X35.000 Y166.667
G1 X32.619 Y164.286
G1 X30.238 Y166.667
G1 X27.857 Y164.286
G1 X25.476 Y166.667
G1 X23.095 Y164.286
G1 X25.476 Y161.905
G1 X23.095 Y159.524
G1 X25.476 Y157.143
G1 X23.095 Y154.762
G1 X25.476 Y152.381
G1 X27.857 Y154.762
G1 X30.238 Y152.381
G1 X32.619 Y154.762
G1 X35.000 Y152.381
G1 X37.381 Y154.762
G1 X35.000 Y157.143
G1 X37.381 Y159.524
G1 X35.000 Y161.905
G1 X37.381 Y164.286
G1 X39.762 Y161.905
G1 X42.143 Y164.286
G1 X44.524 Y161.905
G1 X42.143 Y159.524
G1 X44.524 Y157.143
G1 X42.143 Y154.762
G1 X44.524 Y152.381
G1 X46.905 Y154.762
G1 X49.286 Y152.381
G1 X51.667 Y154.762
G1 X54.048 Y152.381
G1 X56.429 Y154.762
G1 X54.048 Y157.143
G1 X56.429 Y159.524
G1 X54.048 Y161.905
G1 X56.429 Y164.286
G1 X54.048 Y166.667
G1 X51.667 Y164.286
G1 X49.286 Y166.667
G1 X46.905 Y164.286
G1 X44.524 Y166.667
G1 X46.905 Y169.048
G1 X44.524 Y171.429
G1 X46.905 Y173.810
G1 X49.286 Y171.429
G1 X51.667 Y173.810
G1 X54.048 Y171.429
G1 X56.429 Y173.810
G1 X54.048 Y176.190
G1 X56.429 Y178.571
G1 X54.048 Y180.952
G1 X56.429 Y183.333
G1 X54.048 Y185.714
G1 X51.667 Y183.333
G1 X49.286 Y185.714
G1 X46.905 Y183.333
G1 X44.524 Y185.714
G1 X42.143 Y183.333
G1 X44.524 Y180.952
G1 X42.143 Y178.571
G1 X44.524 Y176.190
G1 X42.143 Y173.810
G1 X39.762 Y176.190
G1 X37.381 Y173.810
G1 X35.000 Y176.190
G1 X37.381 Y178.571
G1 X35.000 Y180.952
G1 X37.381 Y183.333
G1 X35.000 Y185.714
G1 X32.619 Y183.333
G1 X30.238 Y185.714
G1 X27.857 Y183.333
G1 X25.476 Y185.714
G1 X27.857 Y188.095
G1 X25.476 Y190.476
G1 X27.857 Y192.857
G1 X30.238 Y190.476
G1 X32.619 Y192.857
G1 X35.000 Y190.476
G1 X37.381 Y192.857
G1 X35.000 Y195.238
G1 X37.381 Y197.619
G1 X35.000 Y200.000
G1 X37.381 Y202.381
G1 X39.762 Y200.000
G1 X42.143 Y202.381
G1 X44.524 Y200.000
G1 X42.143 Y197.619
G1 X44.524 Y195.238
G1 X42.143 Y192.857
G1 X44.524 Y190.476
G1 X46.905 Y192.857
G1 X49.286 Y190.476
G1 X51.667 Y192.857
G1 X54.048 Y190.476
G1 X56.429 Y192.857
G1 X54.048 Y195.238
G1 X56.429 Y197.619
G1 X54.048 Y200.000
G1 X56.429 Y202.381
G1 X54.048 Y204.762
G1 X51.667 Y202.381
G1 X49.286 Y204.762
G1 X46.905 Y202.381
G1 X44.524 Y204.762
G1 X46.905 Y207.143
G1 X44.524 Y209.524
G1 X46.905 Y211.905
G1 X49.286 Y209.524
G1 X51.667 Y211.905
G1 X54.048 Y209.524
G1 X56.429 Y211.905
G1 X54.048 Y214.286
G1 X56.429 Y216.667
G1 X54.048 Y219.048
G1 X56.429 Y221.429
G1 X58.810 Y219.048
G1 X61.190 Y221.429
G1 X63.571 Y219.048
G1 X61.190 Y216.667
G1 X63.571 Y214.286
G1 X61.190 Y211.905
G1 X63.571 Y209.524
G1 X65.952 Y211.905
G1 X68.333 Y209.524
G1 X70.714 Y211.905
G1 X73.095 Y209.524
G1 X70.714 Y207.143
G1 X73.095 Y204.762
G1 X70.714 Y202.381
G1 X68.333 Y204.762
G1 X65.952 Y202.381
G1 X63.571 Y204.762
G1 X61.190 Y202.381
G1 X63.571 Y200.000
G1 X61.190 Y197.619
G1 X63.571 Y195.238
G1 X61.190 Y192.857
G1 X63.571 Y190.476
G1 X65.952 Y192.857
G1 X68.333 Y190.476
G1 X70.714 Y192.857
G1 X73.095 Y190.476
G1 X75.476 Y192.857
G1 X73.095 Y195.238
G1 X75.476 Y197.619
G1 X73.095 Y200.000
G1 X75.476 Y202.381
G1 X77.857 Y200.000
G1 X80.238 Y202.381
G1 X82.619 Y200.000
G1 X80.238 Y197.619
G1 X82.619 Y195.238
G1 X80.238 Y192.857
G1 X82.619 Y190.476
G1 X85.000 Y192.857
G1 X87.381 Y190.476
G1 X89.762 Y192.857
G1 X92.143 Y190.476
G1 X89.762 Y188.095
G1 X92.143 Y185.714
G1 X89.762 Y183.333
G1 X87.381 Y185.714
G1 X85.000 Y183.333
G1 X82.619 Y185.714
G1 X80.238 Y183.333
G1 X82.619 Y180.952
G1 X80.238 Y178.571
G1 X82.619 Y176.190
G1 X80.238 Y173.810
G1 X77.857 Y176.190
G1 X75.476 Y173.810
G1 X73.095 Y176.190
G1 X75.476 Y178.571
G1 X73.095 Y180.952
G1 X75.476 Y183.333
G1 X73.095 Y185.714
G1 X70.714 Y183.333
G1 X68.333 Y185.714
G1 X65.952 Y183.333
G1 X63.571 Y185.714
G1 X61.190 Y183.333
G1 X63.571 Y180.952
G1 X61.190 Y178.571
G1 X63.571 Y176.190
G1 X61.190 Y173.810
G1 X63.571 Y171.429
G1 X65.952 Y173.810
G1 X68.333 Y171.429
G1 X70.714 Y173.810
G1 X73.095 Y171.429
G1 X70.714 Y169.048
G1 X73.095 Y166.667
G1 X70.714 Y164.286
G1 X68.333 Y166.667
G1 X65.952 Y164.286
G1 X63.571 Y166.667
G1 X61.190 Y164.286
G1 X63.571 Y161.905
G1 X61.190 Y159.524
G1 X63.571 Y157.143
G1 X61.190 Y154.762
G1 X63.571 Y152.381
G1 X65.952 Y154.762
G1 X68.333 Y152.381
G1 X70.714 Y154.762
G1 X73.095 Y152.381
G1 X75.476 Y154.762
G1 X73.095 Y157.143
G1 X75.476 Y159.524
G1 X73.095 Y161.905
G1 X75.476 Y164.286
G1 X77.857 Y161.905
G1 X80.238 Y164.286
G1 X82.619 Y161.905
G1 X80.238 Y159.524
G1 X82.619 Y157.143
G1 X80.238 Y154.762
G1 X82.619 Y152.381
G1 X85.000 Y154.762
G1 X87.381 Y152.381
G1 X89.762 Y154.762
G1 X92.143 Y152.381
G1 X94.524 Y154.762
G1 X92.143 Y157.143
G1 X94.524 Y159.524
G1 X92.143 Y161.905
G1 X94.524 Y164.286
G1 X92.143 Y166.667
G1 X89.762 Y164.286
G1 X87.381 Y166.667
G1 X85.000 Y164.286
G1 X82.619 Y166.667
G1 X85.000 Y169.048
G1 X82.619 Y171.429
G1 X85.000 Y173.810
G1 X87.381 Y171.429
G1 X89.762 Y173.810
G1 X92.143 Y171.429
G1 X94.524 Y173.810
G1 X92.143 Y176.190
G1 X94.524 Y178.571
G1 X92.143 Y180.952
G1 X94.524 Y183.333
G1 X96.905 Y180.952
G1 X99.286 Y183.333
G1 X101.667 Y180.952
G1 X99.286 Y178.571
G1 X101.667 Y176.190
G1 X99.286 Y173.810
G1 X101.667 Y171.429
G1 X104.048 Y173.810
G1 X106.429 Y171.429
G1 X108.810 Y173.810
G1 X111.190 Y171.429
G1 X108.810 Y169.048
G1 X111.190 Y166.667
G1 X108.810 Y164.286
G1 X106.429 Y166.667
G1 X104.048 Y164.286
G1 X101.667 Y166.667
G1 X99.286 Y164.286
G1 X101.667 Y161.905
G1 X99.286 Y159.524
G1 X101.667 Y157.143
G1 X99.286 Y154.762
G1 X101.667 Y152.381
G1 X104.048 Y154.762
G1 X106.429 Y152.381
G1 X108.810 Y154.762
G1 X111.190 Y152.381
G1 X113.571 Y154.762
G1 X111.190 Y157.143
G1 X113.571 Y159.524
G1 X111.190 Y161.905
G1 X113.571 Y164.286
G1 X115.952 Y161.905
G1 X118.333 Y164.286
G1 X120.714 Y161.905
G1 X118.333 Y159.524
G1 X120.714 Y157.143
G1 X118.333 Y154.762
G1 X120.714 Y152.381
G1 X123.095 Y154.762
G1 X125.476 Y152.381
G1 X127.857 Y154.762
G1 X130.238 Y152.381
G1 X127.857 Y150.000
G1 X130.238 Y147.619
G1 X127.857 Y145.238
G1 X125.476 Y147.619
G1 X123.095 Y145.238
G1 X120.714 Y147.619
G1 X118.333 Y145.238
G1 X120.714 Y142.857
G1 X118.333 Y140.476
G1 X120.714 Y138.095
G1 X118.333 Y135.714
G1 X115.952 Y138.095
G1 X113.571 Y135.714
G1 X111.190 Y138.095
G1 X113.571 Y140.476
G1 X111.190 Y142.857
G1 X113.571 Y145.238
G1 X111.190 Y147.619
G1 X108.810 Y145.238
G1 X106.429 Y147.619
G1 X104.048 Y145.238
G1 X101.667 Y147.619
G1 X99.286 Y145.238
G1 X101.667 Y142.857
G1 X99.286 Y140.476
G1 X101.667 Y138.095
G1 X99.286 Y135.714
G1 X101.667 Y133.333
G1 X104.048 Y135.714
G1 X106.429 Y133.333
G1 X108.810 Y135.714
G1 X111.190 Y133.333
G1 X108.810 Y130.952
G1 X111.190 Y128.571
G1 X108.810 Y126.190
G1 X106.429 Y128.571
G1 X104.048 Y126.190
G1 X101.667 Y128.571
G1 X99.286 Y126.190
G1 X101.667 Y123.810
G1 X99.286 Y121.429
G1 X101.667 Y119.048
G1 X99.286 Y116.667
G1 X96.905 Y119.048
G1 X94.524 Y116.667
G1 X92.143 Y119.048
G1 X94.524 Y121.429
G1 X92.143 Y123.810
G1 X94.524 Y126.190
G1 X92.143 Y128.571
G1 X89.762 Y126.190
G1 X87.381 Y128.571
G1 X85.000 Y126.190
G1 X82.619 Y128.571
G1 X85.000 Y130.952
G1 X82.619 Y133.333
G1 X85.000 Y135.714
G1 X87.381 Y133.333
G1 X89.762 Y135.714
G1 X92.143 Y133.333
G1 X94.524 Y135.714
G1 X92.143 Y138.095
G1 X94.524 Y140.476
G1 X92.143 Y142.857
G1 X94.524 Y145.238
G1 X92.143 Y147.619
G1 X89.762 Y145.238
G1 X87.381 Y147.619
G1 X85.000 Y145.238
G1 X82.619 Y147.619
G1 X80.238 Y145.238
G1 X82.619 Y142.857
G1 X80.238 Y140.476
G1 X82.619 Y138.095
G1 X80.238 Y135.714
G1 X77.857 Y138.095
G1 X75.476 Y135.714
G1 X73.095 Y138.095
G1 X75.476 Y140.476
G1 X73.095 Y142.857
G1 X75.476 Y145.238
G1 X73.095 Y147.619
G1 X70.714 Y145.238
G1 X68.333 Y147.619
G1 X65.952 Y145.238
G1 X63.571 Y147.619
G1 X61.190 Y145.238
G1 X63.571 Y142.857
G1 X61.190 Y140.476
G1 X63.571 Y138.095
G1 X61.190 Y135.714
G1 X63.571 Y133.333
G1 X65.952 Y135.714
G1 X68.333 Y133.333
G1 X70.714 Y135.714
G1 X73.095 Y133.333
G1 X70.714 Y130.952
G1 X73.095 Y128.571
G1 X70.714 Y126.190
G1 X68.333 Y128.571
G1 X65.952 Y126.190
G1 X63.571 Y128.571
G1 X61.190 Y126.190
G1 X63.571 Y123.810
G1 X61.190 Y121.429
G1 X63.571 Y119.048
G1 X61.190 Y116.667
G1 X63.571 Y114.286
G1 X65.952 Y116.667
G1 X68.333 Y114.286
G1 X70.714 Y116.667
G1 X73.095 Y114.286
G1 X75.476 Y116.667
G1 X73.095 Y119.048
G1 X75.476 Y121.429
G1 X73.095 Y123.810
G1 X75.476 Y126.190
G1 X77.857 Y123.810
G1 X80.238 Y126.190
G1 X82.619 Y123.810
G1 X80.238 Y121.429
G1 X82.619 Y119.048
G1 X80.238 Y116.667
G1 X82.619 Y114.286
G1 X85.000 Y116.667
G1 X87.381 Y114.286
G1 X89.762 Y116.667
G1 X92.143 Y114.286
G1 X89.762 Y111.905
G1 X92.143 Y109.524
G1 X89.762 Y107.143
G1 X87.381 Y109.524
G1 X85.000 Y107.143
G1 X82.619 Y109.524
G1 X80.238 Y107.143
G1 X82.619 Y104.762
G1 X80.238 Y102.381
G1 X82.619 Y100.000
G1 X80.238 Y97.619
G1 X77.857 Y100.000
G1 X75.476 Y97.619
G1 X73.095 Y100.000
G1 X75.476 Y102.381
G1 X73.095 Y104.762
G1 X75.476 Y107.143
G1 X73.095 Y109.524
G1 X70.714 Y107.143
G1 X68.333 Y109.524
G1 X65.952 Y107.143
G1 X63.571 Y109.524
G1 X61.190 Y107.143
G1 X63.571 Y104.762
G1 X61.190 Y102.381
G1 X63.571 Y100.000
G1 X61.190 Y97.619
G1 X63.571 Y95.238
G1 X65.952 Y97.619
G1 X68.333 Y95.238
G1 X70.714 Y97.619
G1 X73.095 Y95.238
G1 X70.714 Y92.857
G1 X73.095 Y90.476
G1 X70.714 Y88.095
G1 X68.333 Y90.476
G1 X65.952 Y88.095
G1 X63.571 Y90.476
G1 X61.190 Y88.095
G1 X63.571 Y85.714
G1 X61.190 Y83.333
G1 X63.571 Y80.952
G1 X61.190 Y78.571
G1 X58.810 Y80.952
G1 X56.429 Y78.571
G1 X54.048 Y80.952
G1 X56.429 Y83.333
G1 X54.048 Y85.714
G1 X56.429 Y88.095
G1 X54.048 Y90.476
G1 X51.667 Y88.095
G1 X49.286 Y90.476
G1 X46.905 Y88.095
G1 X44.524 Y90.476
G1 X46.905 Y92.857
G1 X44.524 Y95.238
G1 X46.905 Y97.619
G1 X49.286 Y95.238
G1 X51.667 Y97.619
G1 X54.048 Y95.238
G1 X56.429 Y97.619
G1 X54.048 Y100.000
G1 X56.429 Y102.381
G1 X54.048 Y104.762
G1 X56.429 Y107.143
G1 X54.048 Y109.524
G1 X51.667 Y107.143
G1 X49.286 Y109.524
G1 X46.905 Y107.143
G1 X44.524 Y109.524
G1 X42.143 Y107.143
G1 X44.524 Y104.762
G1 X42.143 Y102.381
G1 X44.524 Y100.000
G1 X42.143 Y97.619
G1 X39.762 Y100.000
G1 X37.381 Y97.619
G1 X35.000 Y100.000
G1 X37.381 Y102.381
G1 X35.000 Y104.762
G1 X37.381 Y107.143
G1 X35.000 Y109.524
G1 X32.619 Y107.143
G1 X30.238 Y109.524
G1 X27.857 Y107.143
G1 X25.476 Y109.524
G1 X27.857 Y111.905
G1 X25.476 Y114.286
G1 X27.857 Y116.667
G1 X30.238 Y114.286
G1 X32.619 Y116.667
G1 X35.000 Y114.286
G1 X37.381 Y116.667
G1 X35.000 Y119.048
G1 X37.381 Y121.429
G1 X35.000 Y123.810
G1 X37.381 Y126.190
G1 X39.762 Y123.810
G1 X42.143 Y126.190
G1 X44.524 Y123.810
G1 X42.143 Y121.429
G1 X44.524 Y119.048
G1 X42.143 Y116.667
G1 X44.524 Y114.286
G1 X46.905 Y116.667
G1 X49.286 Y114.286
G1 X51.667 Y116.667
G1 X54.048 Y114.286
G1 X56.429 Y116.667
G1 X54.048 Y119.048
G1 X56.429 Y121.429
G1 X54.048 Y123.810
G1 X56.429 Y126.190
G1 X54.048 Y128.571
G1 X51.667 Y126.190
G1 X49.286 Y128.571
G1 X46.905 Y126.190
G1 X44.524 Y128.571
G1 X46.905 Y130.952
G1 X44.524 Y133.333
G1 X46.905 Y135.714
G1 X49.286 Y133.333
G1 X51.667 Y135.714
G1 X54.048 Y133.333
G1 X56.429 Y135.714
G1 X54.048 Y138.095
G1 X56.429 Y140.476
G1 X54.048 Y142.857
G1 X56.429 Y145.238
G1 X54.048 Y147.619
G1 X51.667 Y145.238
G1 X49.286 Y147.619
G1 X46.905 Y145.238
G1 X44.524 Y147.619
G1 X42.143 Y145.238
G1 X44.524 Y142.857
G1 X42.143 Y140.476
G1 X44.524 Y138.095
G1 X42.143 Y135.714
G1 X39.762 Y138.095
G1 X37.381 Y135.714
G1 X35.000 Y138.095
G1 X37.381 Y140.476
G1 X35.000 Y142.857
G1 X37.381 Y145.238
G1 X35.000 Y147.619
G1 X32.619 Y145.238
G1 X30.238 Y147.619
G1 X27.857 Y145.238
G1 X25.476 Y147.619
G1 X23.095 Y145.238
G1 X25.476 Y142.857
G1 X23.095 Y140.476
G1 X25.476 Y138.095
G1 X23.095 Y135.714
G1 X25.476 Y133.333
G1 X27.857 Y135.714
G1 X30.238 Y133.333
G1 X32.619 Y135.714
G1 X35.000 Y133.333
G1 X32.619 Y130.952
G1 X35.000 Y128.571
G1 X32.619 Y126.190
G1 X30.238 Y128.571
G1 X27.857 Y126.190
G1 X25.476 Y128.571
G1 X23.095 Y126.190
G1 X25.476 Y123.810
G1 X23.095 Y121.429
G1 X25.476 Y119.048
G1 X23.095 Y116.667
G1 X20.714 Y119.048
G1 X18.333 Y116.667
G1 X15.952 Y119.048
G1 X18.333 Y121.429
G1 X15.952 Y123.810
G1 X18.333 Y126.190
G1 X15.952 Y128.571
G1 X13.571 Y126.190
G1 X11.190 Y128.571
G1 X8.810 Y126.190
G1 X6.429 Y128.571
G1 X8.810 Y130.952
G1 X6.429 Y133.333
G1 X8.810 Y135.714
G1 X11.190 Y133.333
G1 X13.571 Y135.714
G1 X15.952 Y133.333
G1 X18.333 Y135.714
G1 X15.952 Y138.095
G1 X18.333 Y140.476
G1 X15.952 Y142.857
G1 X18.333 Y145.238
G1 X15.952 Y147.619
G1 X13.571 Y145.238
G1 X11.190 Y147.619
G1 X8.810 Y145.238
G1 X6.429 Y147.619
G1 X4.048 Y145.238
G1 X6.429 Y142.857
G1 X4.048 Y140.476
G1 X6.429 Y138.095
G1 X4.048 Y135.714
G1 X1.667 Y138.095
G1 X0.000 Y136.429
G1 X0.000 Y125.476
G1 X1.667 Y123.810
G1 X4.048 Y126.190
G1 X6.429 Y123.810
G1 X4.048 Y121.429
G1 X6.429 Y119.048
G1 X4.048 Y116.667
G1 X6.429 Y114.286
G1 X8.810 Y116.667
G1 X11.190 Y114.286
G1 X13.571 Y116.667
G1 X15.952 Y114.286
G1 X13.571 Y111.905
G1 X15.952 Y109.524
G1 X13.571 Y107.143
G1 X11.190 Y109.524
G1 X8.810 Y107.143
G1 X6.429 Y109.524
G1 X4.048 Y107.143
G1 X6.429 Y104.762
G1 X4.048 Y102.381
G1 X6.429 Y100.000
G1 X4.048 Y97.619
G1 X1.667 Y100.000
G1 X0.000 Y98.333
G1 X0.000 Y87.381
G1 X1.667 Y85.714
G1 X4.048 Y88.095
G1 X6.429 Y85.714
G1 X4.048 Y83.333
G1 X6.429 Y80.952
G1 X4.048 Y78.571
G1 X6.429 Y76.190
G1 X8.810 Y78.571
G1 X11.190 Y76.190
G1 X13.571 Y78.571
G1 X15.952 Y76.190
G1 X18.333 Y78.571
G1 X15.952 Y80.952
G1 X18.333 Y83.333
G1 X15.952 Y85.714
G1 X18.333 Y88.095
G1 X15.952 Y90.476
G1 X13.571 Y88.095
G1 X11.190 Y90.476
G1 X8.810 Y88.095
G1 X6.429 Y90.476
G1 X8.810 Y92.857
G1 X6.429 Y95.238
G1 X8.810 Y97.619
G1 X11.190 Y95.238
G1 X13.571 Y97.619
G1 X15.952 Y95.238
G1 X18.333 Y97.619
G1 X15.952 Y100.000
G1 X18.333 Y102.381
G1 X15.952 Y104.762
G1 X18.333 Y107.143
G1 X20.714 Y104.762
G1 X23.095 Y107.143
G1 X25.476 Y104.762
G1 X23.095 Y102.381
G1 X25.476 Y100.000
G1 X23.095 Y97.619
G1 X25.476 Y95.238
G1 X27.857 Y97.619
G1 X30.238 Y95.238
G1 X32.619 Y97.619
G1 X35.000 Y95.238
G1 X32.619 Y92.857
G1 X35.000 Y90.476
G1 X32.619 Y88.095
G1 X30.238 Y90.476
G1 X27.857 Y88.095
G1 X25.476 Y90.476
G1 X23.095 Y88.095
G1 X25.476 Y85.714
G1 X23.095 Y83.333
G1 X25.476 Y80.952
G1 X23.095 Y78.571
G1 X25.476 Y76.190
G1 X27.857 Y78.571
G1 X30.238 Y76.190
G1 X32.619 Y78.571
G1 X35.000 Y76.190
G1 X37.381 Y78.571
G1 X35.000 Y80.952
G1 X37.381 Y83.333
G1 X35.000 Y85.714
G1 X37.381 Y88.095
G1 X39.762 Y85.714
G1 X42.143 Y88.095
G1 X44.524 Y85.714
G1 X42.143 Y83.333
G1 X44.524 Y80.952
G1 X42.143 Y78.571
G1 X44.524 Y76.190
G1 X46.905 Y78.571
G1 X49.286 Y76.190
G1 X51.667 Y78.571
G1 X54.048 Y76.190
G1 X51.667 Y73.810
G1 X54.048 Y71.429
G1 X51.667 Y69.048
G1 X49.286 Y71.429
G1 X46.905 Y69.048
G1 X44.524 Y71.429
G1 X42.143 Y69.048
G1 X44.524 Y66.667
G1 X42.143 Y64.286
G1 X44.524 Y61.905
G1 X42.143 Y59.524
G1 X39.762 Y61.905
G1 X37.381 Y59.524
G1 X35.000 Y61.905
G1 X37.381 Y64.286
G1 X35.000 Y66.667
G1 X37.381 Y69.048
G1 X35.000 Y71.429
G1 X32.619 Y69.048
G1 X30.238 Y71.429
G1 X27.857 Y69.048
G1 X25.476 Y71.429
G1 X23.095 Y69.048
G1 X25.476 Y66.667
G1 X23.095 Y64.286
G1 X25.476 Y61.905
G1 X23.095 Y59.524
G1 X25.476 Y57.143
G1 X27.857 Y59.524
G1 X30.238 Y57.143
G1 X32.619 Y59.524
G1 X35.000 Y57.143
G1 X32.619 Y54.762
G1 X35.000 Y52.381
G1 X32.619 Y50.000
G1 X30.238 Y52.381
G1 X27.857 Y50.000
G1 X25.476 Y52.381
G1 X23.095 Y50.000
G1 X25.476 Y47.619
G1 X23.095 Y45.238
G1 X25.476 Y42.857
G1 X23.095 Y40.476
G1 X20.714 Y42.857
G1 X18.333 Y40.476
G1 X15.952 Y42.857
G1 X18.333 Y45.238
G1 X15.952 Y47.619
G1 X18.333 Y50.000
G1 X15.952 Y52.381
G1 X13.571 Y50.000
G1 X11.190 Y52.381
G1 X8.810 Y50.000
G1 X6.429 Y52.381
G1 X8.810 Y54.762
G1 X6.429 Y57.143
G1 X8.810 Y59.524
G1 X11.190 Y57.143
G1 X13.571 Y59.524
G1 X15.952 Y57.143
G1 X18.333 Y59.524
G1 X15.952 Y61.905
G1 X18.333 Y64.286
G1 X15.952 Y66.667
G1 X18.333 Y69.048
G1 X15.952 Y71.429
G1 X13.571 Y69.048
G1 X11.190 Y71.429
G1 X8.810 Y69.048
G1 X6.429 Y71.429
G1 X4.048 Y69.048
G1 X6.429 Y66.667
G1 X4.048 Y64.286
G1 X6.429 Y61.905
G1 X4.048 Y59.524
G1 X1.667 Y61.905
G1 X0.000 Y60.238
G1 X0.000 Y49.286
G1 X1.667 Y47.619
G1 X4.048 Y50.000
G1 X6.429 Y47.619
G1 X4.048 Y45.238
G1 X6.429 Y42.857
G1 X4.048 Y40.476
G1 X6.429 Y38.095
G1 X8.810 Y40.476
G1 X11.190 Y38.095
G1 X13.571 Y40.476
G1 X15.952 Y38.095
G1 X13.571 Y35.714
G1 X15.952 Y33.333
G1 X13.571 Y30.952
G1 X11.190 Y33.333
G1 X8.810 Y30.952
G1 X6.429 Y33.333
G1 X4.048 Y30.952
G1 X6.429 Y28.571
G1 X4.048 Y26.190
G1 X6.429 Y23.810
G1 X4.048 Y21.429
G1 X1.667 Y23.810
G1 X0.000 Y22.143
G1 X0.000 Y11.190
G1 X1.667 Y9.524
G1 X4.048 Y11.905
G1 X6.429 Y9.524
G1 X4.048 Y7.143
G1 X6.429 Y4.762
G1 X4.048 Y2.381
G1 X6.429 Y0.000
G1 X8.810 Y2.381
G1 X11.190 Y0.000
G1 X13.571 Y2.381
G1 X15.952 Y0.000
G1 X18.333 Y2.381
G1 X15.952 Y4.762
G1 X18.333 Y7.143
G1 X15.952 Y9.524
G1 X18.333 Y11.905
G1 X15.952 Y14.286
G1 X13.571 Y11.905
G1 X11.190 Y14.286
G1 X8.810 Y11.905
G1 X6.429 Y14.286
G1 X8.810 Y16.667
G1 X6.429 Y19.048
G1 X8.810 Y21.429
G1 X11.190 Y19.048
G1 X13.571 Y21.429
G1 X15.952 Y19.048
G1 X18.333 Y21.429
G1 X15.952 Y23.810
G1 X18.333 Y26.190
G1 X15.952 Y28.571
G1 X18.333 Y30.952
G1 X20.714 Y28.571
G1 X23.095 Y30.952
G1 X25.476 Y28.571
G1 X23.095 Y26.190
G1 X25.476 Y23.810
G1 X23.095 Y21.429
G1 X25.476 Y19.048
G1 X27.857 Y21.429
G1 X30.238 Y19.048
G1 X32.619 Y21.429
G1 X35.000 Y19.048
G1 X32.619 Y16.667
G1 X35.000 Y14.286
G1 X32.619 Y11.905
G1 X30.238 Y14.286
G1 X27.857 Y11.905
G1 X25.476 Y14.286
G1 X23.095 Y11.905
G1 X25.476 Y9.524
G1 X23.095 Y7.143
G1 X25.476 Y4.762
G1 X23.095 Y2.381
G1 X25.476 Y0.000
G1 X27.857 Y2.381
G1 X30.238 Y0.000
G1 X32.619 Y2.381
G1 X35.000 Y0.000
G1 X37.381 Y2.381
G1 X35.000 Y4.762
G1 X37.381 Y7.143
G1 X35.000 Y9.524
G1 X37.381 Y11.905
G1 X39.762 Y9.524
G1 X42.143 Y11.905
G1 X44.524 Y9.524
G1 X42.143 Y7.143
G1 X44.524 Y4.762
G1 X42.143 Y2.381
G1 X44.524 Y0.000
G1 X46.905 Y2.381
G1 X49.286 Y0.000
G1 X51.667 Y2.381
G1 X54.048 Y0.000
G1 X56.429 Y2.381
G1 X54.048 Y4.762
G1 X56.429 Y7.143
G1 X54.048 Y9.524
G1 X56.429 Y11.905
G1 X54.048 Y14.286
G1 X51.667 Y11.905
G1 X49.286 Y14.286
G1 X46.905 Y11.905
G1 X44.524 Y14.286
G1 X46.905 Y16.667
G1 X44.524 Y19.048
G1 X46.905 Y21.429
G1 X49.286 Y19.048
G1 X51.667 Y21.429
G1 X54.048 Y19.048
G1 X56.429 Y21.429
G1 X54.048 Y23.810
G1 X56.429 Y26.190
G1 X54.048 Y28.571
G1 X56.429 Y30.952
G1 X54.048 Y33.333
G1 X51.667 Y30.952
G1 X49.286 Y33.333
G1 X46.905 Y30.952
G1 X44.524 Y33.333
G1 X42.143 Y30.952
G1 X44.524 Y28.571
G1 X42.143 Y26.190
G1 X44.524 Y23.810
G1 X42.143 Y21.429
G1 X39.762 Y23.810
G1 X37.381 Y21.429
G1 X35.000 Y23.810
G1 X37.381 Y26.190
G1 X35.000 Y28.571
G1 X37.381 Y30.952
G1 X35.000 Y33.333
G1 X32.619 Y30.952
G1 X30.238 Y33.333
G1 X27.857 Y30.952
G1 X25.476 Y33.333
G1 X27.857 Y35.714
G1 X25.476 Y38.095
G1 X27.857 Y40.476
G1 X30.238 Y38.095
G1 X32.619 Y40.476
G1 X35.000 Y38.095
G1 X37.381 Y40.476
G1 X35.000 Y42.857
G1 X37.381 Y45.238
G1 X35.000 Y47.619
G1 X37.381 Y50.000
G1 X39.762 Y47.619
G1 X42.143 Y50.000
G1 X44.524 Y47.619
G1 X42.143 Y45.238
G1 X44.524 Y42.857
G1 X42.143 Y40.476
G1 X44.524 Y38.095
G1 X46.905 Y40.476
G1 X49.286 Y38.095
G1 X51.667 Y40.476
G1 X54.048 Y38.095
G1 X56.429 Y40.476
G1 X54.048 Y42.857
G1 X56.429 Y45.238
G1 X54.048 Y47.619
G1 X56.429 Y50.000
G1 X54.048 Y52.381
G1 X51.667 Y50.000
G1 X49.286 Y52.381
G1 X46.905 Y50.000
G1 X44.524 Y52.381
G1 X46.905 Y54.762
G1 X44.524 Y57.143
G1 X46.905 Y59.524
G1 X49.286 Y57.143
G1 X51.667 Y59.524
G1 X54.048 Y57.143
G1 X56.429 Y59.524
G1 X54.048 Y61.905
G1 X56.429 Y64.286
G1 X54.048 Y66.667
G1 X56.429 Y69.048
G1 X58.810 Y66.667
G1 X61.190 Y69.048
G1 X63.571 Y66.667
G1 X61.190 Y64.286
G1 X63.571 Y61.905
G1 X61.190 Y59.524
G1 X63.571 Y57.143
G1 X65.952 Y59.524
G1 X68.333 Y57.143
G1 X70.714 Y59.524
G1 X73.095 Y57.143
G1 X70.714 Y54.762
G1 X73.095 Y52.381
G1 X70.714 Y50.000
G1 X68.333 Y52.381
G1 X65.952 Y50.000
G1 X63.571 Y52.381
G1 X61.190 Y50.000
G1 X63.571 Y47.619
G1 X61.190 Y45.238
G1 X63.571 Y42.857
G1 X61.190 Y40.476
G1 X63.571 Y38.095
G1 X65.952 Y40.476
G1 X68.333 Y38.095
G1 X70.714 Y40.476
G1 X73.095 Y38.095
G1 X75.476 Y40.476
G1 X73.095 Y42.857
G1 X75.476 Y45.238
G1 X73.095 Y47.619
G1 X75.476 Y50.000
G1 X77.857 Y47.619
G1 X80.238 Y50.000
G1 X82.619 Y47.619
G1 X80.238 Y45.238
G1 X82.619 Y42.857
G1 X80.238 Y40.476
G1 X82.619 Y38.095
G1 X85.000 Y40.476
G1 X87.381 Y38.095
G1 X89.762 Y40.476
G1 X92.143 Y38.095
G1 X89.762 Y35.714
G1 X92.143 Y33.333
G1 X89.762 Y30.952
G1 X87.381 Y33.333
G1 X85.000 Y30.952
G1 X82.619 Y33.333
G1 X80.238 Y30.952
G1 X82.619 Y28.571
G1 X80.238 Y26.190
G1 X82.619 Y23.810
G1 X80.238 Y21.429
G1 X77.857 Y23.810
G1 X75.476 Y21.429
G1 X73.095 Y23.810
G1 X75.476 Y26.190
G1 X73.095 Y28.571
G1 X75.476 Y30.952
G1 X73.095 Y33.333
G1 X70.714 Y30.952
G1 X68.333 Y33.333
G1 X65.952 Y30.952
G1 X63.571 Y33.333
G1 X61.190 Y30.952
G1 X63.571 Y28.571
G1 X61.190 Y26.190
G1 X63.571 Y23.810
G1 X61.190 Y21.429
G1 X63.571 Y19.048
G1 X65.952 Y21.429
G1 X68.333 Y19.048
G1 X70.714 Y21.429
G1 X73.095 Y19.048
G1 X70.714 Y16.667
G1 X73.095 Y14.286
G1 X70.714 Y11.905
G1 X68.333 Y14.286
G1 X65.952 Y11.905
G1 X63.571 Y14.286
G1 X61.190 Y11.905
G1 X63.571 Y9.524
G1 X61.190 Y7.143
G1 X63.571 Y4.762
G1 X61.190 Y2.381
G1 X63.571 Y0.000
G1 X65.952 Y2.381
G1 X68.333 Y0.000
G1 X70.714 Y2.381
G1 X73.095 Y0.000
G1 X75.476 Y2.381
G1 X73.095 Y4.762
G1 X75.476 Y7.143
G1 X73.095 Y9.524
G1 X75.476 Y11.905
G1 X77.857 Y9.524
G1 X80.238 Y11.905
G1 X82.619 Y9.524
G1 X80.238 Y7.143
G1 X82.619 Y4.762
G1 X80.238 Y2.381
G1 X82.619 Y0.000
G1 X85.000 Y2.381
G1 X87.381 Y0.000
G1 X89.762 Y2.381
G1 X92.143 Y0.000
G1 X94.524 Y2.381
G1 X92.143 Y4.762
G1 X94.524 Y7.143
G1 X92.143 Y9.524
G1 X94.524 Y11.905
G1 X92.143 Y14.286
G1 X89.762 Y11.905
G1 X87.381 Y14.286
G1 X85.000 Y11.905
G1 X82.619 Y14.286
G1 X85.000 Y16.667
G1 X82.619 Y19.048
G1 X85.000 Y21.429
G1 X87.381 Y19.048
G1 X89.762 Y21.429
G1 X92.143 Y19.048
G1 X94.524 Y21.429
G1 X92.143 Y23.810
G1 X94.524 Y26.190
G1 X92.143 Y28.571
G1 X94.524 Y30.952
G1 X96.905 Y28.571
G1 X99.286 Y30.952
G1 X101.667 Y28.571
G1 X99.286 Y26.190
G1 X101.667 Y23.810
G1 X99.286 Y21.429
G1 X101.667 Y19.048
G1 X104.048 Y21.429
G1 X106.429 Y19.048
G1 X108.810 Y21.429
G1 X111.190 Y19.048
G1 X108.810 Y16.667
G1 X111.190 Y14.286
G1 X108.810 Y11.905
G1 X106.429 Y14.286
G1 X104.048 Y11.905
G1 X101.667 Y14.286
G1 X99.286 Y11.905
G1 X101.667 Y9.524
G1 X99.286 Y7.143
G1 X101.667 Y4.762
G1 X99.286 Y2.381
G1 X101.667 Y0.000
G1 X104.048 Y2.381
G1 X106.429 Y0.000
G1 X108.810 Y2.381
G1 X111.190 Y0.000
G1 X113.571 Y2.381
G1 X111.190 Y4.762
G1 X113.571 Y7.143
G1 X111.190 Y9.524
G1 X113.571 Y11.905
G1 X115.952 Y9.524
G1 X118.333 Y11.905
G1 X120.714 Y9.524
G1 X118.333 Y7.143
G1 X120.714 Y4.762
G1 X118.333 Y2.381
G1 X120.714 Y0.000
G1 X123.095 Y2.381
G1 X125.476 Y0.000
G1 X127.857 Y2.381
G1 X130.238 Y0.000
G1 X132.619 Y2.381
G1 X130.238 Y4.762
G1 X132.619 Y7.143
G1 X130.238 Y9.524
G1 X132.619 Y11.905
G1 X130.238 Y14.286
G1 X127.857 Y11.905
G1 X125.476 Y14.286
G1 X123.095 Y11.905
G1 X120.714 Y14.286
G1 X123.095 Y16.667
G1 X120.714 Y19.048
G1 X123.095 Y21.429
G1 X125.476 Y19.048
G1 X127.857 Y21.429
G1 X130.238 Y19.048
G1 X132.619 Y21.429
G1 X130.238 Y23.810
G1 X132.619 Y26.190
G1 X130.238 Y28.571
G1 X132.619 Y30.952
G1 X130.238 Y33.333
G1 X127.857 Y30.952
G1 X125.476 Y33.333
G1 X123.095 Y30.952
G1 X120.714 Y33.333
G1 X118.333 Y30.952
G1 X120.714 Y28.571
G1 X118.333 Y26.190
G1 X120.714 Y23.810
G1 X118.333 Y21.429
G1 X115.952 Y23.810
G1 X113.571 Y21.429
G1 X111.190 Y23.810
G1 X113.571 Y26.190
G1 X111.190 Y28.571
G1 X113.571 Y30.952
G1 X111.190 Y33.333
G1 X108.810 Y30.952
G1 X106.429 Y33.333
G1 X104.048 Y30.952
G1 X101.667 Y33.333
G1 X104.048 Y35.714
G1 X101.667 Y38.095
G1 X104.048 Y40.476
G1 X106.429 Y38.095
G1 X108.810 Y40.476
G1 X111.190 Y38.095
G1 X113.571 Y40.476
G1 X111.190 Y42.857
G1 X113.571 Y45.238
G1 X111.190 Y47.619
G1 X113.571 Y50.000
G1 X115.952 Y47.619
G1 X118.333 Y50.000
G1 X120.714 Y47.619
G1 X118.333 Y45.238
G1 X120.714 Y42.857
G1 X118.333 Y40.476
G1 X120.714 Y38.095
G1 X123.095 Y40.476
G1 X125.476 Y38.095
G1 X127.857 Y40.476
G1 X130.238 Y38.095
G1 X132.619 Y40.476
G1 X130.238 Y42.857
G1 X132.619 Y45.238
G1 X130.238 Y47.619
G1 X132.619 Y50.000
G1 X130.238 Y52.381
G1 X127.857 Y50.000
G1 X125.476 Y52.381
G1 X123.095 Y50.000
G1 X120.714 Y52.381
G1 X123.095 Y54.762
G1 X120.714 Y57.143
G1 X123.095 Y59.524
G1 X125.476 Y57.143
G1 X127.857 Y59.524
G1 X130.238 Y57.143
G1 X132.619 Y59.524
G1 X130.238 Y61.905
G1 X132.619 Y64.286
G1 X130.238 Y66.667
G1 X132.619 Y69.048
G1 X130.238 Y71.429
G1 X127.857 Y69.048
G1 X125.476 Y71.429
G1 X123.095 Y69.048
G1 X120.714 Y71.429
G1 X118.333 Y69.048
G1 X120.714 Y66.667
G1 X118.333 Y64.286
G1 X120.714 Y61.905
G1 X118.333 Y59.524
G1 X115.952 Y61.905
G1 X113.571 Y59.524
G1 X111.190 Y61.905
G1 X113.571 Y64.286
G1 X111.190 Y66.667
G1 X113.571 Y69.048
G1 X111.190 Y71.429
G1 X108.810 Y69.048
G1 X106.429 Y71.429
G1 X104.048 Y69.048
G1 X101.667 Y71.429
G1 X99.286 Y69.048
G1 X101.667 Y66.667
G1 X99.286 Y64.286
G1 X101.667 Y61.905
G1 X99.286 Y59.524
G1 X101.667 Y57.143
G1 X104.048 Y59.524
G1 X106.429 Y57.143
G1 X108.810 Y59.524
G1 X111.190 Y57.143
G1 X108.810 Y54.762
G1 X111.190 Y52.381
G1 X108.810 Y50.000
G1 X106.429 Y52.381
G1 X104.048 Y50.000
G1 X101.667 Y52.381
G1 X99.286 Y50.000
G1 X101.667 Y47.619
G1 X99.286 Y45.238
G1 X101.667 Y42.857
G1 X99.286 Y40.476
G1 X96.905 Y42.857
G1 X94.524 Y40.476
G1 X92.143 Y42.857
G1 X94.524 Y45.238
G1 X92.143 Y47.619
G1 X94.524 Y50.000
G1 X92.143 Y52.381
G1 X89.762 Y50.000
G1 X87.381 Y52.381
G1 X85.000 Y50.000
G1 X82.619 Y52.381
G1 X85.000 Y54.762
G1 X82.619 Y57.143
G1 X85.000 Y59.524
G1 X87.381 Y57.143
G1 X89.762 Y59.524
G1 X92.143 Y57.143
G1 X94.524 Y59.524
G1 X92.143 Y61.905
G1 X94.524 Y64.286
G1 X92.143 Y66.667
G1 X94.524 Y69.048
G1 X92.143 Y71.429
G1 X89.762 Y69.048
G1 X87.381 Y71.429
G1 X85.000 Y69.048
G1 X82.619 Y71.429
G1 X80.238 Y69.048
G1 X82.619 Y66.667
G1 X80.238 Y64.286
G1 X82.619 Y61.905
G1 X80.238 Y59.524
G1 X77.857 Y61.905
G1 X75.476 Y59.524
G1 X73.095 Y61.905
G1 X75.476 Y64.286
G1 X73.095 Y66.667
G1 X75.476 Y69.048
G1 X73.095 Y71.429
G1 X70.714 Y69.048
G1 X68.333 Y71.429
G1 X65.952 Y69.048
G1 X63.571 Y71.429
G1 X65.952 Y73.810
G1 X63.571 Y76.190
G1 X65.952 Y78.571
G1 X68.333 Y76.190
G1 X70.714 Y78.571
G1 X73.095 Y76.190
G1 X75.476 Y78.571
G1 X73.095 Y80.952
G1 X75.476 Y83.333
G1 X73.095 Y85.714
G1 X75.476 Y88.095
G1 X77.857 Y85.714
G1 X80.238 Y88.095
G1 X82.619 Y85.714
G1 X80.238 Y83.333
G1 X82.619 Y80.952
G1 X80.238 Y78.571
G1 X82.619 Y76.190
G1 X85.000 Y78.571
G1 X87.381 Y76.190
G1 X89.762 Y78.571
G1 X92.143 Y76.190
G1 X94.524 Y78.571
G1 X92.143 Y80.952
G1 X94.524 Y83.333
G1 X92.143 Y85.714
G1 X94.524 Y88.095
G1 X92.143 Y90.476
G1 X89.762 Y88.095
G1 X87.381 Y90.476
G1 X85.000 Y88.095
G1 X82.619 Y90.476
G1 X85.000 Y92.857
G1 X82.619 Y95.238
G1 X85.000 Y97.619
G1 X87.381 Y95.238
G1 X89.762 Y97.619
G1 X92.143 Y95.238
G1 X94.524 Y97.619
G1 X92.143 Y100.000
G1 X94.524 Y102.381
G1 X92.143 Y104.762
G1 X94.524 Y107.143
G1 X96.905 Y104.762
G1 X99.286 Y107.143
G1 X101.667 Y104.762
G1 X99.286 Y102.381
G1 X101.667 Y100.000
G1 X99.286 Y97.619
G1 X101.667 Y95.238
G1 X104.048 Y97.619
G1 X106.429 Y95.238
G1 X108.810 Y97.619
G1 X111.190 Y95.238
G1 X108.810 Y92.857
G1 X111.190 Y90.476
G1 X108.810 Y88.095
G1 X106.429 Y90.476
G1 X104.048 Y88.095
G1 X101.667 Y90.476
G1 X99.286 Y88.095
G1 X101.667 Y85.714
G1 X99.286 Y83.333
G1 X101.667 Y80.952
G1 X99.286 Y78.571
G1 X101.667 Y76.190
G1 X104.048 Y78.571
G1 X106.429 Y76.190
G1 X108.810 Y78.571
G1 X111.190 Y76.190
G1 X113.571 Y78.571
G1 X111.190 Y80.952
G1 X113.571 Y83.333
G1 X111.190 Y85.714
G1 X113.571 Y88.095
G1 X115.952 Y85.714
G1 X118.333 Y88.095
G1 X120.714 Y85.714
G1 X118.333 Y83.333
G1 X120.714 Y80.952
G1 X118.333 Y78.571
G1 X120.714 Y76.190
G1 X123.095 Y78.571
G1 X125.476 Y76.190
G1 X127.857 Y78.571
G1 X130.238 Y76.190
G1 X132.619 Y78.571
G1 X130.238 Y80.952
G1 X132.619 Y83.333
G1 X130.238 Y85.714
G1 X132.619 Y88.095
G1 X130.238 Y90.476
G1 X127.857 Y88.095
G1 X125.476 Y90.476
G1 X123.095 Y88.095
G1 X120.714 Y90.476
G1 X123.095 Y92.857
G1 X120.714 Y95.238
G1 X123.095 Y97.619
G1 X125.476 Y95.238
G1 X127.857 Y97.619
G1 X130.238 Y95.238
G1 X132.619 Y97.619
G1 X130.238 Y100.000
G1 X132.619 Y102.381
G1 X130.238 Y104.762
G1 X132.619 Y107.143
G1 X130.238 Y109.524
G1 X127.857 Y107.143
G1 X125.476 Y109.524
G1 X123.095 Y107.143
G1 X120.714 Y109.524
G1 X118.333 Y107.143
G1 X120.714 Y104.762
G1 X118.333 Y102.381
G1 X120.714 Y100.000
G1 X118.333 Y97.619
G1 X115.952 Y100.000
G1 X113.571 Y97.619
G1 X111.190 Y100.000
G1 X113.571 Y102.381
G1 X111.190 Y104.762
G1 X113.571 Y107.143
G1 X111.190 Y109.524
G1 X108.810 Y107.143
G1 X106.429 Y109.524
G1 X104.048 Y107.143
G1 X101.667 Y109.524
G1 X104.048 Y111.905
G1 X101.667 Y114.286
G1 X104.048 Y116.667
G1 X106.429 Y114.286
G1 X108.810 Y116.667
G1 X111.190 Y114.286
G1 X113.571 Y116.667
G1 X111.190 Y119.048
G1 X113.571 Y121.429
G1 X111.190 Y123.810
G1 X113.571 Y126.190
G1 X115.952 Y123.810
G1 X118.333 Y126.190
G1 X120.714 Y123.810
G1 X118.333 Y121.429
G1 X120.714 Y119.048
G1 X118.333 Y116.667
G1 X120.714 Y114.286
G1 X123.095 Y116.667
G1 X125.476 Y114.286
G1 X127.857 Y116.667
G1 X130.238 Y114.286
G1 X132.619 Y116.667
G1 X130.238 Y119.048
G1 X132.619 Y121.429
G1 X130.238 Y123.810
G1 X132.619 Y126.190
G1 X130.238 Y128.571
G1 X127.857 Y126.190
G1 X125.476 Y128.571
G1 X123.095 Y126.190
G1 X120.714 Y128.571
G1 X123.095 Y130.952
G1 X120.714 Y133.333
G1 X123.095 Y135.714
G1 X125.476 Y133.333
G1 X127.857 Y135.714
G1 X130.238 Y133.333
G1 X132.619 Y135.714
G1 X130.238 Y138.095
G1 X132.619 Y140.476
G1 X130.238 Y142.857
G1 X132.619 Y145.238
G1 X135.000 Y142.857
G1 X137.381 Y145.238
G1 X139.762 Y142.857
G1 X137.381 Y140.476
G1 X139.762 Y138.095
G1 X137.381 Y135.714
G1 X139.762 Y133.333
G1 X142.143 Y135.714
G1 X144.524 Y133.333
G1 X146.905 Y135.714
G1 X149.286 Y133.333
G1 X146.905 Y130.952
G1 X149.286 Y128.571
G1 X146.905 Y126.190
G1 X144.524 Y128.571
G1 X142.143 Y126.190
G1 X139.762 Y128.571
G1 X137.381 Y126.190
G1 X139.762 Y123.810
G1 X137.381 Y121.429
G1 X139.762 Y119.048
G1 X137.381 Y116.667
G1 X139.762 Y114.286
G1 X142.143 Y116.667
G1 X144.524 Y114.286
G1 X146.905 Y116.667
G1 X149.286 Y114.286
G1 X151.667 Y116.667
G1 X149.286 Y119.048
G1 X151.667 Y121.429
G1 X149.286 Y123.810
G1 X151.667 Y126.190
G1 X154.048 Y123.810
G1 X156.429 Y126.190
G1 X158.810 Y123.810
G1 X156.429 Y121.429
G1 X158.810 Y119.048
G1 X156.429 Y116.667
G1 X158.810 Y114.286
G1 X161.190 Y116.667
G1 X163.571 Y114.286
G1 X165.952 Y116.667
G1 X168.333 Y114.286
G1 X165.952 Y111.905
G1 X168.333 Y109.524
G1 X165.952 Y107.143
G1 X163.571 Y109.524
G1 X161.190 Y107.143
G1 X158.810 Y109.524
G1 X156.429 Y107.143
G1 X158.810 Y104.762
G1 X156.429 Y102.381
G1 X158.810 Y100.000
G1 X156.429 Y97.619
G1 X154.048 Y100.000
G1 X151.667 Y97.619
G1 X149.286 Y100.000
G1 X151.667 Y102.381
G1 X149.286 Y104.762
G1 X151.667 Y107.143
G1 X149.286 Y109.524
G1 X146.905 Y107.143
G1 X144.524 Y109.524
G1 X142.143 Y107.143
G1 X139.762 Y109.524
G1 X137.381 Y107.143
G1 X139.762 Y104.762
G1 X137.381 Y102.381
G1 X139.762 Y100.000
G1 X137.381 Y97.619
G1 X139.762 Y95.238
G1 X142.143 Y97.619
G1 X144.524 Y95.238
G1 X146.905 Y97.619
G1 X149.286 Y95.238
G1 X146.905 Y92.857
G1 X149.286 Y90.476
G1 X146.905 Y88.095
G1 X144.524 Y90.476
G1 X142.143 Y88.095
G1 X139.762 Y90.476
G1 X137.381 Y88.095
G1 X139.762 Y85.714
G1 X137.381 Y83.333
G1 X139.762 Y80.952
G1 X137.381 Y78.571
G1 X139.762 Y76.190
G1 X142.143 Y78.571
G1 X144.524 Y76.190
G1 X146.905 Y78.571
G1 X149.286 Y76.190
G1 X151.667 Y78.571
G1 X149.286 Y80.952
G1 X151.667 Y83.333
G1 X149.286 Y85.714
G1 X151.667 Y88.095
G1 X154.048 Y85.714
G1 X156.429 Y88.095
G1 X158.810 Y85.714
G1 X156.429 Y83.333
G1 X158.810 Y80.952
G1 X156.429 Y78.571
G1 X158.810 Y76.190
G1 X161.190 Y78.571
G1 X163.571 Y76.190
G1 X165.952 Y78.571
G1 X168.333 Y76.190
G1 X170.714 Y78.571
G1 X168.333 Y80.952
G1 X170.714 Y83.333
G1 X168.333 Y85.714
G1 X170.714 Y88.095
G1 X168.333 Y90.476
G1 X165.952 Y88.095
G1 X163.571 Y90.476
G1 X161.190 Y88.095
G1 X158.810 Y90.476
G1 X161.190 Y92.857
G1 X158.810 Y95.238
G1 X161.190 Y97.619
G1 X163.571 Y95.238
G1 X165.952 Y97.619
G1 X168.333 Y95.238
G1 X170.714 Y97.619
G1 X168.333 Y100.000
G1 X170.714 Y102.381
G1 X168.333 Y104.762
G1 X170.714 Y107.143
G1 X173.095 Y104.762
G1 X175.476 Y107.143
G1 X177.857 Y104.762
G1 X175.476 Y102.381
G1 X177.857 Y100.000
G1 X175.476 Y97.619
G1 X177.857 Y95.238
G1 X180.238 Y97.619
G1 X182.619 Y95.238
G1 X185.000 Y97.619
G1 X187.381 Y95.238
G1 X185.000 Y92.857
G1 X187.381 Y90.476
G1 X185.000 Y88.095
G1 X182.619 Y90.476
G1 X180.238 Y88.095
G1 X177.857 Y90.476
G1 X175.476 Y88.095
G1 X177.857 Y85.714
G1 X175.476 Y83.333
G1 X177.857 Y80.952
G1 X175.476 Y78.571
G1 X177.857 Y76.190
G1 X180.238 Y78.571
G1 X182.619 Y76.190
G1 X185.000 Y78.571
G1 X187.381 Y76.190
G1 X189.762 Y78.571
G1 X187.381 Y80.952
G1 X189.762 Y83.333
G1 X187.381 Y85.714
G1 X189.762 Y88.095
G1 X192.143 Y85.714
G1 X194.524 Y88.095
G1 X196.905 Y85.714
G1 X194.524 Y83.333
G1 X196.905 Y80.952
G1 X194.524 Y78.571
G1 X196.905 Y76.190
G1 X199.286 Y78.571
G1 X201.667 Y76.190
G1 X204.048 Y78.571
G1 X206.429 Y76.190
G1 X204.048 Y73.810
G1 X206.429 Y71.429
G1 X204.048 Y69.048
G1 X201.667 Y71.429
G1 X199.286 Y69.048
G1 X196.905 Y71.429
G1 X194.524 Y69.048
G1 X196.905 Y66.667
G1 X194.524 Y64.286
G1 X196.905 Y61.905
G1 X194.524 Y59.524
G1 X192.143 Y61.905
G1 X189.762 Y59.524
G1 X187.381 Y61.905
G1 X189.762 Y64.286
G1 X187.381 Y66.667
G1 X189.762 Y69.048
G1 X187.381 Y71.429
G1 X185.000 Y69.048
G1 X182.619 Y71.429
G1 X180.238 Y69.048
G1 X177.857 Y71.429
G1 X175.476 Y69.048
G1 X177.857 Y66.667
G1 X175.476 Y64.286
G1 X177.857 Y61.905
G1 X175.476 Y59.524
G1 X177.857 Y57.143
G1 X180.238 Y59.524
G1 X182.619 Y57.143
G1 X185.000 Y59.524
G1 X187.381 Y57.143
G1 X185.000 Y54.762
G1 X187.381 Y52.381
G1 X185.000 Y50.000
G1 X182.619 Y52.381
G1 X180.238 Y50.000
G1 X177.857 Y52.381
G1 X175.476 Y50.000
G1 X177.857 Y47.619
G1 X175.476 Y45.238
G1 X177.857 Y42.857
G1 X175.476 Y40.476
G1 X173.095 Y42.857
G1 X170.714 Y40.476
G1 X168.333 Y42.857
G1 X170.714 Y45.238
G1 X168.333 Y47.619
G1 X170.714 Y50.000
G1 X168.333 Y52.381
G1 X165.952 Y50.000
G1 X163.571 Y52.381
G1 X161.190 Y50.000
G1 X158.810 Y52.381
G1 X161.190 Y54.762
G1 X158.810 Y57.143
G1 X161.190 Y59.524
G1 X163.571 Y57.143
G1 X165.952 Y59.524
G1 X168.333 Y57.143
G1 X170.714 Y59.524
G1 X168.333 Y61.905
G1 X170.714 Y64.286
G1 X168.333 Y66.667
G1 X170.714 Y69.048
G1 X168.333 Y71.429
G1 X165.952 Y69.048
G1 X163.571 Y71.429
G1 X161.190 Y69.048
G1 X158.810 Y71.429
G1 X156.429 Y69.048
G1 X158.810 Y66.667
G1 X156.429 Y64.286
G1 X158.810 Y61.905
G1 X156.429 Y59.524
G1 X154.048 Y61.905
G1 X151.667 Y59.524
G1 X149.286 Y61.905
G1 X151.667 Y64.286
G1 X149.286 Y66.667
G1 X151.667 Y69.048
G1 X149.286 Y71.429
G1 X146.905 Y69.048
G1 X144.524 Y71.429
G1 X142.143 Y69.048
G1 X139.762 Y71.429
G1 X137.381 Y69.048
G1 X139.762 Y66.667
G1 X137.381 Y64.286
G1 X139.762 Y61.905
G1 X137.381 Y59.524
G1 X139.762 Y57.143
G1 X142.143 Y59.524
G1 X144.524 Y57.143
G1 X146.905 Y59.524
G1 X149.286 Y57.143
G1 X146.905 Y54.762
G1 X149.286 Y52.381
G1 X146.905 Y50.000
G1 X144.524 Y52.381
G1 X142.143 Y50.000
G1 X139.762 Y52.381
G1 X137.381 Y50.000
G1 X139.762 Y47.619
G1 X137.381 Y45.238
G1 X139.762 Y42.857
G1 X137.381 Y40.476
G1 X139.762 Y38.095
G1 X142.143 Y40.476
G1 X144.524 Y38.095
G1 X146.905 Y40.476
G1 X149.286 Y38.095
G1 X151.667 Y40.476
G1 X149.286 Y42.857
G1 X151.667 Y45.238
G1 X149.286 Y47.619
G1 X151.667 Y50.000
G1 X154.048 Y47.619
G1 X156.429 Y50.000
G1 X158.810 Y47.619
G1 X156.429 Y45.238
G1 X158.810 Y42.857
G1 X156.429 Y40.476
G1 X158.810 Y38.095
G1 X161.190 Y40.476
G1 X163.571 Y38.095
G1 X165.952 Y40.476
G1 X168.333 Y38.095
G1 X165.952 Y35.714
G1 X168.333 Y33.333
G1 X165.952 Y30.952
G1 X163.571 Y33.333
G1 X161.190 Y30.952
G1 X158.810 Y33.333
G1 X156.429 Y30.952
G1 X158.810 Y28.571
G1 X156.429 Y26.190
G1 X158.810 Y23.810
G1 X156.429 Y21.429
G1 X154.048 Y23.810
G1 X151.667 Y21.429
G1 X149.286 Y23.810
G1 X151.667 Y26.190
G1 X149.286 Y28.571
G1 X151.667 Y30.952
G1 X149.286 Y33.333
G1 X146.905 Y30.952
G1 X144.524 Y33.333
G1 X142.143 Y30.952
G1 X139.762 Y33.333
G1 X137.381 Y30.952
G1 X139.762 Y28.571
G1 X137.381 Y26.190
G1 X139.762 Y23.810
G1 X137.381 Y21.429
G1 X139.762 Y19.048
G1 X142.143 Y21.429
G1 X144.524 Y19.048
G1 X146.905 Y21.429
G1 X149.286 Y19.048
G1 X146.905 Y16.667
G1 X149.286 Y14.286
G1 X146.905 Y11.905
G1 X144.524 Y14.286
G1 X142.143 Y11.905
G1 X139.762 Y14.286
G1 X137.381 Y11.905
G1 X139.762 Y9.524
G1 X137.381 Y7.143
G1 X139.762 Y4.762
G1 X137.381 Y2.381
G1 X139.762 Y0.000
G1 X142.143 Y2.381
G1 X144.524 Y0.000
G1 X146.905 Y2.381
G1 X149.286 Y0.000
G1 X151.667 Y2.381
G1 X149.286 Y4.762
G1 X151.667 Y7.143
G1 X149.286 Y9.524
G1 X151.667 Y11.905
G1 X154.048 Y9.524
G1 X156.429 Y11.905
G1 X158.810 Y9.524
G1 X156.429 Y7.143
G1 X158.810 Y4.762
G1 X156.429 Y2.381
G1 X158.810 Y0.000
G1 X161.190 Y2.381
G1 X163.571 Y0.000
G1 X165.952 Y2.381
G1 X168.333 Y0.000
G1 X170.714 Y2.381
G1 X168.333 Y4.762
G1 X170.714 Y7.143
G1 X168.333 Y9.524
G1 X170.714 Y11.905
G1 X168.333 Y14.286
G1 X165.952 Y11.905
G1 X163.571 Y14.286
G1 X161.190 Y11.905
G1 X158.810 Y14.286
G1 X161.190 Y16.667
G1 X158.810 Y19.048
G1 X161.190 Y21.429
G1 X163.571 Y19.048
G1 X165.952 Y21.429
G1 X168.333 Y19.048
G1 X170.714 Y21.429
G1 X168.333 Y23.810
G1 X170.714 Y26.190
G1 X168.333 Y28.571
G1 X170.714 Y30.952
G1 X173.095 Y28.571
G1 X175.476 Y30.952
G1 X177.857 Y28.571
G1 X175.476 Y26.190
G1 X177.857 Y23.810
G1 X175.476 Y21.429
G1 X177.857 Y19.048
G1 X180.238 Y21.429
G1 X182.619 Y19.048
G1 X185.000 Y21.429
G1 X187.381 Y19.048
G1 X185.000 Y16.667
G1 X187.381 Y14.286
G1 X185.000 Y11.905
G1 X182.619 Y14.286
G1 X180.238 Y11.905
G1 X177.857 Y14.286
G1 X175.476 Y11.905
G1 X177.857 Y9.524
G1 X175.476 Y7.143
G1 X177.857 Y4.762
G1 X175.476 Y2.381
G1 X177.857 Y0.000
G1 X180.238 Y2.381
G1 X182.619 Y0.000
G1 X185.000 Y2.381
G1 X187.381 Y0.000
G1 X189.762 Y2.381
G1 X187.381 Y4.762
G1 X189.762 Y7.143
G1 X187.381 Y9.524
G1 X189.762 Y11.905
G1 X192.143 Y9.524
G1 X194.524 Y11.905
G1 X196.905 Y9.524
G1 X194.524 Y7.143
G1 X196.905 Y4.762
G1 X194.524 Y2.381
G1 X196.905 Y0.000
G1 X199.286 Y2.381
G1 X201.667 Y0.000
G1 X204.048 Y2.381
G1 X206.429 Y0.000
G1 X208.810 Y2.381
G1 X206.429 Y4.762
G1 X208.810 Y7.143
G1 X206.429 Y9.524
G1 X208.810 Y11.905
G1 X206.429 Y14.286
G1 X204.048 Y11.905
G1 X201.667 Y14.286
G1 X199.286 Y11.905
G1 X196.905 Y14.286
G1 X199.286 Y16.667
G1 X196.905 Y19.048
G1 X199.286 Y21.429
G1 X201.667 Y19.048
G1 X204.048 Y21.429
G1 X206.429 Y19.048
G1 X208.810 Y21.429
G1 X206.429 Y23.810
G1 X208.810 Y26.190
G1 X206.429 Y28.571
G1 X208.810 Y30.952
G1 X206.429 Y33.333
G1 X204.048 Y30.952
G1 X201.667 Y33.333
G1 X199.286 Y30.952
G1 X196.905 Y33.333
G1 X194.524 Y30.952
G1 X196.905 Y28.571
G1 X194.524 Y26.190
G1 X196.905 Y23.810
G1 X194.524 Y21.429
G1 X192.143 Y23.810
G1 X189.762 Y21.429
G1 X187.381 Y23.810
G1 X189.762 Y26.190
G1 X187.381 Y28.571
G1 X189.762 Y30.952
G1 X187.381 Y33.333
G1 X185.000 Y30.952
G1 X182.619 Y33.333
G1 X180.238 Y30.952
G1 X177.857 Y33.333
G1 X180.238 Y35.714
G1 X177.857 Y38.095
G1 X180.238 Y40.476
G1 X182.619 Y38.095
G1 X185.000 Y40.476
G1 X187.381 Y38.095
G1 X189.762 Y40.476
G1 X187.381 Y42.857
G1 X189.762 Y45.238
G1 X187.381 Y47.619
G1 X189.762 Y50.000
G1 X192.143 Y47.619
G1 X194.524 Y50.000
G1 X196.905 Y47.619
G1 X194.524 Y45.238
G1 X196.905 Y42.857
G1 X194.524 Y40.476
G1 X196.905 Y38.095
G1 X199.286 Y40.476
G1 X201.667 Y38.095
G1 X204.048 Y40.476
G1 X206.429 Y38.095
G1 X208.810 Y40.476
G1 X206.429 Y42.857
G1 X208.810 Y45.238
G1 X206.429 Y47.619
G1 X208.810 Y50.000
G1 X206.429 Y52.381
G1 X204.048 Y50.000
G1 X201.667 Y52.381
G1 X199.286 Y50.000
G1 X196.905 Y52.381
G1 X199.286 Y54.762
G1 X196.905 Y57.143
G1 X199.286 Y59.524
G1 X201.667 Y57.143
G1 X204.048 Y59.524
G1 X206.429 Y57.143
G1 X208.810 Y59.524
G1 X206.429 Y61.905
G1 X208.810 Y64.286
G1 X206.429 Y66.667
G1 X208.810 Y69.048
G1 X211.190 Y66.667
G1 X213.571 Y69.048
G1 X215.952 Y66.667
G1 X213.571 Y64.286
G1 X215.952 Y61.905
G1 X213.571 Y59.524
G1 X215.952 Y57.143
G1 X218.333 Y59.524
G1 X220.714 Y57.143
G1 X223.095 Y59.524
G1 X225.476 Y57.143
G1 X223.095 Y54.762
G1 X225.476 Y52.381
G1 X223.095 Y50.000
G1 X220.714 Y52.381
G1 X218.333 Y50.000
G1 X215.952 Y52.381
G1 X213.571 Y50.000
G1 X215.952 Y47.619
G1 X213.571 Y45.238
G1 X215.952 Y42.857
G1 X213.571 Y40.476
G1 X215.952 Y38.095
G1 X218.333 Y40.476
G1 X220.714 Y38.095
G1 X223.095 Y40.476
G1 X225.476 Y38.095
G1 X227.857 Y40.476
G1 X225.476 Y42.857
G1 X227.857 Y45.238
G1 X225.476 Y47.619
G1 X227.857 Y50.000
G1 X230.238 Y47.619
G1 X232.619 Y50.000
G1 X235.000 Y47.619
G1 X232.619 Y45.238
G1 X235.000 Y42.857
G1 X232.619 Y40.476
G1 X235.000 Y38.095
G1 X237.381 Y40.476
G1 X239.762 Y38.095
G1 X242.143 Y40.476
G1 X244.524 Y38.095
G1 X242.143 Y35.714
G1 X244.524 Y33.333
G1 X242.143 Y30.952
G1 X239.762 Y33.333
G1 X237.381 Y30.952
G1 X235.000 Y33.333
G1 X232.619 Y30.952
G1 X235.000 Y28.571
G1 X232.619 Y26.190
G1 X235.000 Y23.810
G1 X232.619 Y21.429
G1 X230.238 Y23.810
G1 X227.857 Y21.429
G1 X225.476 Y23.810
G1 X227.857 Y26.190
G1 X225.476 Y28.571
G1 X227.857 Y30.952
G1 X225.476 Y33.333
G1 X223.095 Y30.952
G1 X220.714 Y33.333
G1 X218.333 Y30.952
G1 X215.952 Y33.333
G1 X213.571 Y30.952
G1 X215.952 Y28.571
G1 X213.571 Y26.190
G1 X215.952 Y23.810
G1 X213.571 Y21.429
G1 X215.952 Y19.048
G1 X218.333 Y21.429
G1 X220.714 Y19.048
G1 X223.095 Y21.429
G1 X225.476 Y19.048
G1 X223.095 Y16.667
G1 X225.476 Y14.286
G1 X223.095 Y11.905
G1 X220.714 Y14.286
G1 X218.333 Y11.905
G1 X215.952 Y14.286
G1 X213.571 Y11.905
G1 X215.952 Y9.524
G1 X213.571 Y7.143
G1 X215.952 Y4.762
G1 X213.571 Y2.381
G1 X215.952 Y0.000
G1 X218.333 Y2.381
G1 X220.714 Y0.000
G1 X223.095 Y2.381
G1 X225.476 Y0.000
G1 X227.857 Y2.381
G1 X225.476 Y4.762
G1 X227.857 Y7.143
G1 X225.476 Y9.524
G1 X227.857 Y11.905
G1 X230.238 Y9.524
G1 X232.619 Y11.905
G1 X235.000 Y9.524
G1 X232.619 Y7.143
G1 X235.000 Y4.762
G1 X232.619 Y2.381
G1 X235.000 Y0.000
G1 X237.381 Y2.381
G1 X239.762 Y0.000
G1 X242.143 Y2.381
G1 X244.524 Y0.000
G1 X246.905 Y2.381
G1 X244.524 Y4.762
G1 X246.905 Y7.143
G1 X244.524 Y9.524
G1 X246.905 Y11.905
G1 X244.524 Y14.286
G1 X242.143 Y11.905
G1 X239.762 Y14.286
G1 X237.381 Y11.905
G1 X235.000 Y14.286
G1 X237.381 Y16.667
G1 X235.000 Y19.048
G1 X237.381 Y21.429
G1 X239.762 Y19.048
G1 X242.143 Y21.429
G1 X244.524 Y19.048
G1 X246.905 Y21.429
G1 X244.524 Y23.810
G1 X246.905 Y26.190
G1 X244.524 Y28.571
G1 X246.905 Y30.952
G1 X249.286 Y28.571
G1 X251.667 Y30.952
G1 X254.048 Y28.571
G1 X251.667 Y26.190
G1 X254.048 Y23.810
G1 X251.667 Y21.429
G1 X254.048 Y19.048
G1 X256.429 Y21.429
G1 X258.810 Y19.048
G1 X261.190 Y21.429
G1 X263.571 Y19.048
G1 X261.190 Y16.667
G1 X263.571 Y14.286
G1 X261.190 Y11.905
G1 X258.810 Y14.286
G1 X256.429 Y11.905
G1 X254.048 Y14.286
G1 X251.667 Y11.905
G1 X254.048 Y9.524
G1 X251.667 Y7.143
G1 X254.048 Y4.762
G1 X251.667 Y2.381
G1 X254.048 Y0.000
G1 X256.429 Y2.381
G1 X258.810 Y0.000
G1 X261.190 Y2.381
G1 X263.571 Y0.000
G1 X265.952 Y2.381
G1 X263.571 Y4.762
G1 X265.952 Y7.143
G1 X263.571 Y9.524
G1 X265.952 Y11.905
G1 X268.333 Y9.524
G1 X270.000 Y11.190
G1 X270.000 Y22.143
G1 X268.333 Y23.810
G1 X265.952 Y21.429
G1 X263.571 Y23.810
G1 X265.952 Y26.190
G1 X263.571 Y28.571
G1 X265.952 Y30.952
G1 X263.571 Y33.333
G1 X261.190 Y30.952
G1 X258.810 Y33.333
G1 X256.429 Y30.952
G1 X254.048 Y33.333
G1 X256.429 Y35.714
G1 X254.048 Y38.095
G1 X256.429 Y40.476
G1 X258.810 Y38.095
G1 X261.190 Y40.476
G1 X263.571 Y38.095
G1 X265.952 Y40.476
G1 X263.571 Y42.857
G1 X265.952 Y45.238
G1 X263.571 Y47.619
G1 X265.952 Y50.000
G1 X268.333 Y47.619
G1 X270.000 Y49.286
G1 X270.000 Y60.238
G1 X268.333 Y61.905
G1 X265.952 Y59.524
G1 X263.571 Y61.905
G1 X265.952 Y64.286
G1 X263.571 Y66.667
G1 X265.952 Y69.048
G1 X263.571 Y71.429
G1 X261.190 Y69.048
G1 X258.810 Y71.429
G1 X256.429 Y69.048
G1 X254.048 Y71.429
G1 X251.667 Y69.048
G1 X254.048 Y66.667
G1 X251.667 Y64.286
G1 X254.048 Y61.905
G1 X251.667 Y59.524
G1 X254.048 Y57.143
G1 X256.429 Y59.524
G1 X258.810 Y57.143
G1 X261.190 Y59.524
G1 X263.571 Y57.143
G1 X261.190 Y54.762
G1 X263.571 Y52.381
G1 X261.190 Y50.000
G1 X258.810 Y52.381
G1 X256.429 Y50.000
G1 X254.048 Y52.381
G1 X251.667 Y50.000
G1 X254.048 Y47.619
G1 X251.667 Y45.238
G1 X254.048 Y42.857
G1 X251.667 Y40.476
G1 X249.286 Y42.857
G1 X246.905 Y40.476
G1 X244.524 Y42.857
G1 X246.905 Y45.238
G1 X244.524 Y47.619
G1 X246.905 Y50.000
G1 X244.524 Y52.381
G1 X242.143 Y50.000
G1 X239.762 Y52.381
G1 X237.381 Y50.000
G1 X235.000 Y52.381
G1 X237.381 Y54.762
G1 X235.000 Y57.143
G1 X237.381 Y59.524
G1 X239.762 Y57.143
G1 X242.143 Y59.524
G1 X244.524 Y57.143
G1 X246.905 Y59.524
G1 X244.524 Y61.905
G1 X246.905 Y64.286
G1 X244.524 Y66.667
G1 X246.905 Y69.048
G1 X244.524 Y71.429
G1 X242.143 Y69.048
G1 X239.762 Y71.429
G1 X237.381 Y69.048
G1 X235.000 Y71.429
G1 X232.619 Y69.048
G1 X235.000 Y66.667
G1 X232.619 Y64.286
G1 X235.000 Y61.905
G1 X232.619 Y59.524
G1 X230.238 Y61.905
G1 X227.857 Y59.524
G1 X225.476 Y61.905
G1 X227.857 Y64.286
G1 X225.476 Y66.667
G1 X227.857 Y69.048
G1 X225.476 Y71.429
G1 X223.095 Y69.048
G1 X220.714 Y71.429
G1 X218.333 Y69.048
G1 X215.952 Y71.429
G1 X218.333 Y73.810
G1 X215.952 Y76.190
G1 X218.333 Y78.571
G1 X220.714 Y76.190
G1 X223.095 Y78.571
G1 X225.476 Y76.190
G1 X227.857 Y78.571
G1 X225.476 Y80.952
G1 X227.857 Y83.333
G1 X225.476 Y85.714
G1 X227.857 Y88.095
G1 X230.238 Y85.714
G1 X232.619 Y88.095
G1 X235.000 Y85.714
G1 X232.619 Y83.333
G1 X235.000 Y80.952
G1 X232.619 Y78.571
G1 X235.000 Y76.190
G1 X237.381 Y78.571
G1 X239.762 Y76.190
G1 X242.143 Y78.571
G1 X244.524 Y76.190
G1 X246.905 Y78.571
G1 X244.524 Y80.952
G1 X246.905 Y83.333
G1 X244.524 Y85.714
G1 X246.905 Y88.095
G1 X244.524 Y90.476
G1 X242.143 Y88.095
G1 X239.762 Y90.476
G1 X237.381 Y88.095
G1 X235.000 Y90.476
G1 X237.381 Y92.857
G1 X235.000 Y95.238
G1 X237.381 Y97.619
G1 X239.762 Y95.238
G1 X242.143 Y97.619
G1 X244.524 Y95.238
G1 X246.905 Y97.619
G1 X244.524 Y100.000
G1 X246.905 Y102.381
G1 X244.524 Y104.762
G1 X246.905 Y107.143
G1 X249.286 Y104.762
G1 X251.667 Y107.143
G1 X254.048 Y104.762
G1 X251.667 Y102.381
G1 X254.048 Y100.000
G1 X251.667 Y97.619
G1 X254.048 Y95.238
G1 X256.429 Y97.619
G1 X258.810 Y95.238
G1 X261.190 Y97.619
G1 X263.571 Y95.238
G1 X261.190 Y92.857
G1 X263.571 Y90.476
G1 X261.190 Y88.095
G1 X258.810 Y90.476
G1 X256.429 Y88.095
G1 X254.048 Y90.476
G1 X251.667 Y88.095
G1 X254.048 Y85.714
G1 X251.667 Y83.333
G1 X254.048 Y80.952
G1 X251.667 Y78.571
G1 X254.048 Y76.190
G1 X256.429 Y78.571
G1 X258.810 Y76.190
G1 X261.190 Y78.571
G1 X263.571 Y76.190
G1 X265.952 Y78.571
G1 X263.571 Y80.952
G1 X265.952 Y83.333
G1 X263.571 Y85.714
G1 X265.952 Y88.095
G1 X268.333 Y85.714
G1 X270.000 Y87.381
G1 X270.000 Y98.333
G1 X268.333 Y100.000
G1 X265.952 Y97.619
G1 X263.571 Y100.000
G1 X265.952 Y102.381
G1 X263.571 Y104.762
G1 X265.952 Y107.143
G1 X263.571 Y109.524
G1 X261.190 Y107.143
G1 X258.810 Y109.524
G1 X256.429 Y107.143
G1 X254.048 Y109.524
G1 X256.429 Y111.905
G1 X254.048 Y114.286
G1 X256.429 Y116.667
G1 X258.810 Y114.286
G1 X261.190 Y116.667
G1 X263.571 Y114.286
G1 X265.952 Y116.667
G1 X263.571 Y119.048
G1 X265.952 Y121.429
G1 X263.571 Y123.810
G1 X265.952 Y126.190
G1 X268.333 Y123.810
G1 X270.000 Y125.476
G1 X270.000 Y136.429
G1 X268.333 Y138.095
G1 X265.952 Y135.714
G1 X263.571 Y138.095
G1 X265.952 Y140.476
G1 X263.571 Y142.857
G1 X265.952 Y145.238
G1 X263.571 Y147.619
G1 X261.190 Y145.238
G1 X258.810 Y147.619
G1 X256.429 Y145.238
G1 X254.048 Y147.619
G1 X251.667 Y145.238
G1 X254.048 Y142.857
G1 X251.667 Y140.476
G1 X254.048 Y138.095
G1 X251.667 Y135.714
G1 X254.048 Y133.333
G1 X256.429 Y135.714
G1 X258.810 Y133.333
G1 X261.190 Y135.714
G1 X263.571 Y133.333
G1 X261.190 Y130.952
G1 X263.571 Y128.571
G1 X261.190 Y126.190
G1 X258.810 Y128.571
G1 X256.429 Y126.190
G1 X254.048 Y128.571
G1 X251.667 Y126.190
G1 X254.048 Y123.810
G1 X251.667 Y121.429
G1 X254.048 Y119.048
G1 X251.667 Y116.667
G1 X249.286 Y119.048
G1 X246.905 Y116.667
G1 X244.524 Y119.048
G1 X246.905 Y121.429
G1 X244.524 Y123.810
G1 X246.905 Y126.190
G1 X244.524 Y128.571
G1 X242.143 Y126.190
G1 X239.762 Y128.571
G1 X237.381 Y126.190
G1 X235.000 Y128.571
G1 X237.381 Y130.952
G1 X235.000 Y133.333
G1 X237.381 Y135.714
G1 X239.762 Y133.333
G1 X242.143 Y135.714
G1 X244.524 Y133.333
G1 X246.905 Y135.714
G1 X244.524 Y138.095
G1 X246.905 Y140.476
G1 X244.524 Y142.857
G1 X246.905 Y145.238
G1 X244.524 Y147.619
G1 X242.143 Y145.238
G1 X239.762 Y147.619
G1 X237.381 Y145.238
G1 X235.000 Y147.619
G1 X232.619 Y145.238
G1 X235.000 Y142.857
G1 X232.619 Y140.476
G1 X235.000 Y138.095
G1 X232.619 Y135.714
G1 X230.238 Y138.095
G1 X227.857 Y135.714
G1 X225.476 Y138.095
G1 X227.857 Y140.476
G1 X225.476 Y142.857
G1 X227.857 Y145.238
G1 X225.476 Y147.619
G1 X223.095 Y145.238
G1 X220.714 Y147.619
G1 X218.333 Y145.238
G1 X215.952 Y147.619
G1 X213.571 Y145.238
G1 X215.952 Y142.857
G1 X213.571 Y140.476
G1 X215.952 Y138.095
G1 X213.571 Y135.714
G1 X215.952 Y133.333
G1 X218.333 Y135.714
G1 X220.714 Y133.333
G1 X223.095 Y135.714
G1 X225.476 Y133.333
G1 X223.095 Y130.952
G1 X225.476 Y128.571
G1 X223.095 Y126.190
G1 X220.714 Y128.571
G1 X218.333 Y126.190
G1 X215.952 Y128.571
G1 X213.571 Y126.190
G1 X215.952 Y123.810
G1 X213.571 Y121.429
G1 X215.952 Y119.048
G1 X213.571 Y116.667
G1 X215.952 Y114.286
G1 X218.333 Y116.667
G1 X220.714 Y114.286
G1 X223.095 Y116.667
G1 X225.476 Y114.286
G1 X227.857 Y116.667
G1 X225.476 Y119.048
G1 X227.857 Y121.429
G1 X225.476 Y123.810
G1 X227.857 Y126.190
G1 X230.238 Y123.810
G1 X232.619 Y126.190
G1 X235.000 Y123.810
G1 X232.619 Y121.429
G1 X235.000 Y119.048
G1 X232.619 Y116.667
G1 X235.000 Y114.286
G1 X237.381 Y116.667
G1 X239.762 Y114.286
G1 X242.143 Y116.667
G1 X244.524 Y114.286
G1 X242.143 Y111.905
G1 X244.524 Y109.524
G1 X242.143 Y107.143
G1 X239.762 Y109.524
G1 X237.381 Y107.143
G1 X235.000 Y109.524
G1 X232.619 Y107.143
G1 X235.000 Y104.762
G1 X232.619 Y102.381
G1 X235.000 Y100.000
G1 X232.619 Y97.619
G1 X230.238 Y100.000
G1 X227.857 Y97.619
G1 X225.476 Y100.000
G1 X227.857 Y102.381
G1 X225.476 Y104.762
G1 X227.857 Y107.143
G1 X225.476 Y109.524
G1 X223.095 Y107.143
G1 X220.714 Y109.524
G1 X218.333 Y107.143
G1 X215.952 Y109.524
G1 X213.571 Y107.143
G1 X215.952 Y104.762
G1 X213.571 Y102.381
G1 X215.952 Y100.000
G1 X213.571 Y97.619
G1 X215.952 Y95.238
G1 X218.333 Y97.619
G1 X220.714 Y95.238
G1 X223.095 Y97.619
G1 X225.476 Y95.238
G1 X223.095 Y92.857
G1 X225.476 Y90.476
G1 X223.095 Y88.095
G1 X220.714 Y90.476
G1 X218.333 Y88.095
G1 X215.952 Y90.476
G1 X213.571 Y88.095
G1 X215.952 Y85.714
G1 X213.571 Y83.333
G1 X215.952 Y80.952
G1 X213.571 Y78.571
G1 X211.190 Y80.952
G1 X208.810 Y78.571
G1 X206.429 Y80.952
G1 X208.810 Y83.333
G1 X206.429 Y85.714
G1 X208.810 Y88.095
G1 X206.429 Y90.476
G1 X204.048 Y88.095
G1 X201.667 Y90.476
G1 X199.286 Y88.095
G1 X196.905 Y90.476
G1 X199.286 Y92.857
G1 X196.905 Y95.238
G1 X199.286 Y97.619
G1 X201.667 Y95.238
G1 X204.048 Y97.619
G1 X206.429 Y95.238
G1 X208.810 Y97.619
G1 X206.429 Y100.000
G1 X208.810 Y102.381
G1 X206.429 Y104.762
G1 X208.810 Y107.143
G1 X206.429 Y109.524
G1 X204.048 Y107.143
G1 X201.667 Y109.524
G1 X199.286 Y107.143
G1 X196.905 Y109.524
G1 X194.524 Y107.143
G1 X196.905 Y104.762
G1 X194.524 Y102.381
G1 X196.905 Y100.000
G1 X194.524 Y97.619
G1 X192.143 Y100.000
G1 X189.762 Y97.619
G1 X187.381 Y100.000
G1 X189.762 Y102.381
G1 X187.381 Y104.762
G1 X189.762 Y107.143
G1 X187.381 Y109.524
G1 X185.000 Y107.143
G1 X182.619 Y109.524
G1 X180.238 Y107.143
G1 X177.857 Y109.524
G1 X180.238 Y111.905
G1 X177.857 Y114.286
G1 X180.238 Y116.667
G1 X182.619 Y114.286
G1 X185.000 Y116.667
G1 X187.381 Y114.286
G1 X189.762 Y116.667
G1 X187.381 Y119.048
G1 X189.762 Y121.429
G1 X187.381 Y123.810
G1 X189.762 Y126.190
G1 X192.143 Y123.810
G1 X194.524 Y126.190
G1 X196.905 Y123.810
G1 X194.524 Y121.429
G1 X196.905 Y119.048
G1 X194.524 Y116.667
G1 X196.905 Y114.286
G1 X199.286 Y116.667
G1 X201.667 Y114.286
G1 X204.048 Y116.667
G1 X206.429 Y114.286
G1 X208.810 Y116.667
G1 X206.429 Y119.048
G1 X208.810 Y121.429
G1 X206.429 Y123.810
G1 X208.810 Y126.190
G1 X206.429 Y128.571
G1 X204.048 Y126.190
G1 X201.667 Y128.571
G1 X199.286 Y126.190
G1 X196.905 Y128.571
G1 X199.286 Y130.952
G1 X196.905 Y133.333
G1 X199.286 Y135.714
G1 X201.667 Y133.333
G1 X204.048 Y135.714
G1 X206.429 Y133.333
G1 X208.810 Y135.714
G1 X206.429 Y138.095
G1 X208.810 Y140.476
G1 X206.429 Y142.857
G1 X208.810 Y145.238
G1 X206.429 Y147.619
G1 X204.048 Y145.238
G1 X201.667 Y147.619
G1 X199.286 Y145.238
G1 X196.905 Y147.619
G1 X194.524 Y145.238
G1 X196.905 Y142.857
G1 X194.524 Y140.476
G1 X196.905 Y138.095
G1 X194.524 Y135.714
G1 X192.143 Y138.095
G1 X189.762 Y135.714
G1 X187.381 Y138.095
G1 X189.762 Y140.476
G1 X187.381 Y142.857
G1 X189.762 Y145.238
G1 X187.381 Y147.619
G1 X185.000 Y145.238
G1 X182.619 Y147.619
G1 X180.238 Y145.238
G1 X177.857 Y147.619
G1 X175.476 Y145.238
G1 X177.857 Y142.857
G1 X175.476 Y140.476
G1 X177.857 Y138.095
G1 X175.476 Y135.714
G1 X177.857 Y133.333
G1 X180.238 Y135.714
G1 X182.619 Y133.333
G1 X185.000 Y135.714
G1 X187.381 Y133.333
G1 X185.000 Y130.952
G1 X187.381 Y128.571
G1 X185.000 Y126.190
G1 X182.619 Y128.571
G1 X180.238 Y126.190
G1 X177.857 Y128.571
G1 X175.476 Y126.190
G1 X177.857 Y123.810
G1 X175.476 Y121.429
G1 X177.857 Y119.048
G1 X175.476 Y116.667
G1 X173.095 Y119.048
G1 X170.714 Y116.667
G1 X168.333 Y119.048
G1 X170.714 Y121.429
G1 X168.333 Y123.810
G1 X170.714 Y126.190
G1 X168.333 Y128.571
G1 X165.952 Y126.190
G1 X163.571 Y128.571
G1 X161.190 Y126.190
G1 X158.810 Y128.571
G1 X161.190 Y130.952
G1 X158.810 Y133.333
G1 X161.190 Y135.714
G1 X163.571 Y133.333
G1 X165.952 Y135.714
G1 X168.333 Y133.333
G1 X170.714 Y135.714
G1 X168.333 Y138.095
G1 X170.714 Y140.476
G1 X168.333 Y142.857
G1 X170.714 Y145.238
G1 X168.333 Y147.619
G1 X165.952 Y145.238
G1 X163.571 Y147.619
G1 X161.190 Y145.238
G1 X158.810 Y147.619
G1 X156.429 Y145.238
G1 X158.810 Y142.857
G1 X156.429 Y140.476
G1 X158.810 Y138.095
G1 X156.429 Y135.714
G1 X154.048 Y138.095
G1 X151.667 Y135.714
G1 X149.286 Y138.095
G1 X151.667 Y140.476
G1 X149.286 Y142.857
G1 X151.667 Y145.238
G1 X149.286 Y147.619
G1 X146.905 Y145.238
G1 X144.524 Y147.619
G1 X142.143 Y145.238
G1 X139.762 Y147.619
G1 X142.143 Y150.000
G1 X139.762 Y152.381
G1 X142.143 Y154.762
G1 X144.524 Y152.381
G1 X146.905 Y154.762
G1 X149.286 Y152.381
G1 X151.667 Y154.762
G1 X149.286 Y157.143
G1 X151.667 Y159.524
G1 X149.286 Y161.905
G1 X151.667 Y164.286
G1 X154.048 Y161.905
G1 X156.429 Y164.286
G1 X158.810 Y161.905
G1 X156.429 Y159.524
G1 X158.810 Y157.143
G1 X156.429 Y154.762
G1 X158.810 Y152.381
G1 X161.190 Y154.762
G1 X163.571 Y152.381
G1 X165.952 Y154.762
G1 X168.333 Y152.381
G1 X170.714 Y154.762
G1 X168.333 Y157.143
G1 X170.714 Y159.524
G1 X168.333 Y161.905
G1 X170.714 Y164.286
G1 X168.333 Y166.667
G1 X165.952 Y164.286
G1 X163.571 Y166.667
G1 X161.190 Y164.286
G1 X158.810 Y166.667
G1 X161.190 Y169.048
G1 X158.810 Y171.429
G1 X161.190 Y173.810
G1 X163.571 Y171.429
G1 X165.952 Y173.810
G1 X168.333 Y171.429
G1 X170.714 Y173.810
G1 X168.333 Y176.190
G1 X170.714 Y178.571
G1 X168.333 Y180.952
G1 X170.714 Y183.333
G1 X173.095 Y180.952
G1 X175.476 Y183.333
G1 X177.857 Y180.952
G1 X175.476 Y178.571
G1 X177.857 Y176.190
G1 X175.476 Y173.810
G1 X177.857 Y171.429
G1 X180.238 Y173.810
G1 X182.619 Y171.429
G1 X185.000 Y173.810
G1 X187.381 Y171.429
G1 X185.000 Y169.048
G1 X187.381 Y166.667
G1 X185.000 Y164.286
G1 X182.619 Y166.667
G1 X180.238 Y164.286
G1 X177.857 Y166.667
G1 X175.476 Y164.286
G1 X177.857 Y161.905
G1 X175.476 Y159.524
G1 X177.857 Y157.143
G1 X175.476 Y154.762
G1 X177.857 Y152.381
G1 X180.238 Y154.762
G1 X182.619 Y152.381
G1 X185.000 Y154.762
G1 X187.381 Y152.381
G1 X189.762 Y154.762
G1 X187.381 Y157.143
G1 X189.762 Y159.524
G1 X187.381 Y161.905
G1 X189.762 Y164.286
G1 X192.143 Y161.905
G1 X194.524 Y164.286
G1 X196.905 Y161.905
G1 X194.524 Y159.524
G1 X196.905 Y157.143
G1 X194.524 Y154.762
G1 X196.905 Y152.381
G1 X199.286 Y154.762
G1 X201.667 Y152.381
G1 X204.048 Y154.762
G1 X206.429 Y152.381
G1 X208.810 Y154.762
G1 X206.429 Y157.143
G1 X208.810 Y159.524
G1 X206.429 Y161.905
G1 X208.810 Y164.286
G1 X206.429 Y166.667
G1 X204.048 Y164.286
G1 X201.667 Y166.667
G1 X199.286 Y164.286
G1 X196.905 Y166.667
G1 X199.286 Y169.048
G1 X196.905 Y171.429
G1 X199.286 Y173.810
G1 X201.667 Y171.429
G1 X204.048 Y173.810
G1 X206.429 Y171.429
G1 X208.810 Y173.810
G1 X206.429 Y176.190
G1 X208.810 Y178.571
G1 X206.429 Y180.952
G1 X208.810 Y183.333
G1 X206.429 Y185.714
G1 X204.048 Y183.333
G1 X201.667 Y185.714
G1 X199.286 Y183.333
G1 X196.905 Y185.714
G1 X194.524 Y183.333
G1 X196.905 Y180.952
G1 X194.524 Y178.571
G1 X196.905 Y176.190
G1 X194.524 Y173.810
G1 X192.143 Y176.190
G1 X189.762 Y173.810
G1 X187.381 Y176.190
G1 X189.762 Y178.571
G1 X187.381 Y180.952
G1 X189.762 Y183.333
G1 X187.381 Y185.714
G1 X185.000 Y183.333
G1 X182.619 Y185.714
G1 X180.238 Y183.333
G1 X177.857 Y185.714
G1 X180.238 Y188.095
G1 X177.857 Y190.476
G1 X180.238 Y192.857
G1 X182.619 Y190.476
G1 X185.000 Y192.857
G1 X187.381 Y190.476
G1 X189.762 Y192.857
G1 X187.381 Y195.238
G1 X189.762 Y197.619
G1 X187.381 Y200.000
G1 X189.762 Y202.381
G1 X192.143 Y200.000
G1 X194.524 Y202.381
G1 X196.905 Y200.000
G1 X194.524 Y197.619
G1 X196.905 Y195.238
G1 X194.524 Y192.857
G1 X196.905 Y190.476
G1 X199.286 Y192.857
G1 X201.667 Y190.476
G1 X204.048 Y192.857
G1 X206.429 Y190.476
G1 X208.810 Y192.857
G1 X206.429 Y195.238
G1 X208.810 Y197.619
G1 X206.429 Y200.000
G1 X208.810 Y202.381
G1 X206.429 Y204.762
G1 X204.048 Y202.381
G1 X201.667 Y204.762
G1 X199.286 Y202.381
G1 X196.905 Y204.762
G1 X199.286 Y207.143
G1 X196.905 Y209.524
G1 X199.286 Y211.905
G1 X201.667 Y209.524
G1 X204.048 Y211.905
G1 X206.429 Y209.524
G1 X208.810 Y211.905
G1 X206.429 Y214.286
G1 X208.810 Y216.667
G1 X206.429 Y219.048
G1 X208.810 Y221.429
G1 X211.190 Y219.048
G1 X213.571 Y221.429
G1 X215.952 Y219.048
G1 X213.571 Y216.667
G1 X215.952 Y214.286
G1 X213.571 Y211.905
G1 X215.952 Y209.524
G1 X218.333 Y211.905
G1 X220.714 Y209.524
G1 X223.095 Y211.905
G1 X225.476 Y209.524
G1 X223.095 Y207.143
G1 X225.476 Y204.762
G1 X223.095 Y202.381
G1 X220.714 Y204.762
G1 X218.333 Y202.381
G1 X215.952 Y204.762
G1 X213.571 Y202.381
G1 X215.952 Y200.000
G1 X213.571 Y197.619
G1 X215.952 Y195.238
G1 X213.571 Y192.857
G1 X215.952 Y190.476
G1 X218.333 Y192.857
G1 X220.714 Y190.476
G1 X223.095 Y192.857
G1 X225.476 Y190.476
G1 X227.857 Y192.857
G1 X225.476 Y195.238
G1 X227.857 Y197.619
G1 X225.476 Y200.000
G1 X227.857 Y202.381
G1 X230.238 Y200.000
G1 X232.619 Y202.381
G1 X235.000 Y200.000
G1 X232.619 Y197.619
G1 X235.000 Y195.238
G1 X232.619 Y192.857
G1 X235.000 Y190.476
G1 X237.381 Y192.857
G1 X239.762 Y190.476
G1 X242.143 Y192.857
G1 X244.524 Y190.476
G1 X242.143 Y188.095
G1 X244.524 Y185.714
G1 X242.143 Y183.333
G1 X239.762 Y185.714
G1 X237.381 Y183.333
G1 X235.000 Y185.714
G1 X232.619 Y183.333
G1 X235.000 Y180.952
G1 X232.619 Y178.571
G1 X235.000 Y176.190
G1 X232.619 Y173.810
G1 X230.238 Y176.190
G1 X227.857 Y173.810
G1 X225.476 Y176.190
G1 X227.857 Y178.571
G1 X225.476 Y180.952
G1 X227.857 Y183.333
G1 X225.476 Y185.714
G1 X223.095 Y183.333
G1 X220.714 Y185.714
G1 X218.333 Y183.333
G1 X215.952 Y185.714
G1 X213.571 Y183.333
G1 X215.952 Y180.952
G1 X213.571 Y178.571
G1 X215.952 Y176.190
G1 X213.571 Y173.810
G1 X215.952 Y171.429
G1 X218.333 Y173.810
G1 X220.714 Y171.429
G1 X223.095 Y173.810
G1 X225.476 Y171.429
G1 X223.095 Y169.048
G1 X225.476 Y166.667
G1 X223.095 Y164.286
G1 X220.714 Y166.667
G1 X218.333 Y164.286
G1 X215.952 Y166.667
G1 X213.571 Y164.286
G1 X215.952 Y161.905
G1 X213.571 Y159.524
G1 X215.952 Y157.143
G1 X213.571 Y154.762
G1 X215.952 Y152.381
G1 X218.333 Y154.762
G1 X220.714 Y152.381
G1 X223.095 Y154.762
G1 X225.476 Y152.381
G1 X227.857 Y154.762
G1 X225.476 Y157.143
G1 X227.857 Y159.524
G1 X225.476 Y161.905
G1 X227.857 Y164.286
G1 X230.238 Y161.905
G1 X232.619 Y164.286
G1 X235.000 Y161.905
G1 X232.619 Y159.524
G1 X235.000 Y157.143
G1 X232.619 Y154.762
G1 X235.000 Y152.381
G1 X237.381 Y154.762
G1 X239.762 Y152.381
G1 X242.143 Y154.762
G1 X244.524 Y152.381
G1 X246.905 Y154.762
G1 X244.524 Y157.143
G1 X246.905 Y159.524
G1 X244.524 Y161.905
G1 X246.905 Y164.286
G1 X244.524 Y166.667
G1 X242.143 Y164.286
G1 X239.762 Y166.667
G1 X237.381 Y164.286
G1 X235.000 Y166.667
G1 X237.381 Y169.048
G1 X235.000 Y171.429
G1 X237.381 Y173.810
G1 X239.762 Y171.429
G1 X242.143 Y173.810
G1 X244.524 Y171.429
G1 X246.905 Y173.810
G1 X244.524 Y176.190
G1 X246.905 Y178.571
G1 X244.524 Y180.952
G1 X246.905 Y183.333
G1 X249.286 Y180.952
G1 X251.667 Y183.333
G1 X254.048 Y180.952
G1 X251.667 Y178.571
G1 X254.048 Y176.190
G1 X251.667 Y173.810
G1 X254.048 Y171.429
G1 X256.429 Y173.810
G1 X258.810 Y171.429
G1 X261.190 Y173.810
G1 X263.571 Y171.429
G1 X261.190 Y169.048
G1 X263.571 Y166.667
G1 X261.190 Y164.286
G1 X258.810 Y166.667
G1 X256.429 Y164.286
G1 X254.048 Y166.667
G1 X251.667 Y164.286
G1 X254.048 Y161.905
G1 X251.667 Y159.524
G1 X254.048 Y157.143
G1 X251.667 Y154.762
G1 X254.048 Y152.381
G1 X256.429 Y154.762
G1 X258.810 Y152.381
G1 X261.190 Y154.762
G1 X263.571 Y152.381
G1 X265.952 Y154.762
G1 X263.571 Y157.143
G1 X265.952 Y159.524
G1 X263.571 Y161.905
G1 X265.952 Y164.286
G1 X268.333 Y161.905
G1 X270.000 Y163.571
G1 X270.000 Y174.524
G1 X268.333 Y176.190
G1 X265.952 Y173.810
G1 X263.571 Y176.190
G1 X265.952 Y178.571
G1 X263.571 Y180.952
G1 X265.952 Y183.333
G1 X263.571 Y185.714
G1 X261.190 Y183.333
G1 X258.810 Y185.714
G1 X256.429 Y183.333
G1 X254.048 Y185.714
G1 X256.429 Y188.095
G1 X254.048 Y190.476
G1 X256.429 Y192.857
G1 X258.810 Y190.476
G1 X261.190 Y192.857
G1 X263.571 Y190.476
G1 X265.952 Y192.857
G1 X263.571 Y195.238
G1 X265.952 Y197.619
G1 X263.571 Y200.000
G1 X265.952 Y202.381
G1 X268.333 Y200.000
G1 X270.000 Y201.667
G1 X270.000 Y212.619
G1 X268.333 Y214.286
G1 X265.952 Y211.905
G1 X263.571 Y214.286
G1 X265.952 Y216.667
G1 X263.571 Y219.048
G1 X265.952 Y221.429
G1 X263.571 Y223.810
G1 X261.190 Y221.429
G1 X258.810 Y223.810
G1 X256.429 Y221.429
G1 X254.048 Y223.810
G1 X251.667 Y221.429
G1 X254.048 Y219.048
G1 X251.667 Y216.667
G1 X254.048 Y214.286
G1 X251.667 Y211.905
G1 X254.048 Y209.524
G1 X256.429 Y211.905
G1 X258.810 Y209.524
G1 X261.190 Y211.905
G1 X263.571 Y209.524
G1 X261.190 Y207.143
G1 X263.571 Y204.762
G1 X261.190 Y202.381
G1 X258.810 Y204.762
G1 X256.429 Y202.381
G1 X254.048 Y204.762
G1 X251.667 Y202.381
G1 X254.048 Y200.000
G1 X251.667 Y197.619
G1 X254.048 Y195.238
G1 X251.667 Y192.857
G1 X249.286 Y195.238
G1 X246.905 Y192.857
G1 X244.524 Y195.238
G1 X246.905 Y197.619
G1 X244.524 Y200.000
G1 X246.905 Y202.381
G1 X244.524 Y204.762
G1 X242.143 Y202.381
G1 X239.762 Y204.762
G1 X237.381 Y202.381
G1 X235.000 Y204.762
G1 X237.381 Y207.143
G1 X235.000 Y209.524
G1 X237.381 Y211.905
G1 X239.762 Y209.524
G1 X242.143 Y211.905
G1 X244.524 Y209.524
G1 X246.905 Y211.905
G1 X244.524 Y214.286
G1 X246.905 Y216.667
G1 X244.524 Y219.048
G1 X246.905 Y221.429
G1 X244.524 Y223.810
G1 X242.143 Y221.429
G1 X239.762 Y223.810
G1 X237.381 Y221.429
G1 X235.000 Y223.810
G1 X232.619 Y221.429
G1 X235.000 Y219.048
G1 X232.619 Y216.667
G1 X235.000 Y214.286
G1 X232.619 Y211.905
G1 X230.238 Y214.286
G1 X227.857 Y211.905
G1 X225.476 Y214.286
G1 X227.857 Y216.667
G1 X225.476 Y219.048
G1 X227.857 Y221.429
G1 X225.476 Y223.810
G1 X223.095 Y221.429
G1 X220.714 Y223.810
G1 X218.333 Y221.429
G1 X215.952 Y223.810
G1 X218.333 Y226.190
G1 X215.952 Y228.571
G1 X218.333 Y230.952
G1 X220.714 Y228.571
G1 X223.095 Y230.952
G1 X225.476 Y228.571
G1 X227.857 Y230.952
G1 X225.476 Y233.333
G1 X227.857 Y235.714
G1 X225.476 Y238.095
G1 X227.857 Y240.476
G1 X230.238 Y238.095
G1 X232.619 Y240.476
G1 X235.000 Y238.095
G1 X232.619 Y235.714
G1 X235.000 Y233.333
G1 X232.619 Y230.952
G1 X235.000 Y228.571
G1 X237.381 Y230.952
G1 X239.762 Y228.571
G1 X242.143 Y230.952
G1 X244.524 Y228.571
G1 X246.905 Y230.952
G1 X244.524 Y233.333
G1 X246.905 Y235.714
G1 X244.524 Y238.095
G1 X246.905 Y240.476
G1 X244.524 Y242.857
G1 X242.143 Y240.476
G1 X239.762 Y242.857
G1 X237.381 Y240.476
G1 X235.000 Y242.857
G1 X237.381 Y245.238
G1 X235.000 Y247.619
G1 X237.381 Y250.000
G1 X239.762 Y247.619
G1 X242.143 Y250.000
G1 X244.524 Y247.619
G1 X246.905 Y250.000
G1 X244.524 Y252.381
G1 X246.905 Y254.762
G1 X244.524 Y257.143
G1 X246.905 Y259.524
G1 X249.286 Y257.143
G1 X251.667 Y259.524
G1 X254.048 Y257.143
G1 X251.667 Y254.762
G1 X254.048 Y252.381
G1 X251.667 Y250.000
G1 X254.048 Y247.619
G1 X256.429 Y250.000
G1 X258.810 Y247.619
G1 X261.190 Y250.000
G1 X263.571 Y247.619
G1 X261.190 Y245.238
G1 X263.571 Y242.857
G1 X261.190 Y240.476
G1 X258.810 Y242.857
G1 X256.429 Y240.476
G1 X254.048 Y242.857
G1 X251.667 Y240.476
G1 X254.048 Y238.095
G1 X251.667 Y235.714
G1 X254.048 Y233.333
G1 X251.667 Y230.952
G1 X254.048 Y228.571
G1 X256.429 Y230.952
G1 X258.810 Y228.571
G1 X261.190 Y230.952
G1 X263.571 Y228.571
G1 X265.952 Y230.952
G1 X263.571 Y233.333
G1 X265.952 Y235.714
G1 X263.571 Y238.095
G1 X265.952 Y240.476
G1 X268.333 Y238.095
G1 X270.000 Y239.762
G1 X270.000 Y250.714
G1 X268.333 Y252.381
G1 X265.952 Y250.000
G1 X263.571 Y252.381
G1 X265.952 Y254.762
G1 X263.571 Y257.143
G1 X265.952 Y259.524
G1 X263.571 Y261.905
G1 X261.190 Y259.524
G1 X258.810 Y261.905
G1 X256.429 Y259.524
G1 X254.048 Y261.905
G1 X256.429 Y264.286
G1 X254.048 Y266.667
G1 X256.429 Y269.048
G1 X258.810 Y266.667
G1 X261.190 Y269.048
G1 X263.571 Y266.667
G1 X265.952 Y269.048
G1 X263.571 Y271.429
G1 X265.952 Y273.810
G1 X263.571 Y276.190
G1 X265.952 Y278.571
G1 X268.333 Y276.190
G1 X270.000 Y277.857
G1 X270.000 Y288.810
G1 X268.333 Y290.476
G1 X265.952 Y288.095
G1 X263.571 Y290.476
G1 X265.952 Y292.857
G1 X263.571 Y295.238
G1 X265.952 Y297.619
G1 X263.571 Y300.000
G1 X261.190 Y297.619
G1 X258.810 Y300.000
G1 X256.429 Y297.619
G1 X254.048 Y300.000
G1 X251.667 Y297.619
G1 X254.048 Y295.238
G1 X251.667 Y292.857
G1 X254.048 Y290.476
G1 X251.667 Y288.095
G1 X254.048 Y285.714
G1 X256.429 Y288.095
G1 X258.810 Y285.714
G1 X261.190 Y288.095
G1 X263.571 Y285.714
G1 X261.190 Y283.333
G1 X263.571 Y280.952
G1 X261.190 Y278.571
G1 X258.810 Y280.952
G1 X256.429 Y278.571
G1 X254.048 Y280.952
G1 X251.667 Y278.571
G1 X254.048 Y276.190
G1 X251.667 Y273.810
G1 X254.048 Y271.429
G1 X251.667 Y269.048
G1 X249.286 Y271.429
G1 X246.905 Y269.048
G1 X244.524 Y271.429
G1 X246.905 Y273.810
G1 X244.524 Y276.190
G1 X246.905 Y278.571
G1 X244.524 Y280.952
G1 X242.143 Y278.571
G1 X239.762 Y280.952
G1 X237.381 Y278.571
G1 X235.000 Y280.952
G1 X237.381 Y283.333
G1 X235.000 Y285.714
G1 X237.381 Y288.095
G1 X239.762 Y285.714
G1 X242.143 Y288.095
G1 X244.524 Y285.714
G1 X246.905 Y288.095
G1 X244.524 Y290.476
G1 X246.905 Y292.857
G1 X244.524 Y295.238
G1 X246.905 Y297.619
G1 X244.524 Y300.000
G1 X242.143 Y297.619
G1 X239.762 Y300.000
G1 X237.381 Y297.619
G1 X235.000 Y300.000
G1 X232.619 Y297.619
G1 X235.000 Y295.238
G1 X232.619 Y292.857
G1 X235.000 Y290.476
G1 X232.619 Y288.095
G1 X230.238 Y290.476
G1 X227.857 Y288.095
G1 X225.476 Y290.476
G1 X227.857 Y292.857
G1 X225.476 Y295.238
G1 X227.857 Y297.619
G1 X225.476 Y300.000
G1 X223.095 Y297.619
G1 X220.714 Y300.000
G1 X218.333 Y297.619
G1 X215.952 Y300.000
G1 X213.571 Y297.619
G1 X215.952 Y295.238
G1 X213.571 Y292.857
G1 X215.952 Y290.476
G1 X213.571 Y288.095
G1 X215.952 Y285.714
G1 X218.333 Y288.095
G1 X220.714 Y285.714
G1 X223.095 Y288.095
G1 X225.476 Y285.714
G1 X223.095 Y283.333
G1 X225.476 Y280.952
G1 X223.095 Y278.571
G1 X220.714 Y280.952
G1 X218.333 Y278.571
G1 X215.952 Y280.952
G1 X213.571 Y278.571
G1 X215.952 Y276.190
G1 X213.571 Y273.810
G1 X215.952 Y271.429
G1 X213.571 Y269.048
G1 X215.952 Y266.667
G1 X218.333 Y269.048
G1 X220.714 Y266.667
G1 X223.095 Y269.048
G1 X225.476 Y266.667
G1 X227.857 Y269.048
G1 X225.476 Y271.429
G1 X227.857 Y273.810
G1 X225.476 Y276.190
G1 X227.857 Y278.571
G1 X230.238 Y276.190
G1 X232.619 Y278.571
G1 X235.000 Y276.190
G1 X232.619 Y273.810
G1 X235.000 Y271.429
G1 X232.619 Y269.048
G1 X235.000 Y266.667
G1 X237.381 Y269.048
G1 X239.762 Y266.667
G1 X242.143 Y269.048
G1 X244.524 Y266.667
G1 X242.143 Y264.286
G1 X244.524 Y261.905
G1 X242.143 Y259.524
G1 X239.762 Y261.905
G1 X237.381 Y259.524
G1 X235.000 Y261.905
G1 X232.619 Y259.524
G1 X235.000 Y257.143
G1 X232.619 Y254.762
G1 X235.000 Y252.381
G1 X232.619 Y250.000
G1 X230.238 Y252.381
G1 X227.857 Y250.000
G1 X225.476 Y252.381
G1 X227.857 Y254.762
G1 X225.476 Y257.143
G1 X227.857 Y259.524
G1 X225.476 Y261.905
G1 X223.095 Y259.524
G1 X220.714 Y261.905
G1 X218.333 Y259.524
G1 X215.952 Y261.905
G1 X213.571 Y259.524
G1 X215.952 Y257.143
G1 X213.571 Y254.762
G1 X215.952 Y252.381
G1 X213.571 Y250.000
G1 X215.952 Y247.619
G1 X218.333 Y250.000
G1 X220.714 Y247.619
G1 X223.095 Y250.000
G1 X225.476 Y247.619
G1 X223.095 Y245.238
G1 X225.476 Y242.857
G1 X223.095 Y240.476
G1 X220.714 Y242.857
G1 X218.333 Y240.476
G1 X215.952 Y242.857
G1 X213.571 Y240.476
G1 X215.952 Y238.095
G1 X213.571 Y235.714
G1 X215.952 Y233.333
G1 X213.571 Y230.952
G1 X211.190 Y233.333
G1 X208.810 Y230.952
G1 X206.429 Y233.333
G1 X208.810 Y235.714
G1 X206.429 Y238.095
G1 X208.810 Y240.476
G1 X206.429 Y242.857
G1 X204.048 Y240.476
G1 X201.667 Y242.857
G1 X199.286 Y240.476
G1 X196.905 Y242.857
G1 X199.286 Y245.238
G1 X196.905 Y247.619
G1 X199.286 Y250.000
G1 X201.667 Y247.619
G1 X204.048 Y250.000
G1 X206.429 Y247.619
G1 X208.810 Y250.000
G1 X206.429 Y252.381
G1 X208.810 Y254.762
G1 X206.429 Y257.143
G1 X208.810 Y259.524
G1 X206.429 Y261.905
G1 X204.048 Y259.524
G1 X201.667 Y261.905
G1 X199.286 Y259.524
G1 X196.905 Y261.905
G1 X194.524 Y259.524
G1 X196.905 Y257.143
G1 X194.524 Y254.762
G1 X196.905 Y252.381
G1 X194.524 Y250.000
G1 X192.143 Y252.381
G1 X189.762 Y250.000
G1 X187.381 Y252.381
G1 X189.762 Y254.762
G1 X187.381 Y257.143
G1 X189.762 Y259.524
G1 X187.381 Y261.905
G1 X185.000 Y259.524
G1 X182.619 Y261.905
G1 X180.238 Y259.524
G1 X177.857 Y261.905
G1 X180.238 Y264.286
G1 X177.857 Y266.667
G1 X180.238 Y269.048
G1 X182.619 Y266.667
G1 X185.000 Y269.048
G1 X187.381 Y266.667
G1 X189.762 Y269.048
G1 X187.381 Y271.429
G1 X189.762 Y273.810
G1 X187.381 Y276.190
G1 X189.762 Y278.571
G1 X192.143 Y276.190
G1 X194.524 Y278.571
G1 X196.905 Y276.190
G1 X194.524 Y273.810
G1 X196.905 Y271.429
G1 X194.524 Y269.048
G1 X196.905 Y266.667
G1 X199.286 Y269.048
G1 X201.667 Y266.667
G1 X204.048 Y269.048
G1 X206.429 Y266.667
G1 X208.810 Y269.048
G1 X206.429 Y271.429
G1 X208.810 Y273.810
G1 X206.429 Y276.190
G1 X208.810 Y278.571
G1 X206.429 Y280.952
G1 X204.048 Y278.571
G1 X201.667 Y280.952
G1 X199.286 Y278.571
G1 X196.905 Y280.952
G1 X199.286 Y283.333
G1 X196.905 Y285.714
G1 X199.286 Y288.095
G1 X201.667 Y285.714
G1 X204.048 Y288.095
G1 X206.429 Y285.714
G1 X208.810 Y288.095
G1 X206.429 Y290.476
G1 X208.810 Y292.857
G1 X206.429 Y295.238
G1 X208.810 Y297.619
G1 X206.429 Y300.000
G1 X204.048 Y297.619
G1 X201.667 Y300.000
G1 X199.286 Y297.619
G1 X196.905 Y300.000
G1 X194.524 Y297.619
G1 X196.905 Y295.238
G1 X194.524 Y292.857
G1 X196.905 Y290.476
G1 X194.524 Y288.095
G1 X192.143 Y290.476
G1 X189.762 Y288.095
G1 X187.381 Y290.476
G1 X189.762 Y292.857
G1 X187.381 Y295.238
G1 X189.762 Y297.619
G1 X187.381 Y300.000
G1 X185.000 Y297.619
G1 X182.619 Y300.000
G1 X180.238 Y297.619
G1 X177.857 Y300.000
G1 X175.476 Y297.619
G1 X177.857 Y295.238
G1 X175.476 Y292.857
G1 X177.857 Y290.476
G1 X175.476 Y288.095
G1 X177.857 Y285.714
G1 X180.238 Y288.095
G1 X182.619 Y285.714
G1 X185.000 Y288.095
G1 X187.381 Y285.714
G1 X185.000 Y283.333
G1 X187.381 Y280.952
G1 X185.000 Y278.571
G1 X182.619 Y280.952
G1 X180.238 Y278.571
G1 X177.857 Y280.952
G1 X175.476 Y278.571
G1 X177.857 Y276.190
G1 X175.476 Y273.810
G1 X177.857 Y271.429
G1 X175.476 Y269.048
G1 X173.095 Y271.429
G1 X170.714 Y269.048
G1 X168.333 Y271.429
G1 X170.714 Y273.810
G1 X168.333 Y276.190
G1 X170.714 Y278.571
G1 X168.333 Y280.952
G1 X165.952 Y278.571
G1 X163.571 Y280.952
G1 X161.190 Y278.571
G1 X158.810 Y280.952
G1 X161.190 Y283.333
G1 X158.810 Y285.714
G1 X161.190 Y288.095
G1 X163.571 Y285.714
G1 X165.952 Y288.095
G1 X168.333 Y285.714
G1 X170.714 Y288.095
G1 X168.333 Y290.476
G1 X170.714 Y292.857
G1 X168.333 Y295.238
G1 X170.714 Y297.619
G1 X168.333 Y300.000
G1 X165.952 Y297.619
G1 X163.571 Y300.000
G1 X161.190 Y297.619
G1 X158.810 Y300.000
G1 X156.429 Y297.619
G1 X158.810 Y295.238
G1 X156.429 Y292.857
G1 X158.810 Y290.476
G1 X156.429 Y288.095
G1 X154.048 Y290.476
G1 X151.667 Y288.095
G1 X149.286 Y290.476
G1 X151.667 Y292.857
G1 X149.286 Y295.238
G1 X151.667 Y297.619
G1 X149.286 Y300.000
G1 X146.905 Y297.619
G1 X144.524 Y300.000
G1 X142.143 Y297.619
G1 X139.762 Y300.000
G1 X137.381 Y297.619
G1 X139.762 Y295.238
G1 X137.381 Y292.857
G1 X139.762 Y290.476
G1 X137.381 Y288.095
G1 X139.762 Y285.714
G1 X142.143 Y288.095
G1 X144.524 Y285.714
G1 X146.905 Y288.095
G1 X149.286 Y285.714
G1 X146.905 Y283.333
G1 X149.286 Y280.952
G1 X146.905 Y278.571
G1 X144.524 Y280.952
G1 X142.143 Y278.571
G1 X139.762 Y280.952
G1 X137.381 Y278.571
G1 X139.762 Y276.190
G1 X137.381 Y273.810
G1 X139.762 Y271.429
G1 X137.381 Y269.048
G1 X139.762 Y266.667
G1 X142.143 Y269.048
G1 X144.524 Y266.667
G1 X146.905 Y269.048
G1 X149.286 Y266.667
G1 X151.667 Y269.048
G1 X149.286 Y271.429
G1 X151.667 Y273.810
G1 X149.286 Y276.190
G1 X151.667 Y278.571
G1 X154.048 Y276.190
G1 X156.429 Y278.571
G1 X158.810 Y276.190
G1 X156.429 Y273.810
G1 X158.810 Y271.429
G1 X156.429 Y269.048
G1 X158.810 Y266.667
G1 X161.190 Y269.048
G1 X163.571 Y266.667
G1 X165.952 Y269.048
G1 X168.333 Y266.667
G1 X165.952 Y264.286
G1 X168.333 Y261.905
G1 X165.952 Y259.524
G1 X163.571 Y261.905
G1 X161.190 Y259.524
G1 X158.810 Y261.905
G1 X156.429 Y259.524
G1 X158.810 Y257.143
G1 X156.429 Y254.762
G1 X158.810 Y252.381
G1 X156.429 Y250.000
G1 X154.048 Y252.381
G1 X151.667 Y250.000
G1 X149.286 Y252.381
G1 X151.667 Y254.762
G1 X149.286 Y257.143
G1 X151.667 Y259.524
G1 X149.286 Y261.905
G1 X146.905 Y259.524
G1 X144.524 Y261.905
G1 X142.143 Y259.524
G1 X139.762 Y261.905
G1 X137.381 Y259.524
G1 X139.762 Y257.143
G1 X137.381 Y254.762
G1 X139.762 Y252.381
G1 X137.381 Y250.000
G1 X139.762 Y247.619
G1 X142.143 Y250.000
G1 X144.524 Y247.619
G1 X146.905 Y250.000
G1 X149.286 Y247.619
G1 X146.905 Y245.238
G1 X149.286 Y242.857
G1 X146.905 Y240.476
G1 X144.524 Y242.857
G1 X142.143 Y240.476
G1 X139.762 Y242.857
G1 X137.381 Y240.476
G1 X139.762 Y238.095
G1 X137.381 Y235.714
G1 X139.762 Y233.333
G1 X137.381 Y230.952
G1 X139.762 Y228.571
G1 X142.143 Y230.952
G1 X144.524 Y228.571
G1 X146.905 Y230.952
G1 X149.286 Y228.571
G1 X151.667 Y230.952
G1 X149.286 Y233.333
G1 X151.667 Y235.714
G1 X149.286 Y238.095
G1 X151.667 Y240.476
G1 X154.048 Y238.095
G1 X156.429 Y240.476
G1 X158.810 Y238.095
G1 X156.429 Y235.714
G1 X158.810 Y233.333
G1 X156.429 Y230.952
G1 X158.810 Y228.571
G1 X161.190 Y230.952
G1 X163.571 Y228.571
G1 X165.952 Y230.952
G1 X168.333 Y228.571
G1 X170.714 Y230.952
G1 X168.333 Y233.333
G1 X170.714 Y235.714
G1 X168.333 Y238.095
G1 X170.714 Y240.476
G1 X168.333 Y242.857
G1 X165.952 Y240.476
G1 X163.571 Y242.857
G1 X161.190 Y240.476
G1 X158.810 Y242.857
G1 X161.190 Y245.238
G1 X158.810 Y247.619
G1 X161.190 Y250.000
G1 X163.571 Y247.619
G1 X165.952 Y250.000
G1 X168.333 Y247.619
G1 X170.714 Y250.000
G1 X168.333 Y252.381
G1 X170.714 Y254.762
G1 X168.333 Y257.143
G1 X170.714 Y259.524
G1 X173.095 Y257.143
G1 X175.476 Y259.524
G1 X177.857 Y257.143
G1 X175.476 Y254.762
G1 X177.857 Y252.381
G1 X175.476 Y250.000
G1 X177.857 Y247.619
G1 X180.238 Y250.000
G1 X182.619 Y247.619
G1 X185.000 Y250.000
G1 X187.381 Y247.619
G1 X185.000 Y245.238
G1 X187.381 Y242.857
G1 X185.000 Y240.476
G1 X182.619 Y242.857
G1 X180.238 Y240.476
G1 X177.857 Y242.857
G1 X175.476 Y240.476
G1 X177.857 Y238.095
G1 X175.476 Y235.714
G1 X177.857 Y233.333
G1 X175.476 Y230.952
G1 X177.857 Y228.571
G1 X180.238 Y230.952
G1 X182.619 Y228.571
G1 X185.000 Y230.952
G1 X187.381 Y228.571
G1 X189.762 Y230.952
G1 X187.381 Y233.333
G1 X189.762 Y235.714
G1 X187.381 Y238.095
G1 X189.762 Y240.476
G1 X192.143 Y238.095
G1 X194.524 Y240.476
G1 X196.905 Y238.095
G1 X194.524 Y235.714
G1 X196.905 Y233.333
G1 X194.524 Y230.952
G1 X196.905 Y228.571
G1 X199.286 Y230.952
G1 X201.667 Y228.571
G1 X204.048 Y230.952
G1 X206.429 Y228.571
G1 X204.048 Y226.190
G1 X206.429 Y223.810
G1 X204.048 Y221.429
G1 X201.667 Y223.810
G1 X199.286 Y221.429
G1 X196.905 Y223.810
G1 X194.524 Y221.429
G1 X196.905 Y219.048
G1 X194.524 Y216.667
G1 X196.905 Y214.286
G1 X194.524 Y211.905
G1 X192.143 Y214.286
G1 X189.762 Y211.905
G1 X187.381 Y214.286
G1 X189.762 Y216.667
G1 X187.381 Y219.048
G1 X189.762 Y221.429
G1 X187.381 Y223.810
G1 X185.000 Y221.429
G1 X182.619 Y223.810
G1 X180.238 Y221.429
G1 X177.857 Y223.810
G1 X175.476 Y221.429
G1 X177.857 Y219.048
G1 X175.476 Y216.667
G1 X177.857 Y214.286
G1 X175.476 Y211.905
G1 X177.857 Y209.524
G1 X180.238 Y211.905
G1 X182.619 Y209.524
G1 X185.000 Y211.905
G1 X187.381 Y209.524
G1 X185.000 Y207.143
G1 X187.381 Y204.762
G1 X185.000 Y202.381
G1 X182.619 Y204.762
G1 X180.238 Y202.381
G1 X177.857 Y204.762
G1 X175.476 Y202.381
G1 X177.857 Y200.000
G1 X175.476 Y197.619
G1 X177.857 Y195.238
G1 X175.476 Y192.857
G1 X173.095 Y195.238
G1 X170.714 Y192.857
G1 X168.333 Y195.238
G1 X170.714 Y197.619
G1 X168.333 Y200.000
G1 X170.714 Y202.381
G1 X168.333 Y204.762
G1 X165.952 Y202.381
G1 X163.571 Y204.762
G1 X161.190 Y202.381
G1 X158.810 Y204.762
G1 X161.190 Y207.143
G1 X158.810 Y209.524
G1 X161.190 Y211.905
G1 X163.571 Y209.524
G1 X165.952 Y211.905
G1 X168.333 Y209.524
G1 X170.714 Y211.905
G1 X168.333 Y214.286
G1 X170.714 Y216.667
G1 X168.333 Y219.048
G1 X170.714 Y221.429
G1 X168.333 Y223.810
G1 X165.952 Y221.429
G1 X163.571 Y223.810
G1 X161.190 Y221.429
G1 X158.810 Y223.810
G1 X156.429 Y221.429
G1 X158.810 Y219.048
G1 X156.429 Y216.667
G1 X158.810 Y214.286
G1 X156.429 Y211.905
G1 X154.048 Y214.286
G1 X151.667 Y211.905
G1 X149.286 Y214.286
G1 X151.667 Y216.667
G1 X149.286 Y219.048
G1 X151.667 Y221.429
G1 X149.286 Y223.810
G1 X146.905 Y221.429
G1 X144.524 Y223.810
G1 X142.143 Y221.429
G1 X139.762 Y223.810
G1 X137.381 Y221.429
G1 X139.762 Y219.048
G1 X137.381 Y216.667
G1 X139.762 Y214.286
G1 X137.381 Y211.905
G1 X139.762 Y209.524
G1 X142.143 Y211.905
G1 X144.524 Y209.524
G1 X146.905 Y211.905
G1 X149.286 Y209.524
G1 X146.905 Y207.143
G1 X149.286 Y204.762
G1 X146.905 Y202.381
G1 X144.524 Y204.762
G1 X142.143 Y202.381
G1 X139.762 Y204.762
G1 X137.381 Y202.381
G1 X139.762 Y200.000
G1 X137.381 Y197.619
G1 X139.762 Y195.238
G1 X137.381 Y192.857
G1 X139.762 Y190.476
G1 X142.143 Y192.857
G1 X144.524 Y190.476
G1 X146.905 Y192.857
G1 X149.286 Y190.476
G1 X151.667 Y192.857
G1 X149.286 Y195.238
G1 X151.667 Y197.619
G1 X149.286 Y200.000
G1 X151.667 Y202.381
G1 X154.048 Y200.000
G1 X156.429 Y202.381
G1 X158.810 Y200.000
G1 X156.429 Y197.619
G1 X158.810 Y195.238
G1 X156.429 Y192.857
G1 X158.810 Y190.476
G1 X161.190 Y192.857
G1 X163.571 Y190.476
G1 X165.952 Y192.857
G1 X168.333 Y190.476
G1 X165.952 Y188.095
G1 X168.333 Y185.714
G1 X165.952 Y183.333
G1 X163.571 Y185.714
G1 X161.190 Y183.333
G1 X158.810 Y185.714
G1 X156.429 Y183.333
G1 X158.810 Y180.952
G1 X156.429 Y178.571
G1 X158.810 Y176.190
G1 X156.429 Y173.810
G1 X154.048 Y176.190
G1 X151.667 Y173.810
G1 X149.286 Y176.190
G1 X151.667 Y178.571
G1 X149.286 Y180.952
G1 X151.667 Y183.333
G1 X149.286 Y185.714
G1 X146.905 Y183.333
G1 X144.524 Y185.714
G1 X142.143 Y183.333
G1 X139.762 Y185.714
G1 X137.381 Y183.333
G1 X139.762 Y180.952
G1 X137.381 Y178.571
G1 X139.762 Y176.190
G1 X137.381 Y173.810
G1 X139.762 Y171.429
G1 X142.143 Y173.810
G1 X144.524 Y171.429
G1 X146.905 Y173.810
G1 X149.286 Y171.429
G1 X146.905 Y169.048
G1 X149.286 Y166.667
G1 X146.905 Y164.286
G1 X144.524 Y166.667
G1 X142.143 Y164.286
G1 X139.762 Y166.667
G1 X137.381 Y164.286
G1 X139.762 Y161.905
G1 X137.381 Y159.524
G1 X139.762 Y157.143
G1 X137.381 Y154.762
G1 X135.000 Y157.143
G1 X132.619 Y154.762
G1 X130.238 Y157.143
G1 X132.619 Y159.524
G1 X130.238 Y161.905
G1 X132.619 Y164.286
G1 X130.238 Y166.667
G1 X127.857 Y164.286
G1 X125.476 Y166.667
G1 X123.095 Y164.286
G1 X120.714 Y166.667
G1 X123.095 Y169.048
G1 X120.714 Y171.429
G1 X123.095 Y173.810
G1 X125.476 Y171.429
G1 X127.857 Y173.810
G1 X130.238 Y171.429
G1 X132.619 Y173.810
G1 X130.238 Y176.190
G1 X132.619 Y178.571
G1 X130.238 Y180.952
G1 X132.619 Y183.333
G1 X130.238 Y185.714
G1 X127.857 Y183.333
G1 X125.476 Y185.714
G1 X123.095 Y183.333
G1 X120.714 Y185.714
G1 X118.333 Y183.333
G1 X120.714 Y180.952
G1 X118.333 Y178.571
G1 X120.714 Y176.190
G1 X118.333 Y173.810
G1 X115.952 Y176.190
G1 X113.571 Y173.810
G1 X111.190 Y176.190
G1 X113.571 Y178.571
G1 X111.190 Y180.952
G1 X113.571 Y183.333
G1 X111.190 Y185.714
G1 X108.810 Y183.333
G1 X106.429 Y185.714
G1 X104.048 Y183.333
G1 X101.667 Y185.714
G1 X104.048 Y188.095
G1 X101.667 Y190.476
G1 X104.048 Y192.857
G1 X106.429 Y190.476
G1 X108.810 Y192.857
G1 X111.190 Y190.476
G1 X113.571 Y192.857
G1 X111.190 Y195.238
G1 X113.571 Y197.619
G1 X111.190 Y200.000
G1 X113.571 Y202.381
G1 X115.952 Y200.000
G1 X118.333 Y202.381
G1 X120.714 Y200.000
G1 X118.333 Y197.619
G1 X120.714 Y195.238
G1 X118.333 Y192.857
G1 X120.714 Y190.476
G1 X123.095 Y192.857
G1 X125.476 Y190.476
G1 X127.857 Y192.857
G1 X130.238 Y190.476
G1 X132.619 Y192.857
G1 X130.238 Y195.238
G1 X132.619 Y197.619
G1 X130.238 Y200.000
G1 X132.619 Y202.381
G1 X130.238 Y204.762
G1 X127.857 Y202.381
G1 X125.476 Y204.762
G1 X123.095 Y202.381
G1 X120.714 Y204.762
G1 X123.095 Y207.143
G1 X120.714 Y209.524
G1 X123.095 Y211.905
G1 X125.476 Y209.524
G1 X127.857 Y211.905
G1 X130.238 Y209.524
G1 X132.619 Y211.905
G1 X130.238 Y214.286
G1 X132.619 Y216.667
G1 X130.238 Y219.048
G1 X132.619 Y221.429
G1 X130.238 Y223.810
G1 X127.857 Y221.429
G1 X125.476 Y223.810
G1 X123.095 Y221.429
G1 X120.714 Y223.810
G1 X118.333 Y221.429
G1 X120.714 Y219.048
G1 X118.333 Y216.667
G1 X120.714 Y214.286
G1 X118.333 Y211.905
G1 X115.952 Y214.286
G1 X113.571 Y211.905
G1 X111.190 Y214.286
G1 X113.571 Y216.667
G1 X111.190 Y219.048
G1 X113.571 Y221.429
G1 X111.190 Y223.810
G1 X108.810 Y221.429
G1 X106.429 Y223.810
G1 X104.048 Y221.429
G1 X101.667 Y223.810
G1 X99.286 Y221.429
G1 X101.667 Y219.048
G1 X99.286 Y216.667
G1 X101.667 Y214.286
G1 X99.286 Y211.905
G1 X101.667 Y209.524
G1 X104.048 Y211.905
G1 X106.429 Y209.524
G1 X108.810 Y211.905
G1 X111.190 Y209.524
G1 X108.810 Y207.143
G1 X111.190 Y204.762
G1 X108.810 Y202.381
G1 X106.429 Y204.762
G1 X104.048 Y202.381
G1 X101.667 Y204.762
G1 X99.286 Y202.381
G1 X101.667 Y200.000
G1 X99.286 Y197.619
G1 X101.667 Y195.238
G1 X99.286 Y192.857
G1 X96.905 Y195.238
G1 X94.524 Y192.857
G1 X92.143 Y195.238
G1 X94.524 Y197.619
G1 X92.143 Y200.000
G1 X94.524 Y202.381
G1 X92.143 Y204.762
G1 X89.762 Y202.381
G1 X87.381 Y204.762
G1 X85.000 Y202.381
G1 X82.619 Y204.762
G1 X85.000 Y207.143
G1 X82.619 Y209.524
G1 X85.000 Y211.905
G1 X87.381 Y209.524
G1 X89.762 Y211.905
G1 X92.143 Y209.524
G1 X94.524 Y211.905
G1 X92.143 Y214.286
G1 X94.524 Y216.667
G1 X92.143 Y219.048
G1 X94.524 Y221.429
G1 X92.143 Y223.810
G1 X89.762 Y221.429
G1 X87.381 Y223.810
G1 X85.000 Y221.429
G1 X82.619 Y223.810
G1 X80.238 Y221.429
G1 X82.619 Y219.048
G1 X80.238 Y216.667
G1 X82.619 Y214.286
G1 X80.238 Y211.905
G1 X77.857 Y214.286
G1 X75.476 Y211.905
G1 X73.095 Y214.286
G1 X75.476 Y216.667
G1 X73.095 Y219.048
G1 X75.476 Y221.429
G1 X73.095 Y223.810
G1 X70.714 Y221.429
G1 X68.333 Y223.810
G1 X65.952 Y221.429
G1 X63.571 Y223.810
G1 X65.952 Y226.190
G1 X63.571 Y228.571
G1 X65.952 Y230.952
G1 X68.333 Y228.571
G1 X70.714 Y230.952
G1 X73.095 Y228.571
G1 X75.476 Y230.952
G1 X73.095 Y233.333
G1 X75.476 Y235.714
G1 X73.095 Y238.095
G1 X75.476 Y240.476
G1 X77.857 Y238.095
G1 X80.238 Y240.476
G1 X82.619 Y238.095
G1 X80.238 Y235.714
G1 X82.619 Y233.333
G1 X80.238 Y230.952
G1 X82.619 Y228.571
G1 X85.000 Y230.952
G1 X87.381 Y228.571
G1 X89.762 Y230.952
G1 X92.143 Y228.571
G1 X94.524 Y230.952
G1 X92.143 Y233.333
G1 X94.524 Y235.714
G1 X92.143 Y238.095
G1 X94.524 Y240.476
G1 X92.143 Y242.857
G1 X89.762 Y240.476
G1 X87.381 Y242.857
G1 X85.000 Y240.476
G1 X82.619 Y242.857
G1 X85.000 Y245.238
G1 X82.619 Y247.619
G1 X85.000 Y250.000
G1 X87.381 Y247.619
G1 X89.762 Y250.000
G1 X92.143 Y247.619
G1 X94.524 Y250.000
G1 X92.143 Y252.381
G1 X94.524 Y254.762
G1 X92.143 Y257.143
G1 X94.524 Y259.524
G1 X96.905 Y257.143
G1 X99.286 Y259.524
G1 X101.667 Y257.143
G1 X99.286 Y254.762
G1 X101.667 Y252.381
G1 X99.286 Y250.000
G1 X101.667 Y247.619
G1 X104.048 Y250.000
G1 X106.429 Y247.619
G1 X108.810 Y250.000
G1 X111.190 Y247.619
G1 X108.810 Y245.238
G1 X111.190 Y242.857
G1 X108.810 Y240.476
G1 X106.429 Y242.857
G1 X104.048 Y240.476
G1 X101.667 Y242.857
G1 X99.286 Y240.476
G1 X101.667 Y238.095
G1 X99.286 Y235.714
G1 X101.667 Y233.333
G1 X99.286 Y230.952
G1 X101.667 Y228.571
G1 X104.048 Y230.952
G1 X106.429 Y228.571
G1 X108.810 Y230.952
G1 X111.190 Y228.571
G1 X113.571 Y230.952
G1 X111.190 Y233.333
G1 X113.571 Y235.714
G1 X111.190 Y238.095
G1 X113.571 Y240.476
G1 X115.952 Y238.095
G1 X118.333 Y240.476
G1 X120.714 Y238.095
G1 X118.333 Y235.714
G1 X120.714 Y233.333
G1 X118.333 Y230.952
G1 X120.714 Y228.571
G1 X123.095 Y230.952
G1 X125.476 Y228.571
G1 X127.857 Y230.952
G1 X130.238 Y228.571
G1 X132.619 Y230.952
G1 X130.238 Y233.333
G1 X132.619 Y235.714
G1 X130.238 Y238.095
G1 X132.619 Y240.476
G1 X130.238 Y242.857
G1 X127.857 Y240.476
G1 X125.476 Y242.857
G1 X123.095 Y240.476
G1 X120.714 Y242.857
G1 X123.095 Y245.238
G1 X120.714 Y247.619
G1 X123.095 Y250.000
G1 X125.476 Y247.619
G1 X127.857 Y250.000
G1 X130.238 Y247.619
G1 X132.619 Y250.000
G1 X130.238 Y252.381
G1 X132.619 Y254.762
G1 X130.238 Y257.143
G1 X132.619 Y259.524
G1 X130.238 Y261.905
G1 X127.857 Y259.524
G1 X125.476 Y261.905
G1 X123.095 Y259.524
G1 X120.714 Y261.905
G1 X118.333 Y259.524
G1 X120.714 Y257.143
G1 X118.333 Y254.762
G1 X120.714 Y252.381
G1 X118.333 Y250.000
G1 X115.952 Y252.381
G1 X113.571 Y250.000
G1 X111.190 Y252.381
G1 X113.571 Y254.762
G1 X111.190 Y257.143
G1 X113.571 Y259.524
G1 X111.190 Y261.905
G1 X108.810 Y259.524
G1 X106.429 Y261.905
G1 X104.048 Y259.524
G1 X101.667 Y261.905
G1 X104.048 Y264.286
G1 X101.667 Y266.667
G1 X104.048 Y269.048
G1 X106.429 Y266.667
G1 X108.810 Y269.048
G1 X111.190 Y266.667
G1 X113.571 Y269.048
G1 X111.190 Y271.429
G1 X113.571 Y273.810
G1 X111.190 Y276.190
G1 X113.571 Y278.571
G1 X115.952 Y276.190
G1 X118.333 Y278.571
G1 X120.714 Y276.190
G1 X118.333 Y273.810
G1 X120.714 Y271.429
G1 X118.333 Y269.048
G1 X120.714 Y266.667
G1 X123.095 Y269.048
G1 X125.476 Y266.667
G1 X127.857 Y269.048
G1 X130.238 Y266.667
G1 X132.619 Y269.048
G1 X130.238 Y271.429
G1 X132.619 Y273.810
G1 X130.238 Y276.190
G1 X132.619 Y278.571
G1 X130.238 Y280.952
G1 X127.857 Y278.571
G1 X125.476 Y280.952
G1 X123.095 Y278.571
G1 X120.714 Y280.952
G1 X123.095 Y283.333
G1 X120.714 Y285.714
G1 X123.095 Y288.095
G1 X125.476 Y285.714
G1 X127.857 Y288.095
G1 X130.238 Y285.714
G1 X132.619 Y288.095
G1 X130.238 Y290.476
G1 X132.619 Y292.857
G1 X130.238 Y295.238
G1 X132.619 Y297.619
G1 X130.238 Y300.000
G1 X127.857 Y297.619
G1 X125.476 Y300.000
G1 X123.095 Y297.619
G1 X120.714 Y300.000
G1 X118.333 Y297.619
G1 X120.714 Y295.238
G1 X118.333 Y292.857
G1 X120.714 Y290.476
G1 X118.333 Y288.095
G1 X115.952 Y290.476
G1 X113.571 Y288.095
G1 X111.190 Y290.476
G1 X113.571 Y292.857
G1 X111.190 Y295.238
G1 X113.571 Y297.619
G1 X111.190 Y300.000
G1 X108.810 Y297.619
G1 X106.429 Y300.000
G1 X104.048 Y297.619
G1 X101.667 Y300.000
G1 X99.286 Y297.619
G1 X101.667 Y295.238
G1 X99.286 Y292.857
G1 X101.667 Y290.476
G1 X99.286 Y288.095
G1 X101.667 Y285.714
G1 X104.048 Y288.095
G1 X106.429 Y285.714
G1 X108.810 Y288.095
G1 X111.190 Y285.714
G1 X108.810 Y283.333
G1 X111.190 Y280.952
G1 X108.810 Y278.571
G1 X106.429 Y280.952
G1 X104.048 Y278.571
G1 X101.667 Y280.952
G1 X99.286 Y278.571
G1 X101.667 Y276.190
G1 X99.286 Y273.810
G1 X101.667 Y271.429
G1 X99.286 Y269.048
G1 X96.905 Y271.429
G1 X94.524 Y269.048
G1 X92.143 Y271.429
G1 X94.524 Y273.810
G1 X92.143 Y276.190
G1 X94.524 Y278.571
G1 X92.143 Y280.952
G1 X89.762 Y278.571
G1 X87.381 Y280.952
G1 X85.000 Y278.571
G1 X82.619 Y280.952
G1 X85.000 Y283.333
G1 X82.619 Y285.714
G1 X85.000 Y288.095
G1 X87.381 Y285.714
G1 X89.762 Y288.095
G1 X92.143 Y285.714
G1 X94.524 Y288.095
G1 X92.143 Y290.476
G1 X94.524 Y292.857
G1 X92.143 Y295.238
G1 X94.524 Y297.619
G1 X92.143 Y300.000
G1 X89.762 Y297.619
G1 X87.381 Y300.000
G1 X85.000 Y297.619
G1 X82.619 Y300.000
G1 X80.238 Y297.619
G1 X82.619 Y295.238
G1 X80.238 Y292.857
G1 X82.619 Y290.476
G1 X80.238 Y288.095
G1 X77.857 Y290.476
G1 X75.476 Y288.095
G1 X73.095 Y290.476
G1 X75.476 Y292.857
G1 X73.095 Y295.238
G1 X75.476 Y297.619
G1 X73.095 Y300.000
G1 X70.714 Y297.619
G1 X68.333 Y300.000
G1 X65.952 Y297.619
G1 X63.571 Y300.000
G1 X61.190 Y297.619
G1 X63.571 Y295.238
G1 X61.190 Y292.857
G1 X63.571 Y290.476
G1 X61.190 Y288.095
G1 X63.571 Y285.714
G1 X65.952 Y288.095
G1 X68.333 Y285.714
G1 X70.714 Y288.095
G1 X73.095 Y285.714
G1 X70.714 Y283.333
G1 X73.095 Y280.952
G1 X70.714 Y278.571
G1 X68.333 Y280.952
G1 X65.952 Y278.571
G1 X63.571 Y280.952
G1 X61.190 Y278.571
G1 X63.571 Y276.190
G1 X61.190 Y273.810
G1 X63.571 Y271.429
G1 X61.190 Y269.048
G1 X63.571 Y266.667
G1 X65.952 Y269.048
G1 X68.333 Y266.667
G1 X70.714 Y269.048
G1 X73.095 Y266.667
G1 X75.476 Y269.048
G1 X73.095 Y271.429
G1 X75.476 Y273.810
G1 X73.095 Y276.190
G1 X75.476 Y278.571
G1 X77.857 Y276.190
G1 X80.238 Y278.571
G1 X82.619 Y276.190
G1 X80.238 Y273.810
G1 X82.619 Y271.429
G1 X80.238 Y269.048
G1 X82.619 Y266.667
G1 X85.000 Y269.048
G1 X87.381 Y266.667
G1 X89.762 Y269.048
G1 X92.143 Y266.667
G1 X89.762 Y264.286
G1 X92.143 Y261.905
G1 X89.762 Y259.524
G1 X87.381 Y261.905
G1 X85.000 Y259.524
G1 X82.619 Y261.905
G1 X80.238 Y259.524
G1 X82.619 Y257.143
G1 X80.238 Y254.762
G1 X82.619 Y252.381
G1 X80.238 Y250.000
G1 X77.857 Y252.381
G1 X75.476 Y250.000
G1 X73.095 Y252.381
G1 X75.476 Y254.762
G1 X73.095 Y257.143
G1 X75.476 Y259.524
G1 X73.095 Y261.905
G1 X70.714 Y259.524
G1 X68.333 Y261.905
G1 X65.952 Y259.524
G1 X63.571 Y261.905
G1 X61.190 Y259.524
G1 X63.571 Y257.143
G1 X61.190 Y254.762
G1 X63.571 Y252.381
G1 X61.190 Y250.000
G1 X63.571 Y247.619
G1 X65.952 Y250.000
G1 X68.333 Y247.619
G1 X70.714 Y250.000
G1 X73.095 Y247.619
G1 X70.714 Y245.238
G1 X73.095 Y242.857
G1 X70.714 Y240.476
G1 X68.333 Y242.857
G1 X65.952 Y240.476
G1 X63.571 Y242.857
G1 X61.190 Y240.476
G1 X63.571 Y238.095
G1 X61.190 Y235.714
G1 X63.571 Y233.333
G1 X61.190 Y230.952
G1 X58.810 Y233.333
G1 X56.429 Y230.952
G1 X54.048 Y233.333
G1 X56.429 Y235.714
G1 X54.048 Y238.095
G1 X56.429 Y240.476
G1 X54.048 Y242.857
G1 X51.667 Y240.476
G1 X49.286 Y242.857
G1 X46.905 Y240.476
G1 X44.524 Y242.857
G1 X46.905 Y245.238
G1 X44.524 Y247.619
G1 X46.905 Y250.000
G1 X49.286 Y247.619
G1 X51.667 Y250.000
G1 X54.048 Y247.619
G1 X56.429 Y250.000
G1 X54.048 Y252.381
G1 X56.429 Y254.762
G1 X54.048 Y257.143
G1 X56.429 Y259.524
G1 X54.048 Y261.905
G1 X51.667 Y259.524
G1 X49.286 Y261.905
G1 X46.905 Y259.524
G1 X44.524 Y261.905
G1 X42.143 Y259.524
G1 X44.524 Y257.143
G1 X42.143 Y254.762
G1 X44.524 Y252.381
G1 X42.143 Y250.000
G1 X39.762 Y252.381
G1 X37.381 Y250.000
G1 X35.000 Y252.381
G1 X37.381 Y254.762
G1 X35.000 Y257.143
G1 X37.381 Y259.524
G1 X35.000 Y261.905
G1 X32.619 Y259.524
G1 X30.238 Y261.905
G1 X27.857 Y259.524
G1 X25.476 Y261.905
G1 X27.857 Y264.286
G1 X25.476 Y266.667
G1 X27.857 Y269.048
G1 X30.238 Y266.667
G1 X32.619 Y269.048
G1 X35.000 Y266.667
G1 X37.381 Y269.048
G1 X35.000 Y271.429
G1 X37.381 Y273.810
G1 X35.000 Y276.190
G1 X37.381 Y278.571
G1 X39.762 Y276.190
G1 X42.143 Y278.571
G1 X44.524 Y276.190
G1 X42.143 Y273.810
G1 X44.524 Y271.429
G1 X42.143 Y269.048
G1 X44.524 Y266.667
G1 X46.905 Y269.048
G1 X49.286 Y266.667
G1 X51.667 Y269.048
G1 X54.048 Y266.667
G1 X56.429 Y269.048
G1 X54.048 Y271.429
G1 X56.429 Y273.810
G1 X54.048 Y276.190
G1 X56.429 Y278.571
G1 X54.048 Y280.952
G1 X51.667 Y278.571
G1 X49.286 Y280.952
G1 X46.905 Y278.571
G1 X44.524 Y280.952
G1 X46.905 Y283.333
G1 X44.524 Y285.714
G1 X46.905 Y288.095
G1 X49.286 Y285.714
G1 X51.667 Y288.095
G1 X54.048 Y285.714
G1 X56.429 Y288.095
G1 X54.048 Y290.476
G1 X56.429 Y292.857
G1 X54.048 Y295.238
G1 X56.429 Y297.619
G1 X54.048 Y300.000
G1 X51.667 Y297.619
G1 X49.286 Y300.000
G1 X46.905 Y297.619
G1 X44.524 Y300.000
G1 X42.143 Y297.619
G1 X44.524 Y295.238
G1 X42.143 Y292.857
G1 X44.524 Y290.476
G1 X42.143 Y288.095
G1 X39.762 Y290.476
G1 X37.381 Y288.095
G1 X35.000 Y290.476
G1 X37.381 Y292.857
G1 X35.000 Y295.238
G1 X37.381 Y297.619
G1 X35.000 Y300.000
G1 X32.619 Y297.619
G1 X30.238 Y300.000
G1 X27.857 Y297.619
G1 X25.476 Y300.000
G1 X23.095 Y297.619
G1 X25.476 Y295.238
G1 X23.095 Y292.857
G1 X25.476 Y290.476
G1 X23.095 Y288.095
G1 X25.476 Y285.714
G1 X27.857 Y288.095
G1 X30.238 Y285.714
G1 X32.619 Y288.095
G1 X35.000 Y285.714
G1 X32.619 Y283.333
G1 X35.000 Y280.952
G1 X32.619 Y278.571
G1 X30.238 Y280.952
G1 X27.857 Y278.571
G1 X25.476 Y280.952
G1 X23.095 Y278.571
G1 X25.476 Y276.190
G1 X23.095 Y273.810
G1 X25.476 Y271.429
G1 X23.095 Y269.048
G1 X20.714 Y271.429
G1 X18.333 Y269.048
G1 X15.952 Y271.429
G1 X18.333 Y273.810
G1 X15.952 Y276.190
G1 X18.333 Y278.571
G1 X15.952 Y280.952
G1 X13.571 Y278.571
G1 X11.190 Y280.952
G1 X8.810 Y278.571
G1 X6.429 Y280.952
G1 X8.810 Y283.333
G1 X6.429 Y285.714
G1 X8.810 Y288.095
G1 X11.190 Y285.714
G1 X13.571 Y288.095
G1 X15.952 Y285.714
G1 X18.333 Y288.095
G1 X15.952 Y290.476
G1 X18.333 Y292.857
G1 X15.952 Y295.238
G1 X18.333 Y297.619
G1 X15.952 Y300.000
G1 X13.571 Y297.619
G1 X11.190 Y300.000
G1 X8.810 Y297.619
G1 X6.429 Y300.000
G1 X4.048 Y297.619
G1 X6.429 Y295.238
G1 X4.048 Y292.857
G1 X6.429 Y290.476
G1 X4.048 Y288.095
G1 X1.667 Y290.476
G1 X0.000 Y288.810

