;  Created by Sandify
;  https://sandify.org
;  Version: 0.2.8
;
;  Machine type: Rectangular
;    Min X (mm): 0
;    Max X (mm): 250
;    Min Y (mm): 0
;    Max Y (mm): 250
;  Content type: shape
;  Layer:
;    Shape: Star
;    Name: polygon
;    Number of points: 5
;    Size of points: 0.5
;    Visible: true
;    Initial width: 10
;    Initial height: 10
;    X offset: 0
;    Y offset: 0
;    Rotate (degrees): 0
;    Reverse path: false
;    Number of loops: 10
;    When transforming shape: smear
;    Scale: true
;      Scale (+/-): 100
;      Scale by: constant
;    Spin: false
;    Track: false
;    Fine tuning:
;      Connect to next layer: line
;      Draw portion of path (%): 100
;      Backtrack at end (%): 0
;      Rotate starting point (%): 0
;  Reverse export path: false
;
; File name: 'star'
; File type: gcode
;

G1 X130.000 Y125.000
G1 X133.899 Y131.466
G1 X126.854 Y130.706
G1 X120.983 Y137.364
G1 X119.337 Y129.114
G1 X110.000 Y125.000
G1 X118.528 Y120.298
G1 X119.747 Y108.832
G1 X127.781 Y116.440
G1 X140.371 Y113.832
G1 X135.000 Y125.000
G1 X141.989 Y137.343
G1 X128.399 Y135.462
G1 X117.893 Y146.874
G1 X115.292 Y132.053
G1 X100.000 Y125.000
G1 X114.483 Y117.359
G1 X116.657 Y99.321
G1 X129.326 Y111.685
G1 X148.461 Y107.954
G1 X140.000 Y125.000
G1 X150.080 Y143.221
G1 X129.944 Y140.217
G1 X114.802 Y156.385
G1 X111.247 Y134.992
G1 X90.000 Y125.000
G1 X110.438 Y114.420
G1 X113.566 Y89.811
G1 X130.871 Y106.930
G1 X156.552 Y102.076
G1 X145.000 Y125.000
G1 X158.170 Y149.099
G1 X131.489 Y144.972
G1 X111.712 Y165.895
G1 X107.202 Y137.931
G1 X80.000 Y125.000
G1 X106.393 Y111.481
G1 X110.476 Y80.300
G1 X132.416 Y102.175
G1 X164.642 Y96.199
G1 X150.000 Y125.000
G1 X166.260 Y154.977
G1 X133.034 Y149.727
G1 X108.622 Y175.406
G1 X103.157 Y140.870
G1 X70.000 Y125.000
G1 X102.348 Y108.542
G1 X107.386 Y70.790
G1 X133.961 Y97.419
G1 X172.732 Y90.321
G1 X155.000 Y125.000
G1 X174.350 Y160.855
G1 X134.580 Y154.483
G1 X105.532 Y184.917
G1 X99.111 Y143.809
G1 X60.000 Y125.000
G1 X98.302 Y105.603
G1 X104.296 Y61.279
G1 X135.507 Y92.664
G1 X180.822 Y84.443
G1 X160.000 Y125.000
G1 X182.440 Y166.733
G1 X136.125 Y159.238
G1 X102.442 Y194.427
G1 X95.066 Y146.748
G1 X50.000 Y125.000
G1 X94.257 Y102.664
G1 X101.206 Y51.769
G1 X137.052 Y87.909
G1 X188.912 Y78.565
G1 X165.000 Y125.000
G1 X190.530 Y172.611
G1 X137.670 Y163.993
G1 X99.352 Y203.938
G1 X91.021 Y149.687
G1 X40.000 Y125.000
G1 X90.212 Y99.725
G1 X98.116 Y42.258
G1 X138.597 Y83.154
G1 X197.003 Y72.687
G1 X170.000 Y125.000
G1 X198.621 Y178.488
G1 X139.215 Y168.749
G1 X96.261 Y213.448
G1 X86.976 Y152.626
G1 X30.000 Y125.000
G1 X86.167 Y96.786
G1 X95.025 Y32.748
G1 X140.142 Y78.398
G1 X205.093 Y66.809
G1 X175.000 Y125.000
G1 X206.711 Y184.366
G1 X140.760 Y173.504
G1 X93.171 Y222.959
G1 X82.931 Y155.565
G1 X20.000 Y125.000
G1 X82.122 Y93.847
G1 X91.935 Y23.237
G1 X141.687 Y73.643
G1 X213.183 Y60.931

