;  Created by Sandify
;  https://sandify.org
;  Version: 0.2.8
;
;  Machine type: Rectangular
;    Min X (mm): 0
;    Max X (mm): 250
;    Min Y (mm): 0
;    Max Y (mm): 250
;  Content type: shape
;  Layer:
;    Shape: V1Engineering
;    Name: polygon
;    Visible: true
;    Initial width: 10
;    Initial height: 10
;    X offset: 4
;    Y offset: 1
;    Rotate (degrees): 0
;    Reverse path: false
;    Number of loops: 29
;    When transforming shape: smear
;    Scale: true
;      Scale (+/-): 52
;      Scale by: constant
;    Spin: true
;      Spin (+/-): 2
;      Spin by: function
;        Spin function (i): 12*sin(i/4)
;    Track: true
;      Track size: -1
;      Track length: 0
;      Number of loops at each track position: 1
;      Scale track: false
;    Fine tuning:
;      Connect to next layer: line
;      Draw portion of path (%): 100
;      Backtrack at end (%): 0
;      Rotate starting point (%): 0
;  Reverse export path: false
;
; File name: 'testInge'
; File type: gcode
;

G1 X120.544 Y129.421
G1 X120.763 Y129.510
G1 X120.978 Y129.599
G1 X121.138 Y129.668
G1 X121.298 Y129.738
G1 X121.458 Y129.810
G1 X121.617 Y129.883
G1 X121.777 Y129.958
G1 X121.936 Y130.033
G1 X122.096 Y130.111
G1 X122.255 Y130.189
G1 X122.414 Y130.269
G1 X122.573 Y130.351
G1 X122.732 Y130.434
G1 X122.891 Y130.518
G1 X123.049 Y130.604
G1 X123.208 Y130.691
G1 X123.366 Y130.779
G1 X123.524 Y130.869
G1 X123.707 Y130.973
G1 X123.889 Y131.079
G1 X124.072 Y131.187
G1 X124.254 Y131.296
G1 X124.436 Y131.407
G1 X124.617 Y131.520
G1 X124.798 Y131.635
G1 X124.978 Y131.751
G1 X125.158 Y131.869
G1 X125.338 Y131.989
G1 X125.517 Y132.110
G1 X125.695 Y132.234
G1 X125.874 Y132.359
G1 X126.051 Y132.485
G1 X126.228 Y132.614
G1 X126.405 Y132.744
G1 X126.581 Y132.876
G1 X126.756 Y133.009
G1 X126.931 Y133.145
G1 X127.105 Y133.282
G1 X127.279 Y133.420
G1 X127.452 Y133.561
G1 X127.625 Y133.703
G1 X127.796 Y133.847
G1 X127.967 Y133.992
G1 X128.138 Y134.140
G1 X128.308 Y134.289
G1 X128.477 Y134.439
G1 X128.628 Y134.577
G1 X128.779 Y134.716
G1 X128.930 Y134.857
G1 X129.080 Y134.999
G1 X129.230 Y135.142
G1 X129.379 Y135.287
G1 X129.528 Y135.432
G1 X129.676 Y135.579
G1 X129.806 Y135.711
G1 X129.937 Y135.842
G1 X130.069 Y135.973
G1 X130.202 Y136.102
G1 X130.228 Y136.136
G1 X130.254 Y136.170
G1 X130.280 Y136.204
G1 X130.307 Y136.237
G1 X130.328 Y136.266
G1 X130.350 Y136.294
G1 X130.373 Y136.321
G1 X130.396 Y136.346
G1 X130.420 Y136.371
G1 X130.445 Y136.395
G1 X130.470 Y136.417
G1 X130.495 Y136.438
G1 X130.523 Y136.460
G1 X130.551 Y136.480
G1 X130.579 Y136.499
G1 X130.608 Y136.517
G1 X130.636 Y136.534
G1 X130.666 Y136.549
G1 X130.695 Y136.563
G1 X130.724 Y136.576
G1 X130.753 Y136.587
G1 X130.783 Y136.598
G1 X130.812 Y136.607
G1 X130.841 Y136.614
G1 X130.870 Y136.621
G1 X130.899 Y136.626
G1 X130.927 Y136.630
G1 X130.955 Y136.632
G1 X130.980 Y136.635
G1 X131.005 Y136.638
G1 X131.113 Y136.597
G1 X131.220 Y136.556
G1 X131.327 Y136.514
G1 X131.434 Y136.470
G1 X131.818 Y136.277
G1 X132.203 Y136.084
G1 X132.588 Y135.889
G1 X132.974 Y135.693
G1 X133.361 Y135.496
G1 X133.748 Y135.298
G1 X134.135 Y135.098
G1 X134.523 Y134.898
G1 X134.696 Y134.816
G1 X134.868 Y134.733
G1 X135.039 Y134.648
G1 X135.210 Y134.561
G1 X135.278 Y134.534
G1 X135.346 Y134.506
G1 X135.413 Y134.477
G1 X135.480 Y134.447
G1 X135.519 Y134.435
G1 X135.557 Y134.422
G1 X135.595 Y134.408
G1 X135.631 Y134.393
G1 X135.667 Y134.376
G1 X135.702 Y134.359
G1 X135.736 Y134.340
G1 X135.769 Y134.321
G1 X135.786 Y134.317
G1 X135.802 Y134.312
G1 X135.817 Y134.306
G1 X135.830 Y134.300
G1 X135.843 Y134.293
G1 X135.854 Y134.286
G1 X135.864 Y134.279
G1 X135.873 Y134.271
G1 X135.882 Y134.259
G1 X135.892 Y134.221
G1 X135.902 Y134.182
G1 X135.910 Y134.144
G1 X135.917 Y134.105
G1 X135.923 Y134.067
G1 X135.929 Y134.028
G1 X135.933 Y133.989
G1 X135.936 Y133.950
G1 X135.927 Y133.839
G1 X135.917 Y133.727
G1 X135.905 Y133.615
G1 X135.891 Y133.503
G1 X135.883 Y133.426
G1 X135.864 Y133.283
G1 X135.845 Y133.140
G1 X135.827 Y132.997
G1 X135.808 Y132.853
G1 X135.774 Y132.599
G1 X135.741 Y132.345
G1 X135.710 Y132.090
G1 X135.682 Y131.834
G1 X135.655 Y131.577
G1 X135.631 Y131.319
G1 X135.609 Y131.060
G1 X135.589 Y130.801
G1 X135.571 Y130.541
G1 X135.555 Y130.280
G1 X135.542 Y130.019
G1 X135.531 Y129.756
G1 X135.524 Y129.553
G1 X135.523 Y129.435
G1 X135.523 Y129.316
G1 X135.524 Y129.197
G1 X135.526 Y129.078
G1 X135.529 Y128.958
G1 X135.533 Y128.838
G1 X135.538 Y128.718
G1 X135.544 Y128.598
G1 X135.552 Y128.317
G1 X135.562 Y128.035
G1 X135.574 Y127.753
G1 X135.587 Y127.470
G1 X135.601 Y127.187
G1 X135.617 Y126.903
G1 X135.635 Y126.619
G1 X135.654 Y126.334
G1 X135.674 Y126.061
G1 X135.696 Y125.788
G1 X135.720 Y125.515
G1 X135.744 Y125.241
G1 X135.771 Y124.966
G1 X135.798 Y124.691
G1 X135.827 Y124.416
G1 X135.858 Y124.140
G1 X135.883 Y123.960
G1 X135.910 Y123.780
G1 X135.938 Y123.600
G1 X135.969 Y123.419
G1 X136.001 Y123.239
G1 X136.036 Y123.058
G1 X136.072 Y122.878
G1 X136.110 Y122.697
G1 X136.155 Y122.481
G1 X136.200 Y122.264
G1 X136.247 Y122.047
G1 X136.294 Y121.830
G1 X136.339 Y121.624
G1 X136.387 Y121.419
G1 X136.435 Y121.213
G1 X136.485 Y121.006
G1 X136.536 Y120.800
G1 X136.589 Y120.594
G1 X136.644 Y120.387
G1 X136.700 Y120.180
G1 X136.757 Y119.974
G1 X136.816 Y119.767
G1 X136.876 Y119.560
G1 X136.938 Y119.353
G1 X137.001 Y119.142
G1 X137.064 Y118.930
G1 X137.129 Y118.719
G1 X137.194 Y118.507
G1 X137.234 Y118.392
G1 X137.273 Y118.276
G1 X137.311 Y118.160
G1 X137.346 Y118.044
G1 X137.364 Y118.004
G1 X137.380 Y117.966
G1 X137.395 Y117.933
G1 X137.409 Y117.900
G1 X137.421 Y117.867
G1 X137.432 Y117.834
G1 X137.441 Y117.801
G1 X137.449 Y117.767
G1 X137.456 Y117.734
G1 X137.461 Y117.702
G1 X137.459 Y117.647
G1 X137.456 Y117.593
G1 X137.450 Y117.540
G1 X137.442 Y117.487
G1 X137.432 Y117.436
G1 X137.420 Y117.385
G1 X137.406 Y117.335
G1 X137.389 Y117.286
G1 X137.387 Y117.263
G1 X137.383 Y117.240
G1 X137.380 Y117.218
G1 X137.375 Y117.197
G1 X137.370 Y117.176
G1 X137.364 Y117.155
G1 X137.358 Y117.135
G1 X137.352 Y117.116
G1 X137.240 Y117.021
G1 X137.128 Y116.927
G1 X137.015 Y116.834
G1 X136.900 Y116.743
G1 X136.740 Y116.619
G1 X136.276 Y116.292
G1 X135.811 Y115.964
G1 X135.344 Y115.637
G1 X134.876 Y115.310
G1 X134.407 Y114.983
G1 X133.936 Y114.657
G1 X133.464 Y114.330
G1 X132.991 Y114.003
G1 X132.864 Y113.907
G1 X132.771 Y113.832
G1 X132.752 Y113.804
G1 X132.732 Y113.777
G1 X132.712 Y113.750
G1 X132.691 Y113.725
G1 X132.670 Y113.701
G1 X132.648 Y113.677
G1 X132.626 Y113.654
G1 X132.603 Y113.632
G1 X132.563 Y113.606
G1 X132.521 Y113.582
G1 X132.479 Y113.560
G1 X132.437 Y113.541
G1 X132.394 Y113.524
G1 X132.350 Y113.509
G1 X132.307 Y113.497
G1 X132.263 Y113.487
G1 X132.219 Y113.479
G1 X132.176 Y113.474
G1 X132.132 Y113.471
G1 X132.089 Y113.470
G1 X132.090 Y113.461
G1 X132.072 Y113.462
G1 X132.054 Y113.463
G1 X132.036 Y113.465
G1 X132.018 Y113.467
G1 X132.001 Y113.471
G1 X131.984 Y113.474
G1 X131.968 Y113.479
G1 X131.952 Y113.484
G1 X131.923 Y113.497
G1 X131.765 Y113.605
G1 X131.609 Y113.714
G1 X131.454 Y113.826
G1 X131.300 Y113.940
G1 X131.053 Y114.126
G1 X130.804 Y114.309
G1 X130.552 Y114.491
G1 X130.299 Y114.671
G1 X130.043 Y114.849
G1 X129.786 Y115.025
G1 X129.526 Y115.200
G1 X129.265 Y115.372
G1 X129.001 Y115.542
G1 X128.735 Y115.711
G1 X128.468 Y115.877
G1 X128.198 Y116.042
G1 X127.926 Y116.204
G1 X127.653 Y116.364
G1 X127.377 Y116.523
G1 X127.100 Y116.679
G1 X126.821 Y116.833
G1 X126.539 Y116.985
G1 X126.256 Y117.135
G1 X125.971 Y117.283
G1 X125.685 Y117.428
G1 X125.396 Y117.572
G1 X125.105 Y117.713
G1 X124.813 Y117.852
G1 X124.531 Y117.983
G1 X124.247 Y118.112
G1 X123.961 Y118.238
G1 X123.673 Y118.363
G1 X123.384 Y118.485
G1 X123.094 Y118.606
G1 X122.802 Y118.724
G1 X122.508 Y118.839
G1 X122.212 Y118.953
G1 X121.916 Y119.064
G1 X121.617 Y119.173
G1 X121.317 Y119.280
G1 X121.016 Y119.384
G1 X120.713 Y119.487
G1 X120.409 Y119.586
G1 X120.103 Y119.684
G1 X119.796 Y119.779
G1 X119.488 Y119.872
G1 X119.178 Y119.962
G1 X118.867 Y120.050
G1 X118.572 Y120.131
G1 X118.277 Y120.209
G1 X117.980 Y120.286
G1 X117.682 Y120.359
G1 X117.382 Y120.431
G1 X117.082 Y120.500
G1 X116.780 Y120.566
G1 X116.477 Y120.630
G1 X116.313 Y120.660
G1 X116.161 Y120.686
G1 X116.008 Y120.713
G1 X115.855 Y120.740
G1 X115.703 Y120.768
G1 X115.550 Y120.797
G1 X115.397 Y120.826
G1 X115.244 Y120.857
G1 X115.091 Y120.887
G1 X115.035 Y120.892
G1 X114.979 Y120.900
G1 X114.924 Y120.910
G1 X114.870 Y120.922
G1 X114.818 Y120.936
G1 X114.766 Y120.953
G1 X114.715 Y120.971
G1 X114.666 Y120.992
G1 X114.618 Y121.015
G1 X114.572 Y121.040
G1 X114.528 Y121.066
G1 X114.485 Y121.095
G1 X114.445 Y121.122
G1 X114.406 Y121.150
G1 X114.368 Y121.179
G1 X114.331 Y121.208
G1 X114.209 Y121.363
G1 X113.908 Y124.522
G1 X113.870 Y124.797
G1 X113.834 Y125.064
G1 X113.798 Y125.323
G1 X113.740 Y125.821
G1 X113.683 Y126.321
G1 X113.627 Y126.822
G1 X113.571 Y127.323
G1 X113.548 Y127.441
G1 X113.526 Y127.559
G1 X113.505 Y127.678
G1 X113.484 Y127.796
G1 X113.469 Y127.837
G1 X113.456 Y127.879
G1 X113.444 Y127.920
G1 X113.435 Y127.961
G1 X113.426 Y128.002
G1 X113.420 Y128.043
G1 X113.415 Y128.084
G1 X113.411 Y128.125
G1 X113.409 Y128.164
G1 X113.408 Y128.204
G1 X113.410 Y128.242
G1 X113.413 Y128.281
G1 X113.418 Y128.318
G1 X113.425 Y128.355
G1 X113.433 Y128.390
G1 X113.443 Y128.425
G1 X113.455 Y128.459
G1 X113.469 Y128.491
G1 X113.484 Y128.523
G1 X113.500 Y128.553
G1 X113.518 Y128.582
G1 X113.538 Y128.610
G1 X113.558 Y128.636
G1 X113.580 Y128.660
G1 X113.604 Y128.684
G1 X113.628 Y128.705
G1 X113.653 Y128.725
G1 X113.680 Y128.743
G1 X113.876 Y128.845
G1 X114.074 Y128.946
G1 X114.274 Y129.045
G1 X114.474 Y129.142
G1 X114.689 Y129.246
G1 X114.903 Y129.350
G1 X115.118 Y129.456
G1 X115.332 Y129.563
G1 X115.547 Y129.670
G1 X115.761 Y129.779
G1 X115.975 Y129.889
G1 X116.190 Y130.000
G1 X116.512 Y130.167
G1 X116.827 Y130.334
G1 X117.063 Y130.461
G1 X117.298 Y130.590
G1 X117.532 Y130.722
G1 X117.766 Y130.855
G1 X117.999 Y130.990
G1 X118.232 Y131.128
G1 X118.464 Y131.267
G1 X118.696 Y131.408
G1 X118.927 Y131.551
G1 X119.157 Y131.697
G1 X119.387 Y131.844
G1 X119.616 Y131.993
G1 X119.844 Y132.144
G1 X120.071 Y132.297
G1 X120.298 Y132.452
G1 X120.524 Y132.609
G1 X120.786 Y132.791
G1 X121.046 Y132.975
G1 X121.306 Y133.162
G1 X121.565 Y133.351
G1 X121.822 Y133.543
G1 X122.078 Y133.737
G1 X122.334 Y133.933
G1 X122.588 Y134.132
G1 X122.841 Y134.333
G1 X123.093 Y134.537
G1 X123.344 Y134.743
G1 X123.593 Y134.951
G1 X123.842 Y135.162
G1 X124.089 Y135.374
G1 X124.335 Y135.590
G1 X124.579 Y135.807
G1 X124.823 Y136.027
G1 X125.065 Y136.249
G1 X125.305 Y136.474
G1 X125.545 Y136.700
G1 X125.783 Y136.929
G1 X126.020 Y137.161
G1 X126.255 Y137.394
G1 X126.489 Y137.630
G1 X126.721 Y137.868
G1 X126.952 Y138.108
G1 X127.182 Y138.350
G1 X127.410 Y138.595
G1 X127.614 Y138.818
G1 X127.817 Y139.043
G1 X128.019 Y139.269
G1 X128.220 Y139.498
G1 X128.420 Y139.727
G1 X128.619 Y139.959
G1 X128.816 Y140.192
G1 X129.013 Y140.426
G1 X129.184 Y140.636
G1 X129.357 Y140.844
G1 X129.532 Y141.051
G1 X129.708 Y141.257
G1 X129.740 Y141.306
G1 X129.773 Y141.354
G1 X129.807 Y141.402
G1 X129.841 Y141.449
G1 X129.867 Y141.489
G1 X129.894 Y141.527
G1 X129.923 Y141.564
G1 X129.953 Y141.600
G1 X129.984 Y141.634
G1 X130.016 Y141.667
G1 X130.049 Y141.698
G1 X130.083 Y141.727
G1 X130.119 Y141.757
G1 X130.156 Y141.785
G1 X130.195 Y141.812
G1 X130.233 Y141.836
G1 X130.272 Y141.859
G1 X130.312 Y141.880
G1 X130.352 Y141.899
G1 X130.392 Y141.917
G1 X130.433 Y141.932
G1 X130.473 Y141.946
G1 X130.514 Y141.957
G1 X130.555 Y141.967
G1 X130.595 Y141.975
G1 X130.636 Y141.981
G1 X130.676 Y141.985
G1 X130.716 Y141.988
G1 X130.751 Y141.990
G1 X130.787 Y141.991
G1 X130.949 Y141.943
G1 X131.111 Y141.893
G1 X131.272 Y141.842
G1 X131.434 Y141.788
G1 X132.022 Y141.560
G1 X132.611 Y141.329
G1 X133.200 Y141.098
G1 X133.790 Y140.865
G1 X134.380 Y140.631
G1 X134.971 Y140.395
G1 X135.562 Y140.158
G1 X136.154 Y139.920
G1 X136.415 Y139.822
G1 X136.675 Y139.722
G1 X136.934 Y139.619
G1 X137.192 Y139.513
G1 X137.292 Y139.479
G1 X137.392 Y139.444
G1 X137.490 Y139.407
G1 X137.588 Y139.369
G1 X137.644 Y139.353
G1 X137.698 Y139.335
G1 X137.751 Y139.315
G1 X137.803 Y139.294
G1 X137.854 Y139.271
G1 X137.904 Y139.246
G1 X137.953 Y139.220
G1 X138.000 Y139.192
G1 X138.022 Y139.184
G1 X138.043 Y139.175
G1 X138.062 Y139.164
G1 X138.079 Y139.153
G1 X138.095 Y139.140
G1 X138.109 Y139.127
G1 X138.121 Y139.113
G1 X138.132 Y139.099
G1 X138.144 Y139.078
G1 X138.161 Y139.020
G1 X138.177 Y138.962
G1 X138.191 Y138.903
G1 X138.204 Y138.844
G1 X138.215 Y138.785
G1 X138.225 Y138.726
G1 X138.234 Y138.666
G1 X138.241 Y138.607
G1 X138.242 Y138.440
G1 X138.240 Y138.274
G1 X138.236 Y138.107
G1 X138.229 Y137.940
G1 X138.226 Y137.824
G1 X138.216 Y137.612
G1 X138.207 Y137.400
G1 X138.199 Y137.188
G1 X138.191 Y136.975
G1 X138.175 Y136.603
G1 X138.162 Y136.230
G1 X138.152 Y135.857
G1 X138.146 Y135.482
G1 X138.143 Y135.107
G1 X138.143 Y134.732
G1 X138.146 Y134.356
G1 X138.152 Y133.979
G1 X138.161 Y133.602
G1 X138.174 Y133.224
G1 X138.190 Y132.846
G1 X138.209 Y132.467
G1 X138.226 Y132.174
G1 X138.239 Y132.003
G1 X138.253 Y131.831
G1 X138.268 Y131.660
G1 X138.286 Y131.488
G1 X138.304 Y131.316
G1 X138.324 Y131.144
G1 X138.346 Y130.972
G1 X138.369 Y130.799
G1 X138.418 Y130.399
G1 X138.470 Y129.998
G1 X138.524 Y129.596
G1 X138.580 Y129.195
G1 X138.639 Y128.793
G1 X138.700 Y128.391
G1 X138.763 Y127.988
G1 X138.828 Y127.585
G1 X138.893 Y127.200
G1 X138.961 Y126.815
G1 X139.030 Y126.430
G1 X139.102 Y126.044
G1 X139.175 Y125.658
G1 X139.251 Y125.272
G1 X139.328 Y124.886
G1 X139.408 Y124.499
G1 X139.466 Y124.248
G1 X139.526 Y123.997
G1 X139.589 Y123.747
G1 X139.655 Y123.496
G1 X139.724 Y123.246
G1 X139.795 Y122.996
G1 X139.868 Y122.747
G1 X139.945 Y122.497
G1 X140.036 Y122.199
G1 X140.127 Y121.900
G1 X140.220 Y121.602
G1 X140.314 Y121.303
G1 X140.405 Y121.020
G1 X140.497 Y120.738
G1 X140.591 Y120.455
G1 X140.688 Y120.173
G1 X140.786 Y119.891
G1 X140.886 Y119.609
G1 X140.989 Y119.327
G1 X141.093 Y119.046
G1 X141.199 Y118.765
G1 X141.308 Y118.484
G1 X141.418 Y118.203
G1 X141.530 Y117.923
G1 X141.645 Y117.637
G1 X141.761 Y117.350
G1 X141.878 Y117.064
G1 X141.995 Y116.778
G1 X142.064 Y116.625
G1 X142.131 Y116.471
G1 X142.196 Y116.316
G1 X142.259 Y116.160
G1 X142.285 Y116.108
G1 X142.309 Y116.061
G1 X142.330 Y116.020
G1 X142.350 Y115.978
G1 X142.367 Y115.935
G1 X142.383 Y115.893
G1 X142.396 Y115.850
G1 X142.408 Y115.808
G1 X142.418 Y115.765
G1 X142.425 Y115.722
G1 X142.427 Y115.649
G1 X142.425 Y115.575
G1 X142.420 Y115.503
G1 X142.412 Y115.431
G1 X142.401 Y115.360
G1 X142.387 Y115.290
G1 X142.370 Y115.221
G1 X142.351 Y115.153
G1 X142.346 Y115.123
G1 X142.340 Y115.094
G1 X142.334 Y115.066
G1 X142.326 Y115.038
G1 X142.318 Y115.010
G1 X142.309 Y114.984
G1 X142.299 Y114.958
G1 X142.289 Y114.933
G1 X142.143 Y114.788
G1 X141.995 Y114.644
G1 X141.846 Y114.502
G1 X141.696 Y114.361
G1 X141.486 Y114.169
G1 X140.883 Y113.651
G1 X140.278 Y113.134
G1 X139.671 Y112.616
G1 X139.063 Y112.099
G1 X138.453 Y111.583
G1 X137.842 Y111.066
G1 X137.228 Y110.550
G1 X136.614 Y110.034
G1 X136.449 Y109.886
G1 X136.327 Y109.773
G1 X136.302 Y109.736
G1 X136.276 Y109.700
G1 X136.249 Y109.665
G1 X136.221 Y109.631
G1 X136.193 Y109.598
G1 X136.164 Y109.567
G1 X136.134 Y109.536
G1 X136.103 Y109.507
G1 X136.048 Y109.470
G1 X135.992 Y109.435
G1 X135.934 Y109.403
G1 X135.875 Y109.375
G1 X135.816 Y109.349
G1 X135.755 Y109.327
G1 X135.695 Y109.308
G1 X135.633 Y109.292
G1 X135.571 Y109.280
G1 X135.510 Y109.271
G1 X135.448 Y109.265
G1 X135.386 Y109.262
G1 X135.386 Y109.254
G1 X135.359 Y109.257
G1 X135.332 Y109.260
G1 X135.305 Y109.264
G1 X135.278 Y109.270
G1 X135.252 Y109.276
G1 X135.226 Y109.283
G1 X135.200 Y109.291
G1 X135.175 Y109.300
G1 X135.131 Y109.319
G1 X134.897 Y109.449
G1 X134.665 Y109.583
G1 X134.434 Y109.719
G1 X134.204 Y109.859
G1 X133.837 Y110.084
G1 X133.467 Y110.306
G1 X133.095 Y110.525
G1 X132.720 Y110.742
G1 X132.343 Y110.955
G1 X131.964 Y111.165
G1 X131.582 Y111.373
G1 X131.198 Y111.577
G1 X130.811 Y111.778
G1 X130.422 Y111.977
G1 X130.031 Y112.172
G1 X129.638 Y112.364
G1 X129.242 Y112.553
G1 X128.845 Y112.739
G1 X128.445 Y112.921
G1 X128.043 Y113.101
G1 X127.639 Y113.277
G1 X127.232 Y113.450
G1 X126.824 Y113.619
G1 X126.414 Y113.786
G1 X126.001 Y113.949
G1 X125.587 Y114.109
G1 X125.171 Y114.265
G1 X124.752 Y114.419
G1 X124.349 Y114.562
G1 X123.943 Y114.702
G1 X123.536 Y114.840
G1 X123.127 Y114.973
G1 X122.717 Y115.104
G1 X122.305 Y115.231
G1 X121.891 Y115.356
G1 X121.475 Y115.476
G1 X121.058 Y115.594
G1 X120.639 Y115.708
G1 X120.219 Y115.819
G1 X119.797 Y115.926
G1 X119.374 Y116.031
G1 X118.949 Y116.131
G1 X118.522 Y116.229
G1 X118.095 Y116.323
G1 X117.666 Y116.413
G1 X117.235 Y116.500
G1 X116.803 Y116.584
G1 X116.370 Y116.664
G1 X115.961 Y116.737
G1 X115.551 Y116.806
G1 X115.140 Y116.872
G1 X114.727 Y116.935
G1 X114.313 Y116.994
G1 X113.899 Y117.049
G1 X113.483 Y117.101
G1 X113.066 Y117.150
G1 X112.842 Y117.171
G1 X112.635 Y117.188
G1 X112.428 Y117.206
G1 X112.220 Y117.225
G1 X112.012 Y117.245
G1 X111.805 Y117.266
G1 X111.597 Y117.287
G1 X111.389 Y117.310
G1 X111.181 Y117.334
G1 X111.108 Y117.335
G1 X111.035 Y117.340
G1 X110.963 Y117.349
G1 X110.893 Y117.360
G1 X110.823 Y117.375
G1 X110.754 Y117.393
G1 X110.687 Y117.414
G1 X110.622 Y117.438
G1 X110.558 Y117.464
G1 X110.496 Y117.494
G1 X110.436 Y117.526
G1 X110.378 Y117.561
G1 X110.324 Y117.595
G1 X110.272 Y117.630
G1 X110.221 Y117.666
G1 X110.171 Y117.703
G1 X109.988 Y117.899
G1 X109.165 Y122.127
G1 X109.082 Y122.494
G1 X109.001 Y122.851
G1 X108.923 Y123.197
G1 X108.782 Y123.863
G1 X108.643 Y124.530
G1 X108.505 Y125.199
G1 X108.368 Y125.868
G1 X108.326 Y126.025
G1 X108.285 Y126.181
G1 X108.245 Y126.338
G1 X108.205 Y126.496
G1 X108.184 Y126.549
G1 X108.165 Y126.604
G1 X108.149 Y126.658
G1 X108.135 Y126.712
G1 X108.122 Y126.767
G1 X108.113 Y126.822
G1 X108.105 Y126.876
G1 X108.099 Y126.930
G1 X108.095 Y126.984
G1 X108.094 Y127.037
G1 X108.095 Y127.089
G1 X108.098 Y127.141
G1 X108.105 Y127.192
G1 X108.113 Y127.242
G1 X108.124 Y127.291
G1 X108.138 Y127.340
G1 X108.154 Y127.387
G1 X108.172 Y127.432
G1 X108.192 Y127.477
G1 X108.215 Y127.520
G1 X108.239 Y127.561
G1 X108.266 Y127.601
G1 X108.295 Y127.638
G1 X108.325 Y127.674
G1 X108.357 Y127.708
G1 X108.391 Y127.740
G1 X108.427 Y127.770
G1 X108.464 Y127.798
G1 X108.718 Y127.961
G1 X108.974 Y128.122
G1 X109.232 Y128.280
G1 X109.492 Y128.437
G1 X109.769 Y128.603
G1 X110.046 Y128.771
G1 X110.323 Y128.940
G1 X110.600 Y129.110
G1 X110.876 Y129.282
G1 X111.152 Y129.455
G1 X111.428 Y129.629
G1 X111.703 Y129.805
G1 X112.116 Y130.070
G1 X112.518 Y130.333
G1 X112.819 Y130.533
G1 X113.119 Y130.735
G1 X113.418 Y130.940
G1 X113.716 Y131.148
G1 X114.013 Y131.358
G1 X114.309 Y131.571
G1 X114.603 Y131.786
G1 X114.896 Y132.003
G1 X115.188 Y132.223
G1 X115.479 Y132.445
G1 X115.769 Y132.670
G1 X116.057 Y132.897
G1 X116.344 Y133.127
G1 X116.630 Y133.359
G1 X116.914 Y133.593
G1 X117.197 Y133.830
G1 X117.524 Y134.104
G1 X117.849 Y134.382
G1 X118.173 Y134.662
G1 X118.494 Y134.946
G1 X118.814 Y135.232
G1 X119.132 Y135.522
G1 X119.448 Y135.814
G1 X119.762 Y136.109
G1 X120.074 Y136.407
G1 X120.384 Y136.708
G1 X120.693 Y137.011
G1 X120.999 Y137.318
G1 X121.303 Y137.627
G1 X121.606 Y137.939
G1 X121.906 Y138.254
G1 X122.204 Y138.572
G1 X122.500 Y138.892
G1 X122.794 Y139.215
G1 X123.086 Y139.541
G1 X123.376 Y139.870
G1 X123.663 Y140.201
G1 X123.948 Y140.535
G1 X124.231 Y140.872
G1 X124.512 Y141.211
G1 X124.790 Y141.553
G1 X125.067 Y141.897
G1 X125.340 Y142.245
G1 X125.612 Y142.594
G1 X125.855 Y142.912
G1 X126.095 Y143.232
G1 X126.335 Y143.554
G1 X126.572 Y143.878
G1 X126.808 Y144.204
G1 X127.042 Y144.532
G1 X127.274 Y144.861
G1 X127.504 Y145.193
G1 X127.705 Y145.487
G1 X127.907 Y145.780
G1 X128.112 Y146.072
G1 X128.320 Y146.363
G1 X128.357 Y146.427
G1 X128.394 Y146.491
G1 X128.433 Y146.554
G1 X128.472 Y146.617
G1 X128.502 Y146.669
G1 X128.534 Y146.719
G1 X128.567 Y146.768
G1 X128.603 Y146.815
G1 X128.640 Y146.860
G1 X128.678 Y146.903
G1 X128.718 Y146.944
G1 X128.759 Y146.982
G1 X128.804 Y147.022
G1 X128.850 Y147.060
G1 X128.897 Y147.096
G1 X128.945 Y147.129
G1 X128.994 Y147.160
G1 X129.044 Y147.189
G1 X129.095 Y147.215
G1 X129.146 Y147.239
G1 X129.197 Y147.260
G1 X129.250 Y147.279
G1 X129.302 Y147.296
G1 X129.354 Y147.310
G1 X129.407 Y147.321
G1 X129.460 Y147.330
G1 X129.512 Y147.337
G1 X129.564 Y147.341
G1 X129.611 Y147.344
G1 X129.658 Y147.346
G1 X129.877 Y147.299
G1 X130.096 Y147.250
G1 X130.315 Y147.199
G1 X130.533 Y147.145
G1 X131.333 Y146.914
G1 X132.134 Y146.682
G1 X132.936 Y146.448
G1 X133.738 Y146.212
G1 X134.541 Y145.975
G1 X135.344 Y145.736
G1 X136.147 Y145.495
G1 X136.951 Y145.253
G1 X137.304 Y145.154
G1 X137.655 Y145.051
G1 X138.006 Y144.944
G1 X138.357 Y144.834
G1 X138.490 Y144.799
G1 X138.623 Y144.762
G1 X138.755 Y144.722
G1 X138.887 Y144.680
G1 X138.960 Y144.662
G1 X139.031 Y144.642
G1 X139.102 Y144.619
G1 X139.171 Y144.594
G1 X139.240 Y144.567
G1 X139.306 Y144.537
G1 X139.371 Y144.505
G1 X139.435 Y144.471
G1 X139.463 Y144.459
G1 X139.490 Y144.446
G1 X139.514 Y144.431
G1 X139.537 Y144.415
G1 X139.558 Y144.397
G1 X139.576 Y144.378
G1 X139.592 Y144.358
G1 X139.606 Y144.337
G1 X139.623 Y144.307
G1 X139.651 Y144.230
G1 X139.677 Y144.153
G1 X139.701 Y144.075
G1 X139.724 Y143.996
G1 X139.744 Y143.917
G1 X139.763 Y143.837
G1 X139.780 Y143.757
G1 X139.795 Y143.677
G1 X139.815 Y143.457
G1 X139.831 Y143.236
G1 X139.844 Y143.015
G1 X139.854 Y142.794
G1 X139.863 Y142.639
G1 X139.875 Y142.360
G1 X139.888 Y142.080
G1 X139.901 Y141.799
G1 X139.915 Y141.519
G1 X139.938 Y141.030
G1 X139.965 Y140.540
G1 X139.996 Y140.051
G1 X140.032 Y139.561
G1 X140.071 Y139.070
G1 X140.115 Y138.580
G1 X140.163 Y138.089
G1 X140.216 Y137.598
G1 X140.272 Y137.107
G1 X140.333 Y136.616
G1 X140.397 Y136.125
G1 X140.466 Y135.633
G1 X140.522 Y135.253
G1 X140.557 Y135.030
G1 X140.595 Y134.808
G1 X140.634 Y134.585
G1 X140.675 Y134.363
G1 X140.718 Y134.140
G1 X140.763 Y133.918
G1 X140.809 Y133.696
G1 X140.858 Y133.473
G1 X140.969 Y132.958
G1 X141.082 Y132.444
G1 X141.199 Y131.929
G1 X141.318 Y131.414
G1 X141.440 Y130.899
G1 X141.566 Y130.385
G1 X141.693 Y129.870
G1 X141.824 Y129.355
G1 X141.953 Y128.864
G1 X142.084 Y128.373
G1 X142.218 Y127.882
G1 X142.355 Y127.391
G1 X142.494 Y126.900
G1 X142.635 Y126.409
G1 X142.780 Y125.919
G1 X142.927 Y125.428
G1 X143.029 Y125.110
G1 X143.135 Y124.793
G1 X143.244 Y124.477
G1 X143.356 Y124.161
G1 X143.472 Y123.846
G1 X143.591 Y123.532
G1 X143.713 Y123.218
G1 X143.839 Y122.905
G1 X143.989 Y122.531
G1 X144.141 Y122.157
G1 X144.293 Y121.783
G1 X144.448 Y121.409
G1 X144.595 Y121.055
G1 X144.745 Y120.702
G1 X144.897 Y120.349
G1 X145.052 Y119.997
G1 X145.210 Y119.645
G1 X145.369 Y119.295
G1 X145.532 Y118.944
G1 X145.697 Y118.595
G1 X145.864 Y118.246
G1 X146.034 Y117.897
G1 X146.206 Y117.550
G1 X146.381 Y117.203
G1 X146.559 Y116.849
G1 X146.739 Y116.495
G1 X146.920 Y116.142
G1 X147.102 Y115.788
G1 X147.206 Y115.600
G1 X147.307 Y115.411
G1 X147.405 Y115.220
G1 X147.501 Y115.028
G1 X147.537 Y114.966
G1 X147.569 Y114.909
G1 X147.598 Y114.860
G1 X147.625 Y114.810
G1 X147.649 Y114.759
G1 X147.671 Y114.707
G1 X147.690 Y114.655
G1 X147.706 Y114.603
G1 X147.720 Y114.550
G1 X147.732 Y114.498
G1 X147.739 Y114.404
G1 X147.742 Y114.311
G1 X147.740 Y114.219
G1 X147.735 Y114.127
G1 X147.726 Y114.035
G1 X147.713 Y113.945
G1 X147.696 Y113.856
G1 X147.675 Y113.768
G1 X147.669 Y113.731
G1 X147.662 Y113.694
G1 X147.654 Y113.658
G1 X147.644 Y113.622
G1 X147.633 Y113.588
G1 X147.621 Y113.554
G1 X147.608 Y113.521
G1 X147.594 Y113.489
G1 X147.421 Y113.287
G1 X147.245 Y113.088
G1 X147.068 Y112.889
G1 X146.888 Y112.693
G1 X146.639 Y112.425
G1 X145.924 Y111.693
G1 X145.206 Y110.962
G1 X144.487 Y110.232
G1 X143.766 Y109.501
G1 X143.043 Y108.772
G1 X142.318 Y108.042
G1 X141.591 Y107.314
G1 X140.863 Y106.585
G1 X140.667 Y106.379
G1 X140.521 Y106.224
G1 X140.491 Y106.176
G1 X140.460 Y106.129
G1 X140.427 Y106.084
G1 X140.393 Y106.040
G1 X140.358 Y105.998
G1 X140.321 Y105.956
G1 X140.284 Y105.917
G1 X140.246 Y105.879
G1 X140.177 Y105.827
G1 X140.107 Y105.779
G1 X140.035 Y105.734
G1 X139.961 Y105.694
G1 X139.885 Y105.657
G1 X139.809 Y105.624
G1 X139.731 Y105.596
G1 X139.652 Y105.571
G1 X139.572 Y105.551
G1 X139.492 Y105.535
G1 X139.412 Y105.523
G1 X139.331 Y105.515
G1 X139.330 Y105.507
G1 X139.292 Y105.510
G1 X139.255 Y105.514
G1 X139.218 Y105.519
G1 X139.181 Y105.526
G1 X139.144 Y105.533
G1 X139.108 Y105.542
G1 X139.072 Y105.552
G1 X139.037 Y105.563
G1 X138.977 Y105.585
G1 X138.662 Y105.726
G1 X138.349 Y105.872
G1 X138.037 Y106.022
G1 X137.727 Y106.176
G1 X137.233 Y106.423
G1 X136.735 Y106.666
G1 X136.235 Y106.905
G1 X135.733 Y107.140
G1 X135.227 Y107.371
G1 X134.720 Y107.598
G1 X134.209 Y107.820
G1 X133.697 Y108.039
G1 X133.181 Y108.253
G1 X132.664 Y108.463
G1 X132.144 Y108.669
G1 X131.622 Y108.871
G1 X131.097 Y109.068
G1 X130.570 Y109.262
G1 X130.041 Y109.450
G1 X129.510 Y109.635
G1 X128.976 Y109.815
G1 X128.441 Y109.991
G1 X127.903 Y110.163
G1 X127.364 Y110.330
G1 X126.822 Y110.492
G1 X126.278 Y110.651
G1 X125.732 Y110.805
G1 X125.185 Y110.954
G1 X124.657 Y111.093
G1 X124.128 Y111.227
G1 X123.596 Y111.358
G1 X123.063 Y111.484
G1 X122.529 Y111.605
G1 X121.993 Y111.723
G1 X121.455 Y111.836
G1 X120.915 Y111.944
G1 X120.375 Y112.049
G1 X119.832 Y112.149
G1 X119.289 Y112.244
G1 X118.743 Y112.335
G1 X118.197 Y112.422
G1 X117.649 Y112.504
G1 X117.100 Y112.582
G1 X116.550 Y112.655
G1 X115.998 Y112.724
G1 X115.445 Y112.789
G1 X114.891 Y112.849
G1 X114.336 Y112.904
G1 X113.812 Y112.953
G1 X113.288 Y112.997
G1 X112.762 Y113.037
G1 X112.236 Y113.073
G1 X111.708 Y113.103
G1 X111.180 Y113.130
G1 X110.651 Y113.152
G1 X110.121 Y113.169
G1 X109.838 Y113.174
G1 X109.576 Y113.175
G1 X109.315 Y113.177
G1 X109.053 Y113.181
G1 X108.791 Y113.185
G1 X108.528 Y113.191
G1 X108.266 Y113.198
G1 X108.003 Y113.206
G1 X107.740 Y113.215
G1 X107.650 Y113.211
G1 X107.561 Y113.212
G1 X107.471 Y113.217
G1 X107.383 Y113.226
G1 X107.296 Y113.240
G1 X107.210 Y113.257
G1 X107.125 Y113.278
G1 X107.043 Y113.304
G1 X106.962 Y113.333
G1 X106.883 Y113.366
G1 X106.806 Y113.402
G1 X106.732 Y113.442
G1 X106.663 Y113.481
G1 X106.595 Y113.522
G1 X106.529 Y113.564
G1 X106.464 Y113.608
G1 X106.216 Y113.837
G1 X104.721 Y119.069
G1 X104.579 Y119.525
G1 X104.441 Y119.967
G1 X104.308 Y120.394
G1 X104.062 Y121.219
G1 X103.817 Y122.044
G1 X103.574 Y122.871
G1 X103.332 Y123.699
G1 X103.265 Y123.892
G1 X103.200 Y124.086
G1 X103.135 Y124.280
G1 X103.071 Y124.475
G1 X103.042 Y124.541
G1 X103.016 Y124.608
G1 X102.993 Y124.676
G1 X102.972 Y124.744
G1 X102.954 Y124.812
G1 X102.939 Y124.880
G1 X102.926 Y124.949
G1 X102.917 Y125.018
G1 X102.909 Y125.085
G1 X102.905 Y125.152
G1 X102.904 Y125.219
G1 X102.906 Y125.286
G1 X102.911 Y125.351
G1 X102.920 Y125.416
G1 X102.932 Y125.480
G1 X102.947 Y125.543
G1 X102.965 Y125.605
G1 X102.986 Y125.665
G1 X103.010 Y125.724
G1 X103.036 Y125.781
G1 X103.066 Y125.836
G1 X103.098 Y125.890
G1 X103.133 Y125.941
G1 X103.171 Y125.990
G1 X103.211 Y126.037
G1 X103.253 Y126.082
G1 X103.298 Y126.124
G1 X103.344 Y126.164
G1 X103.648 Y126.396
G1 X103.954 Y126.625
G1 X104.263 Y126.852
G1 X104.575 Y127.076
G1 X104.907 Y127.314
G1 X105.239 Y127.554
G1 X105.571 Y127.796
G1 X105.901 Y128.039
G1 X106.232 Y128.284
G1 X106.561 Y128.530
G1 X106.890 Y128.778
G1 X107.218 Y129.028
G1 X107.709 Y129.403
G1 X108.187 Y129.774
G1 X108.544 Y130.057
G1 X108.901 Y130.342
G1 X109.255 Y130.630
G1 X109.608 Y130.921
G1 X109.959 Y131.215
G1 X110.308 Y131.512
G1 X110.655 Y131.811
G1 X111.001 Y132.114
G1 X111.345 Y132.419
G1 X111.687 Y132.727
G1 X112.027 Y133.038
G1 X112.365 Y133.351
G1 X112.701 Y133.668
G1 X113.036 Y133.987
G1 X113.368 Y134.309
G1 X113.698 Y134.634
G1 X114.079 Y135.010
G1 X114.458 Y135.390
G1 X114.834 Y135.773
G1 X115.207 Y136.160
G1 X115.578 Y136.549
G1 X115.946 Y136.943
G1 X116.311 Y137.339
G1 X116.673 Y137.739
G1 X117.033 Y138.142
G1 X117.390 Y138.548
G1 X117.744 Y138.958
G1 X118.096 Y139.370
G1 X118.444 Y139.786
G1 X118.790 Y140.205
G1 X119.133 Y140.627
G1 X119.473 Y141.052
G1 X119.810 Y141.481
G1 X120.144 Y141.912
G1 X120.474 Y142.347
G1 X120.802 Y142.784
G1 X121.127 Y143.224
G1 X121.449 Y143.668
G1 X121.768 Y144.114
G1 X122.083 Y144.564
G1 X122.396 Y145.016
G1 X122.705 Y145.471
G1 X123.011 Y145.929
G1 X123.314 Y146.390
G1 X123.584 Y146.808
G1 X123.852 Y147.229
G1 X124.117 Y147.651
G1 X124.380 Y148.076
G1 X124.641 Y148.503
G1 X124.899 Y148.932
G1 X125.155 Y149.363
G1 X125.408 Y149.796
G1 X125.628 Y150.179
G1 X125.851 Y150.561
G1 X126.077 Y150.942
G1 X126.305 Y151.322
G1 X126.346 Y151.403
G1 X126.387 Y151.483
G1 X126.430 Y151.563
G1 X126.473 Y151.641
G1 X126.506 Y151.706
G1 X126.542 Y151.769
G1 X126.580 Y151.829
G1 X126.620 Y151.888
G1 X126.662 Y151.945
G1 X126.707 Y151.999
G1 X126.753 Y152.051
G1 X126.801 Y152.100
G1 X126.854 Y152.152
G1 X126.908 Y152.200
G1 X126.964 Y152.246
G1 X127.021 Y152.289
G1 X127.080 Y152.330
G1 X127.140 Y152.368
G1 X127.201 Y152.402
G1 X127.264 Y152.434
G1 X127.327 Y152.463
G1 X127.390 Y152.489
G1 X127.455 Y152.511
G1 X127.519 Y152.531
G1 X127.584 Y152.547
G1 X127.650 Y152.561
G1 X127.715 Y152.571
G1 X127.780 Y152.578
G1 X127.838 Y152.585
G1 X127.897 Y152.589
G1 X128.175 Y152.550
G1 X128.452 Y152.508
G1 X128.728 Y152.463
G1 X129.005 Y152.416
G1 X130.019 Y152.208
G1 X131.034 Y151.998
G1 X132.050 Y151.786
G1 X133.066 Y151.572
G1 X134.083 Y151.356
G1 X135.100 Y151.138
G1 X136.117 Y150.918
G1 X137.136 Y150.696
G1 X137.581 Y150.605
G1 X138.026 Y150.510
G1 X138.470 Y150.411
G1 X138.914 Y150.307
G1 X139.082 Y150.273
G1 X139.250 Y150.237
G1 X139.417 Y150.198
G1 X139.583 Y150.156
G1 X139.675 Y150.139
G1 X139.765 Y150.118
G1 X139.854 Y150.094
G1 X139.942 Y150.066
G1 X140.028 Y150.036
G1 X140.113 Y150.003
G1 X140.197 Y149.967
G1 X140.278 Y149.928
G1 X140.314 Y149.913
G1 X140.347 Y149.896
G1 X140.379 Y149.877
G1 X140.408 Y149.856
G1 X140.435 Y149.833
G1 X140.459 Y149.808
G1 X140.480 Y149.782
G1 X140.499 Y149.755
G1 X140.522 Y149.716
G1 X140.564 Y149.621
G1 X140.603 Y149.525
G1 X140.641 Y149.428
G1 X140.676 Y149.331
G1 X140.708 Y149.232
G1 X140.739 Y149.133
G1 X140.767 Y149.033
G1 X140.793 Y148.932
G1 X140.838 Y148.660
G1 X140.880 Y148.388
G1 X140.917 Y148.114
G1 X140.951 Y147.839
G1 X140.976 Y147.647
G1 X141.018 Y147.301
G1 X141.060 Y146.955
G1 X141.103 Y146.608
G1 X141.147 Y146.261
G1 X141.223 Y145.659
G1 X141.303 Y145.057
G1 X141.389 Y144.455
G1 X141.480 Y143.853
G1 X141.575 Y143.252
G1 X141.676 Y142.650
G1 X141.782 Y142.049
G1 X141.893 Y141.448
G1 X142.010 Y140.848
G1 X142.131 Y140.248
G1 X142.257 Y139.648
G1 X142.389 Y139.049
G1 X142.493 Y138.584
G1 X142.557 Y138.312
G1 X142.623 Y138.041
G1 X142.692 Y137.769
G1 X142.763 Y137.498
G1 X142.836 Y137.227
G1 X142.911 Y136.956
G1 X142.989 Y136.686
G1 X143.069 Y136.416
G1 X143.254 Y135.793
G1 X143.441 Y135.170
G1 X143.633 Y134.548
G1 X143.827 Y133.926
G1 X144.026 Y133.304
G1 X144.227 Y132.683
G1 X144.432 Y132.063
G1 X144.641 Y131.443
G1 X144.844 Y130.851
G1 X145.051 Y130.260
G1 X145.260 Y129.669
G1 X145.473 Y129.079
G1 X145.689 Y128.489
G1 X145.908 Y127.900
G1 X146.130 Y127.311
G1 X146.355 Y126.723
G1 X146.508 Y126.342
G1 X146.666 Y125.963
G1 X146.828 Y125.584
G1 X146.994 Y125.207
G1 X147.164 Y124.832
G1 X147.338 Y124.457
G1 X147.516 Y124.084
G1 X147.697 Y123.712
G1 X147.914 Y123.267
G1 X148.133 Y122.823
G1 X148.353 Y122.378
G1 X148.576 Y121.934
G1 X148.787 Y121.515
G1 X149.002 Y121.096
G1 X149.219 Y120.678
G1 X149.440 Y120.262
G1 X149.663 Y119.846
G1 X149.889 Y119.431
G1 X150.118 Y119.018
G1 X150.351 Y118.605
G1 X150.586 Y118.194
G1 X150.824 Y117.784
G1 X151.064 Y117.374
G1 X151.308 Y116.966
G1 X151.557 Y116.550
G1 X151.807 Y116.135
G1 X152.058 Y115.719
G1 X152.311 Y115.304
G1 X152.453 Y115.084
G1 X152.591 Y114.862
G1 X152.726 Y114.639
G1 X152.858 Y114.413
G1 X152.905 Y114.341
G1 X152.947 Y114.274
G1 X152.984 Y114.216
G1 X153.018 Y114.157
G1 X153.049 Y114.098
G1 X153.078 Y114.037
G1 X153.103 Y113.975
G1 X153.125 Y113.913
G1 X153.144 Y113.850
G1 X153.160 Y113.787
G1 X153.174 Y113.674
G1 X153.183 Y113.561
G1 X153.187 Y113.448
G1 X153.186 Y113.335
G1 X153.180 Y113.223
G1 X153.170 Y113.112
G1 X153.154 Y113.002
G1 X153.134 Y112.893
G1 X153.127 Y112.847
G1 X153.119 Y112.801
G1 X153.109 Y112.757
G1 X153.097 Y112.713
G1 X153.084 Y112.670
G1 X153.070 Y112.628
G1 X153.054 Y112.586
G1 X153.037 Y112.546
G1 X152.841 Y112.285
G1 X152.642 Y112.026
G1 X152.441 Y111.768
G1 X152.237 Y111.513
G1 X151.955 Y111.163
G1 X151.147 Y110.207
G1 X150.337 Y109.251
G1 X149.525 Y108.296
G1 X148.711 Y107.342
G1 X147.894 Y106.388
G1 X147.074 Y105.435
G1 X146.253 Y104.482
G1 X145.429 Y103.530
G1 X145.207 Y103.263
G1 X145.041 Y103.062
G1 X145.006 Y103.002
G1 X144.969 Y102.944
G1 X144.931 Y102.888
G1 X144.891 Y102.833
G1 X144.849 Y102.779
G1 X144.806 Y102.727
G1 X144.762 Y102.677
G1 X144.716 Y102.629
G1 X144.635 Y102.561
G1 X144.551 Y102.498
G1 X144.464 Y102.439
G1 X144.375 Y102.384
G1 X144.284 Y102.334
G1 X144.191 Y102.289
G1 X144.097 Y102.249
G1 X144.001 Y102.214
G1 X143.903 Y102.183
G1 X143.805 Y102.158
G1 X143.705 Y102.138
G1 X143.606 Y102.122
G1 X143.602 Y102.115
G1 X143.554 Y102.116
G1 X143.505 Y102.119
G1 X143.457 Y102.124
G1 X143.409 Y102.130
G1 X143.362 Y102.137
G1 X143.315 Y102.146
G1 X143.268 Y102.157
G1 X143.221 Y102.169
G1 X143.144 Y102.191
G1 X142.747 Y102.336
G1 X142.351 Y102.487
G1 X141.957 Y102.643
G1 X141.565 Y102.804
G1 X140.941 Y103.062
G1 X140.313 Y103.314
G1 X139.683 Y103.561
G1 X139.050 Y103.803
G1 X138.415 Y104.040
G1 X137.777 Y104.272
G1 X137.137 Y104.498
G1 X136.494 Y104.720
G1 X135.849 Y104.936
G1 X135.201 Y105.147
G1 X134.551 Y105.352
G1 X133.898 Y105.552
G1 X133.243 Y105.747
G1 X132.586 Y105.936
G1 X131.927 Y106.121
G1 X131.266 Y106.299
G1 X130.603 Y106.473
G1 X129.937 Y106.640
G1 X129.270 Y106.803
G1 X128.600 Y106.960
G1 X127.929 Y107.111
G1 X127.255 Y107.257
G1 X126.580 Y107.398
G1 X125.903 Y107.533
G1 X125.252 Y107.656
G1 X124.598 Y107.775
G1 X123.943 Y107.888
G1 X123.286 Y107.996
G1 X122.628 Y108.099
G1 X121.969 Y108.196
G1 X121.308 Y108.288
G1 X120.645 Y108.375
G1 X119.982 Y108.456
G1 X119.317 Y108.532
G1 X118.651 Y108.602
G1 X117.983 Y108.668
G1 X117.315 Y108.727
G1 X116.645 Y108.782
G1 X115.974 Y108.830
G1 X115.303 Y108.874
G1 X114.630 Y108.912
G1 X113.957 Y108.944
G1 X113.282 Y108.971
G1 X112.607 Y108.993
G1 X111.970 Y109.009
G1 X111.333 Y109.019
G1 X110.695 Y109.025
G1 X110.056 Y109.025
G1 X109.417 Y109.019
G1 X108.777 Y109.009
G1 X108.137 Y108.992
G1 X107.496 Y108.971
G1 X107.155 Y108.954
G1 X106.840 Y108.935
G1 X106.525 Y108.918
G1 X106.209 Y108.903
G1 X105.893 Y108.888
G1 X105.577 Y108.876
G1 X105.261 Y108.864
G1 X104.944 Y108.854
G1 X104.628 Y108.845
G1 X104.520 Y108.836
G1 X104.413 Y108.832
G1 X104.307 Y108.833
G1 X104.201 Y108.839
G1 X104.095 Y108.851
G1 X103.992 Y108.867
G1 X103.889 Y108.888
G1 X103.788 Y108.914
G1 X103.689 Y108.945
G1 X103.593 Y108.981
G1 X103.498 Y109.021
G1 X103.407 Y109.066
G1 X103.322 Y109.109
G1 X103.238 Y109.155
G1 X103.156 Y109.203
G1 X103.076 Y109.254
G1 X102.759 Y109.511
G1 X100.520 Y115.696
G1 X100.313 Y116.235
G1 X100.112 Y116.759
G1 X99.917 Y117.264
G1 X99.554 Y118.239
G1 X99.192 Y119.216
G1 X98.832 Y120.194
G1 X98.474 Y121.173
G1 X98.380 Y121.402
G1 X98.287 Y121.632
G1 X98.195 Y121.862
G1 X98.104 Y122.093
G1 X98.067 Y122.172
G1 X98.032 Y122.252
G1 X98.001 Y122.333
G1 X97.972 Y122.415
G1 X97.948 Y122.497
G1 X97.926 Y122.580
G1 X97.908 Y122.664
G1 X97.893 Y122.747
G1 X97.881 Y122.830
G1 X97.872 Y122.912
G1 X97.868 Y122.994
G1 X97.867 Y123.076
G1 X97.871 Y123.157
G1 X97.878 Y123.237
G1 X97.890 Y123.317
G1 X97.905 Y123.395
G1 X97.924 Y123.473
G1 X97.947 Y123.548
G1 X97.973 Y123.623
G1 X98.003 Y123.695
G1 X98.036 Y123.766
G1 X98.073 Y123.834
G1 X98.114 Y123.900
G1 X98.157 Y123.964
G1 X98.204 Y124.026
G1 X98.253 Y124.084
G1 X98.306 Y124.140
G1 X98.361 Y124.193
G1 X98.709 Y124.498
G1 X99.061 Y124.800
G1 X99.416 Y125.099
G1 X99.774 Y125.395
G1 X100.157 Y125.710
G1 X100.539 Y126.026
G1 X100.919 Y126.344
G1 X101.299 Y126.664
G1 X101.678 Y126.986
G1 X102.056 Y127.310
G1 X102.433 Y127.635
G1 X102.809 Y127.962
G1 X103.370 Y128.453
G1 X103.916 Y128.938
G1 X104.325 Y129.306
G1 X104.731 Y129.678
G1 X105.136 Y130.053
G1 X105.538 Y130.431
G1 X105.937 Y130.813
G1 X106.334 Y131.197
G1 X106.729 Y131.585
G1 X107.122 Y131.976
G1 X107.512 Y132.370
G1 X107.899 Y132.767
G1 X108.284 Y133.168
G1 X108.667 Y133.571
G1 X109.047 Y133.977
G1 X109.424 Y134.387
G1 X109.799 Y134.799
G1 X110.171 Y135.215
G1 X110.600 Y135.697
G1 X111.026 Y136.182
G1 X111.448 Y136.671
G1 X111.866 Y137.163
G1 X112.281 Y137.660
G1 X112.693 Y138.160
G1 X113.101 Y138.663
G1 X113.506 Y139.170
G1 X113.907 Y139.681
G1 X114.304 Y140.195
G1 X114.698 Y140.713
G1 X115.088 Y141.234
G1 X115.475 Y141.759
G1 X115.858 Y142.287
G1 X116.237 Y142.819
G1 X116.612 Y143.354
G1 X116.984 Y143.892
G1 X117.352 Y144.434
G1 X117.716 Y144.979
G1 X118.076 Y145.527
G1 X118.432 Y146.078
G1 X118.784 Y146.633
G1 X119.132 Y147.191
G1 X119.477 Y147.752
G1 X119.817 Y148.316
G1 X120.154 Y148.883
G1 X120.486 Y149.453
G1 X120.814 Y150.026
G1 X121.107 Y150.546
G1 X121.396 Y151.068
G1 X121.682 Y151.592
G1 X121.966 Y152.119
G1 X122.246 Y152.647
G1 X122.524 Y153.178
G1 X122.798 Y153.711
G1 X123.070 Y154.246
G1 X123.305 Y154.720
G1 X123.544 Y155.192
G1 X123.786 Y155.662
G1 X124.032 Y156.132
G1 X124.076 Y156.229
G1 X124.121 Y156.326
G1 X124.167 Y156.422
G1 X124.215 Y156.517
G1 X124.252 Y156.595
G1 X124.291 Y156.670
G1 X124.333 Y156.743
G1 X124.379 Y156.814
G1 X124.427 Y156.883
G1 X124.478 Y156.949
G1 X124.531 Y157.012
G1 X124.587 Y157.073
G1 X124.647 Y157.136
G1 X124.710 Y157.196
G1 X124.775 Y157.253
G1 X124.842 Y157.306
G1 X124.911 Y157.357
G1 X124.982 Y157.404
G1 X125.054 Y157.448
G1 X125.128 Y157.488
G1 X125.202 Y157.525
G1 X125.278 Y157.558
G1 X125.355 Y157.588
G1 X125.433 Y157.614
G1 X125.511 Y157.636
G1 X125.589 Y157.654
G1 X125.668 Y157.669
G1 X125.747 Y157.680
G1 X125.818 Y157.690
G1 X125.890 Y157.697
G1 X126.225 Y157.669
G1 X126.560 Y157.638
G1 X126.895 Y157.603
G1 X127.230 Y157.564
G1 X128.456 Y157.390
G1 X129.683 Y157.213
G1 X130.910 Y157.033
G1 X132.139 Y156.851
G1 X133.367 Y156.667
G1 X134.597 Y156.480
G1 X135.827 Y156.290
G1 X137.057 Y156.098
G1 X137.595 Y156.020
G1 X138.133 Y155.937
G1 X138.670 Y155.848
G1 X139.207 Y155.754
G1 X139.411 Y155.724
G1 X139.614 Y155.691
G1 X139.816 Y155.654
G1 X140.018 Y155.614
G1 X140.128 Y155.596
G1 X140.238 Y155.575
G1 X140.346 Y155.550
G1 X140.454 Y155.521
G1 X140.559 Y155.489
G1 X140.663 Y155.453
G1 X140.766 Y155.413
G1 X140.866 Y155.370
G1 X140.910 Y155.352
G1 X140.952 Y155.331
G1 X140.991 Y155.308
G1 X141.028 Y155.282
G1 X141.062 Y155.254
G1 X141.093 Y155.223
G1 X141.121 Y155.191
G1 X141.146 Y155.157
G1 X141.176 Y155.110
G1 X141.233 Y154.997
G1 X141.288 Y154.883
G1 X141.340 Y154.768
G1 X141.389 Y154.651
G1 X141.435 Y154.534
G1 X141.479 Y154.415
G1 X141.520 Y154.296
G1 X141.558 Y154.175
G1 X141.633 Y153.853
G1 X141.702 Y153.529
G1 X141.767 Y153.203
G1 X141.826 Y152.877
G1 X141.870 Y152.647
G1 X141.945 Y152.236
G1 X142.020 Y151.825
G1 X142.097 Y151.414
G1 X142.174 Y151.003
G1 X142.306 Y150.291
G1 X142.445 Y149.579
G1 X142.590 Y148.867
G1 X142.740 Y148.157
G1 X142.897 Y147.447
G1 X143.059 Y146.738
G1 X143.228 Y146.029
G1 X143.402 Y145.321
G1 X143.582 Y144.615
G1 X143.768 Y143.909
G1 X143.960 Y143.204
G1 X144.158 Y142.500
G1 X144.314 Y141.954
G1 X144.409 Y141.634
G1 X144.506 Y141.314
G1 X144.606 Y140.995
G1 X144.709 Y140.676
G1 X144.815 Y140.358
G1 X144.922 Y140.040
G1 X145.033 Y139.723
G1 X145.146 Y139.407
G1 X145.408 Y138.679
G1 X145.674 Y137.951
G1 X145.943 Y137.225
G1 X146.216 Y136.499
G1 X146.494 Y135.774
G1 X146.775 Y135.050
G1 X147.060 Y134.327
G1 X147.349 Y133.605
G1 X147.631 Y132.916
G1 X147.915 Y132.228
G1 X148.203 Y131.541
G1 X148.495 Y130.855
G1 X148.790 Y130.169
G1 X149.089 Y129.485
G1 X149.391 Y128.801
G1 X149.697 Y128.118
G1 X149.904 Y127.677
G1 X150.116 Y127.237
G1 X150.332 Y126.798
G1 X150.553 Y126.362
G1 X150.778 Y125.927
G1 X151.008 Y125.494
G1 X151.242 Y125.063
G1 X151.481 Y124.634
G1 X151.766 Y124.121
G1 X152.054 Y123.609
G1 X152.343 Y123.097
G1 X152.635 Y122.585
G1 X152.912 Y122.102
G1 X153.192 Y121.619
G1 X153.476 Y121.139
G1 X153.763 Y120.660
G1 X154.053 Y120.182
G1 X154.347 Y119.705
G1 X154.644 Y119.230
G1 X154.944 Y118.757
G1 X155.248 Y118.285
G1 X155.554 Y117.815
G1 X155.864 Y117.346
G1 X156.178 Y116.879
G1 X156.497 Y116.403
G1 X156.819 Y115.927
G1 X157.141 Y115.452
G1 X157.465 Y114.977
G1 X157.645 Y114.725
G1 X157.820 Y114.472
G1 X157.992 Y114.215
G1 X158.160 Y113.956
G1 X158.218 Y113.873
G1 X158.270 Y113.797
G1 X158.315 Y113.730
G1 X158.356 Y113.662
G1 X158.394 Y113.593
G1 X158.429 Y113.522
G1 X158.460 Y113.450
G1 X158.488 Y113.377
G1 X158.511 Y113.303
G1 X158.531 Y113.229
G1 X158.553 Y113.096
G1 X158.568 Y112.962
G1 X158.578 Y112.828
G1 X158.581 Y112.694
G1 X158.579 Y112.561
G1 X158.571 Y112.428
G1 X158.557 Y112.296
G1 X158.537 Y112.166
G1 X158.529 Y112.110
G1 X158.520 Y112.055
G1 X158.508 Y112.001
G1 X158.494 Y111.948
G1 X158.479 Y111.896
G1 X158.462 Y111.844
G1 X158.443 Y111.794
G1 X158.423 Y111.745
G1 X158.206 Y111.423
G1 X157.985 Y111.103
G1 X157.762 Y110.786
G1 X157.535 Y110.470
G1 X157.221 Y110.040
G1 X156.327 Y108.859
G1 X155.431 Y107.679
G1 X154.531 Y106.500
G1 X153.629 Y105.322
G1 X152.724 Y104.144
G1 X151.816 Y102.967
G1 X150.905 Y101.792
G1 X149.991 Y100.617
G1 X149.744 Y100.288
G1 X149.558 Y100.041
G1 X149.518 Y99.969
G1 X149.475 Y99.899
G1 X149.431 Y99.830
G1 X149.384 Y99.763
G1 X149.336 Y99.698
G1 X149.286 Y99.635
G1 X149.234 Y99.573
G1 X149.180 Y99.514
G1 X149.086 Y99.430
G1 X148.988 Y99.350
G1 X148.887 Y99.276
G1 X148.783 Y99.207
G1 X148.676 Y99.143
G1 X148.566 Y99.085
G1 X148.454 Y99.032
G1 X148.341 Y98.985
G1 X148.225 Y98.944
G1 X148.108 Y98.908
G1 X147.989 Y98.879
G1 X147.870 Y98.856
G1 X147.864 Y98.847
G1 X147.804 Y98.847
G1 X147.744 Y98.848
G1 X147.684 Y98.851
G1 X147.625 Y98.856
G1 X147.565 Y98.862
G1 X147.507 Y98.871
G1 X147.448 Y98.881
G1 X147.390 Y98.893
G1 X147.295 Y98.915
G1 X146.816 Y99.062
G1 X146.338 Y99.216
G1 X145.863 Y99.376
G1 X145.389 Y99.542
G1 X144.635 Y99.807
G1 X143.879 Y100.066
G1 X143.120 Y100.319
G1 X142.359 Y100.566
G1 X141.595 Y100.807
G1 X140.828 Y101.041
G1 X140.059 Y101.270
G1 X139.287 Y101.491
G1 X138.513 Y101.707
G1 X137.736 Y101.917
G1 X136.958 Y102.120
G1 X136.176 Y102.316
G1 X135.393 Y102.507
G1 X134.607 Y102.691
G1 X133.820 Y102.869
G1 X133.030 Y103.040
G1 X132.238 Y103.205
G1 X131.444 Y103.363
G1 X130.649 Y103.515
G1 X129.851 Y103.660
G1 X129.052 Y103.799
G1 X128.250 Y103.932
G1 X127.448 Y104.058
G1 X126.643 Y104.177
G1 X125.869 Y104.285
G1 X125.093 Y104.387
G1 X124.315 Y104.482
G1 X123.537 Y104.571
G1 X122.757 Y104.654
G1 X121.976 Y104.731
G1 X121.193 Y104.802
G1 X120.409 Y104.866
G1 X119.625 Y104.924
G1 X118.839 Y104.975
G1 X118.052 Y105.020
G1 X117.264 Y105.059
G1 X116.475 Y105.092
G1 X115.686 Y105.118
G1 X114.895 Y105.138
G1 X114.104 Y105.151
G1 X113.312 Y105.158
G1 X112.519 Y105.159
G1 X111.726 Y105.153
G1 X110.932 Y105.141
G1 X110.184 Y105.125
G1 X109.435 Y105.103
G1 X108.686 Y105.074
G1 X107.937 Y105.039
G1 X107.188 Y104.998
G1 X106.438 Y104.951
G1 X105.688 Y104.897
G1 X104.938 Y104.837
G1 X104.539 Y104.800
G1 X104.171 Y104.763
G1 X103.803 Y104.727
G1 X103.434 Y104.693
G1 X103.065 Y104.661
G1 X102.695 Y104.630
G1 X102.326 Y104.601
G1 X101.955 Y104.574
G1 X101.585 Y104.549
G1 X101.460 Y104.534
G1 X101.335 Y104.526
G1 X101.211 Y104.524
G1 X101.087 Y104.528
G1 X100.963 Y104.538
G1 X100.841 Y104.555
G1 X100.720 Y104.576
G1 X100.601 Y104.604
G1 X100.484 Y104.638
G1 X100.369 Y104.677
G1 X100.257 Y104.721
G1 X100.148 Y104.771
G1 X100.046 Y104.820
G1 X99.946 Y104.872
G1 X99.848 Y104.927
G1 X99.752 Y104.984
G1 X99.366 Y105.270
G1 X96.398 Y112.391
G1 X96.126 Y113.013
G1 X95.863 Y113.617
G1 X95.608 Y114.201
G1 X95.129 Y115.325
G1 X94.653 Y116.450
G1 X94.178 Y117.577
G1 X93.706 Y118.706
G1 X93.585 Y118.971
G1 X93.465 Y119.237
G1 X93.347 Y119.504
G1 X93.229 Y119.771
G1 X93.183 Y119.864
G1 X93.139 Y119.959
G1 X93.100 Y120.054
G1 X93.064 Y120.151
G1 X93.032 Y120.248
G1 X93.004 Y120.346
G1 X92.980 Y120.445
G1 X92.960 Y120.544
G1 X92.943 Y120.642
G1 X92.930 Y120.740
G1 X92.923 Y120.838
G1 X92.919 Y120.936
G1 X92.921 Y121.034
G1 X92.927 Y121.130
G1 X92.938 Y121.226
G1 X92.953 Y121.321
G1 X92.973 Y121.415
G1 X92.997 Y121.507
G1 X93.026 Y121.597
G1 X93.059 Y121.686
G1 X93.096 Y121.772
G1 X93.137 Y121.857
G1 X93.183 Y121.938
G1 X93.232 Y122.018
G1 X93.285 Y122.094
G1 X93.342 Y122.167
G1 X93.402 Y122.238
G1 X93.465 Y122.305
G1 X93.858 Y122.682
G1 X94.255 Y123.056
G1 X94.655 Y123.426
G1 X95.060 Y123.792
G1 X95.492 Y124.182
G1 X95.923 Y124.574
G1 X96.352 Y124.968
G1 X96.781 Y125.364
G1 X97.208 Y125.761
G1 X97.634 Y126.161
G1 X98.059 Y126.562
G1 X98.483 Y126.965
G1 X99.113 Y127.570
G1 X99.727 Y128.166
G1 X100.187 Y128.619
G1 X100.644 Y129.076
G1 X101.098 Y129.536
G1 X101.549 Y130.000
G1 X101.998 Y130.467
G1 X102.443 Y130.938
G1 X102.885 Y131.412
G1 X103.325 Y131.890
G1 X103.761 Y132.371
G1 X104.195 Y132.855
G1 X104.625 Y133.343
G1 X105.052 Y133.835
G1 X105.476 Y134.329
G1 X105.897 Y134.827
G1 X106.315 Y135.329
G1 X106.730 Y135.833
G1 X107.207 Y136.417
G1 X107.680 Y137.006
G1 X108.149 Y137.598
G1 X108.614 Y138.195
G1 X109.075 Y138.795
G1 X109.531 Y139.399
G1 X109.983 Y140.007
G1 X110.431 Y140.620
G1 X110.874 Y141.236
G1 X111.314 Y141.855
G1 X111.748 Y142.479
G1 X112.179 Y143.106
G1 X112.605 Y143.737
G1 X113.026 Y144.372
G1 X113.443 Y145.011
G1 X113.856 Y145.653
G1 X114.264 Y146.298
G1 X114.667 Y146.948
G1 X115.066 Y147.600
G1 X115.460 Y148.257
G1 X115.850 Y148.916
G1 X116.234 Y149.579
G1 X116.614 Y150.246
G1 X116.990 Y150.916
G1 X117.360 Y151.589
G1 X117.726 Y152.265
G1 X118.087 Y152.945
G1 X118.443 Y153.628
G1 X118.760 Y154.247
G1 X119.074 Y154.868
G1 X119.384 Y155.491
G1 X119.690 Y156.117
G1 X119.993 Y156.745
G1 X120.292 Y157.376
G1 X120.588 Y158.008
G1 X120.880 Y158.643
G1 X121.133 Y159.204
G1 X121.390 Y159.764
G1 X121.651 Y160.322
G1 X121.917 Y160.878
G1 X121.966 Y160.992
G1 X122.016 Y161.106
G1 X122.068 Y161.218
G1 X122.121 Y161.330
G1 X122.162 Y161.420
G1 X122.207 Y161.508
G1 X122.255 Y161.594
G1 X122.307 Y161.677
G1 X122.362 Y161.757
G1 X122.420 Y161.835
G1 X122.481 Y161.909
G1 X122.546 Y161.981
G1 X122.616 Y162.055
G1 X122.688 Y162.126
G1 X122.764 Y162.193
G1 X122.842 Y162.257
G1 X122.922 Y162.318
G1 X123.004 Y162.374
G1 X123.088 Y162.427
G1 X123.174 Y162.475
G1 X123.262 Y162.520
G1 X123.351 Y162.560
G1 X123.441 Y162.597
G1 X123.532 Y162.629
G1 X123.625 Y162.657
G1 X123.717 Y162.680
G1 X123.811 Y162.699
G1 X123.904 Y162.714
G1 X123.989 Y162.727
G1 X124.074 Y162.737
G1 X124.467 Y162.718
G1 X124.860 Y162.695
G1 X125.253 Y162.668
G1 X125.646 Y162.637
G1 X127.081 Y162.489
G1 X128.517 Y162.338
G1 X129.953 Y162.184
G1 X131.390 Y162.027
G1 X132.828 Y161.867
G1 X134.266 Y161.703
G1 X135.705 Y161.537
G1 X137.144 Y161.368
G1 X137.774 Y161.300
G1 X138.404 Y161.225
G1 X139.034 Y161.144
G1 X139.662 Y161.056
G1 X139.902 Y161.028
G1 X140.140 Y160.996
G1 X140.378 Y160.960
G1 X140.615 Y160.919
G1 X140.746 Y160.902
G1 X140.876 Y160.879
G1 X141.004 Y160.853
G1 X141.131 Y160.821
G1 X141.256 Y160.786
G1 X141.380 Y160.746
G1 X141.502 Y160.702
G1 X141.622 Y160.653
G1 X141.675 Y160.632
G1 X141.725 Y160.607
G1 X141.773 Y160.579
G1 X141.818 Y160.548
G1 X141.860 Y160.514
G1 X141.899 Y160.478
G1 X141.934 Y160.439
G1 X141.966 Y160.397
G1 X142.004 Y160.342
G1 X142.077 Y160.211
G1 X142.146 Y160.078
G1 X142.213 Y159.944
G1 X142.276 Y159.809
G1 X142.336 Y159.672
G1 X142.393 Y159.533
G1 X142.447 Y159.394
G1 X142.498 Y159.253
G1 X142.599 Y158.880
G1 X142.695 Y158.505
G1 X142.785 Y158.128
G1 X142.869 Y157.749
G1 X142.931 Y157.483
G1 X143.036 Y157.007
G1 X143.143 Y156.531
G1 X143.249 Y156.056
G1 X143.357 Y155.580
G1 X143.542 Y154.758
G1 X143.734 Y153.936
G1 X143.933 Y153.116
G1 X144.138 Y152.297
G1 X144.350 Y151.478
G1 X144.569 Y150.661
G1 X144.795 Y149.845
G1 X145.027 Y149.031
G1 X145.266 Y148.217
G1 X145.511 Y147.405
G1 X145.764 Y146.595
G1 X146.023 Y145.785
G1 X146.227 Y145.158
G1 X146.350 Y144.789
G1 X146.476 Y144.421
G1 X146.605 Y144.053
G1 X146.738 Y143.686
G1 X146.873 Y143.320
G1 X147.011 Y142.955
G1 X147.152 Y142.590
G1 X147.296 Y142.227
G1 X147.629 Y141.393
G1 X147.966 Y140.560
G1 X148.308 Y139.728
G1 X148.654 Y138.898
G1 X149.004 Y138.068
G1 X149.359 Y137.240
G1 X149.718 Y136.413
G1 X150.081 Y135.587
G1 X150.434 Y134.800
G1 X150.790 Y134.013
G1 X151.151 Y133.228
G1 X151.515 Y132.444
G1 X151.884 Y131.662
G1 X152.256 Y130.880
G1 X152.632 Y130.099
G1 X153.012 Y129.320
G1 X153.268 Y128.816
G1 X153.529 Y128.314
G1 X153.796 Y127.814
G1 X154.067 Y127.316
G1 X154.344 Y126.821
G1 X154.625 Y126.328
G1 X154.912 Y125.837
G1 X155.204 Y125.349
G1 X155.553 Y124.766
G1 X155.904 Y124.183
G1 X156.257 Y123.601
G1 X156.612 Y123.019
G1 X156.950 Y122.470
G1 X157.291 Y121.922
G1 X157.636 Y121.376
G1 X157.985 Y120.832
G1 X158.337 Y120.289
G1 X158.693 Y119.749
G1 X159.053 Y119.210
G1 X159.416 Y118.673
G1 X159.783 Y118.138
G1 X160.153 Y117.605
G1 X160.527 Y117.074
G1 X160.905 Y116.544
G1 X161.291 Y116.005
G1 X161.678 Y115.466
G1 X162.066 Y114.928
G1 X162.456 Y114.390
G1 X162.670 Y114.105
G1 X162.880 Y113.817
G1 X163.086 Y113.526
G1 X163.288 Y113.232
G1 X163.355 Y113.137
G1 X163.415 Y113.049
G1 X163.467 Y112.973
G1 X163.515 Y112.894
G1 X163.559 Y112.814
G1 X163.599 Y112.732
G1 X163.635 Y112.648
G1 X163.667 Y112.564
G1 X163.694 Y112.478
G1 X163.718 Y112.392
G1 X163.745 Y112.237
G1 X163.765 Y112.082
G1 X163.778 Y111.926
G1 X163.785 Y111.770
G1 X163.784 Y111.615
G1 X163.777 Y111.460
G1 X163.763 Y111.306
G1 X163.743 Y111.153
G1 X163.733 Y111.088
G1 X163.721 Y111.022
G1 X163.707 Y110.958
G1 X163.691 Y110.895
G1 X163.672 Y110.833
G1 X163.652 Y110.771
G1 X163.629 Y110.711
G1 X163.605 Y110.652
G1 X163.363 Y110.272
G1 X163.118 Y109.894
G1 X162.868 Y109.519
G1 X162.615 Y109.146
G1 X162.266 Y108.636
G1 X161.275 Y107.242
G1 X160.280 Y105.848
G1 X159.282 Y104.456
G1 X158.280 Y103.065
G1 X157.276 Y101.675
G1 X156.267 Y100.286
G1 X155.256 Y98.898
G1 X154.241 Y97.511
G1 X153.964 Y97.123
G1 X153.756 Y96.832
G1 X153.709 Y96.747
G1 X153.659 Y96.665
G1 X153.607 Y96.584
G1 X153.553 Y96.505
G1 X153.496 Y96.428
G1 X153.438 Y96.354
G1 X153.377 Y96.281
G1 X153.314 Y96.211
G1 X153.205 Y96.110
G1 X153.092 Y96.015
G1 X152.975 Y95.926
G1 X152.855 Y95.843
G1 X152.731 Y95.766
G1 X152.604 Y95.695
G1 X152.474 Y95.631
G1 X152.341 Y95.572
G1 X152.206 Y95.521
G1 X152.069 Y95.476
G1 X151.931 Y95.439
G1 X151.791 Y95.408
G1 X151.782 Y95.398
G1 X151.709 Y95.395
G1 X151.637 Y95.394
G1 X151.565 Y95.396
G1 X151.494 Y95.400
G1 X151.423 Y95.405
G1 X151.352 Y95.413
G1 X151.281 Y95.423
G1 X151.211 Y95.435
G1 X151.098 Y95.457
G1 X150.539 Y95.611
G1 X149.981 Y95.773
G1 X149.425 Y95.941
G1 X148.872 Y96.118
G1 X147.993 Y96.398
G1 X147.112 Y96.672
G1 X146.228 Y96.939
G1 X145.341 Y97.199
G1 X144.452 Y97.451
G1 X143.560 Y97.697
G1 X142.665 Y97.935
G1 X141.768 Y98.166
G1 X140.868 Y98.390
G1 X139.966 Y98.607
G1 X139.061 Y98.816
G1 X138.154 Y99.019
G1 X137.245 Y99.214
G1 X136.334 Y99.401
G1 X135.420 Y99.581
G1 X134.505 Y99.754
G1 X133.587 Y99.920
G1 X132.668 Y100.078
G1 X131.746 Y100.229
G1 X130.823 Y100.372
G1 X129.898 Y100.508
G1 X128.971 Y100.637
G1 X128.043 Y100.758
G1 X127.113 Y100.872
G1 X126.218 Y100.973
G1 X125.321 Y101.067
G1 X124.424 Y101.155
G1 X123.525 Y101.235
G1 X122.624 Y101.308
G1 X121.723 Y101.374
G1 X120.820 Y101.433
G1 X119.917 Y101.484
G1 X119.012 Y101.529
G1 X118.106 Y101.566
G1 X117.200 Y101.596
G1 X116.293 Y101.619
G1 X115.384 Y101.634
G1 X114.476 Y101.643
G1 X113.566 Y101.644
G1 X112.656 Y101.638
G1 X111.745 Y101.625
G1 X110.834 Y101.604
G1 X109.922 Y101.577
G1 X109.010 Y101.542
G1 X108.151 Y101.504
G1 X107.291 Y101.458
G1 X106.432 Y101.406
G1 X105.572 Y101.347
G1 X104.712 Y101.280
G1 X103.852 Y101.206
G1 X102.992 Y101.126
G1 X102.132 Y101.038
G1 X101.675 Y100.987
G1 X101.254 Y100.936
G1 X100.831 Y100.888
G1 X100.409 Y100.841
G1 X99.986 Y100.796
G1 X99.562 Y100.754
G1 X99.138 Y100.713
G1 X98.714 Y100.674
G1 X98.289 Y100.637
G1 X98.146 Y100.620
G1 X98.003 Y100.611
G1 X97.860 Y100.608
G1 X97.717 Y100.612
G1 X97.575 Y100.623
G1 X97.434 Y100.641
G1 X97.295 Y100.666
G1 X97.157 Y100.697
G1 X97.022 Y100.736
G1 X96.889 Y100.781
G1 X96.759 Y100.832
G1 X96.632 Y100.889
G1 X96.514 Y100.946
G1 X96.398 Y101.005
G1 X96.284 Y101.069
G1 X96.172 Y101.135
G1 X95.722 Y101.455
G1 X92.127 Y109.544
G1 X91.799 Y110.254
G1 X91.481 Y110.942
G1 X91.174 Y111.608
G1 X90.597 Y112.886
G1 X90.021 Y114.166
G1 X89.449 Y115.449
G1 X88.878 Y116.733
G1 X88.734 Y117.037
G1 X88.591 Y117.341
G1 X88.449 Y117.647
G1 X88.309 Y117.953
G1 X88.254 Y118.061
G1 X88.204 Y118.171
G1 X88.157 Y118.282
G1 X88.115 Y118.395
G1 X88.078 Y118.508
G1 X88.044 Y118.623
G1 X88.016 Y118.738
G1 X87.991 Y118.854
G1 X87.970 Y118.969
G1 X87.955 Y119.083
G1 X87.945 Y119.198
G1 X87.940 Y119.313
G1 X87.941 Y119.427
G1 X87.947 Y119.541
G1 X87.958 Y119.654
G1 X87.975 Y119.766
G1 X87.996 Y119.876
G1 X88.023 Y119.985
G1 X88.055 Y120.092
G1 X88.092 Y120.197
G1 X88.134 Y120.300
G1 X88.181 Y120.400
G1 X88.232 Y120.497
G1 X88.288 Y120.592
G1 X88.348 Y120.683
G1 X88.413 Y120.771
G1 X88.481 Y120.856
G1 X88.554 Y120.937
G1 X88.996 Y121.381
G1 X89.442 Y121.821
G1 X89.894 Y122.257
G1 X90.349 Y122.688
G1 X90.836 Y123.147
G1 X91.321 Y123.608
G1 X91.805 Y124.072
G1 X92.287 Y124.537
G1 X92.769 Y125.004
G1 X93.248 Y125.473
G1 X93.727 Y125.945
G1 X94.204 Y126.418
G1 X94.913 Y127.126
G1 X95.603 Y127.825
G1 X96.120 Y128.356
G1 X96.634 Y128.890
G1 X97.144 Y129.429
G1 X97.651 Y129.972
G1 X98.155 Y130.518
G1 X98.655 Y131.068
G1 X99.152 Y131.622
G1 X99.646 Y132.180
G1 X100.136 Y132.742
G1 X100.622 Y133.307
G1 X101.105 Y133.876
G1 X101.584 Y134.449
G1 X102.060 Y135.025
G1 X102.532 Y135.605
G1 X103.000 Y136.188
G1 X103.465 Y136.775
G1 X104.000 Y137.455
G1 X104.529 Y138.139
G1 X105.054 Y138.827
G1 X105.575 Y139.520
G1 X106.090 Y140.217
G1 X106.600 Y140.918
G1 X107.106 Y141.624
G1 X107.607 Y142.334
G1 X108.102 Y143.048
G1 X108.593 Y143.766
G1 X109.079 Y144.488
G1 X109.559 Y145.214
G1 X110.035 Y145.945
G1 X110.505 Y146.679
G1 X110.970 Y147.418
G1 X111.430 Y148.160
G1 X111.885 Y148.906
G1 X112.334 Y149.656
G1 X112.779 Y150.410
G1 X113.218 Y151.168
G1 X113.651 Y151.929
G1 X114.079 Y152.694
G1 X114.502 Y153.463
G1 X114.920 Y154.236
G1 X115.332 Y155.012
G1 X115.738 Y155.791
G1 X116.139 Y156.574
G1 X116.534 Y157.361
G1 X116.887 Y158.073
G1 X117.235 Y158.787
G1 X117.579 Y159.505
G1 X117.919 Y160.224
G1 X118.255 Y160.947
G1 X118.587 Y161.671
G1 X118.915 Y162.398
G1 X119.238 Y163.128
G1 X119.519 Y163.773
G1 X119.804 Y164.415
G1 X120.095 Y165.056
G1 X120.391 Y165.695
G1 X120.447 Y165.825
G1 X120.505 Y165.954
G1 X120.564 Y166.082
G1 X120.626 Y166.209
G1 X120.674 Y166.312
G1 X120.726 Y166.412
G1 X120.782 Y166.509
G1 X120.842 Y166.604
G1 X120.906 Y166.695
G1 X120.974 Y166.783
G1 X121.046 Y166.868
G1 X121.121 Y166.950
G1 X121.202 Y167.035
G1 X121.287 Y167.116
G1 X121.374 Y167.193
G1 X121.465 Y167.266
G1 X121.558 Y167.334
G1 X121.653 Y167.399
G1 X121.751 Y167.459
G1 X121.851 Y167.515
G1 X121.953 Y167.566
G1 X122.057 Y167.612
G1 X122.162 Y167.654
G1 X122.269 Y167.691
G1 X122.376 Y167.722
G1 X122.484 Y167.749
G1 X122.593 Y167.772
G1 X122.703 Y167.789
G1 X122.801 Y167.803
G1 X122.901 Y167.814
G1 X123.352 Y167.798
G1 X123.804 Y167.777
G1 X124.255 Y167.752
G1 X124.706 Y167.722
G1 X126.347 Y167.575
G1 X127.988 Y167.425
G1 X129.631 Y167.271
G1 X131.273 Y167.114
G1 X132.917 Y166.953
G1 X134.561 Y166.789
G1 X136.205 Y166.620
G1 X137.850 Y166.449
G1 X138.572 Y166.379
G1 X139.292 Y166.301
G1 X140.013 Y166.216
G1 X140.733 Y166.124
G1 X141.007 Y166.094
G1 X141.282 Y166.058
G1 X141.555 Y166.018
G1 X141.828 Y165.973
G1 X141.979 Y165.953
G1 X142.129 Y165.927
G1 X142.277 Y165.896
G1 X142.424 Y165.860
G1 X142.570 Y165.818
G1 X142.713 Y165.772
G1 X142.854 Y165.721
G1 X142.994 Y165.665
G1 X143.056 Y165.639
G1 X143.116 Y165.609
G1 X143.173 Y165.576
G1 X143.226 Y165.538
G1 X143.276 Y165.498
G1 X143.323 Y165.454
G1 X143.365 Y165.408
G1 X143.404 Y165.359
G1 X143.450 Y165.294
G1 X143.536 Y165.143
G1 X143.619 Y164.990
G1 X143.698 Y164.836
G1 X143.774 Y164.680
G1 X143.846 Y164.522
G1 X143.915 Y164.363
G1 X143.980 Y164.203
G1 X144.041 Y164.041
G1 X144.164 Y163.615
G1 X144.279 Y163.187
G1 X144.388 Y162.757
G1 X144.491 Y162.325
G1 X144.567 Y162.019
G1 X144.694 Y161.477
G1 X144.823 Y160.935
G1 X144.952 Y160.393
G1 X145.083 Y159.851
G1 X145.305 Y158.915
G1 X145.536 Y157.981
G1 X145.773 Y157.048
G1 X146.019 Y156.117
G1 X146.272 Y155.186
G1 X146.532 Y154.257
G1 X146.800 Y153.330
G1 X147.075 Y152.404
G1 X147.358 Y151.480
G1 X147.648 Y150.558
G1 X147.946 Y149.637
G1 X148.251 Y148.718
G1 X148.491 Y148.004
G1 X148.636 Y147.584
G1 X148.784 Y147.165
G1 X148.936 Y146.746
G1 X149.091 Y146.329
G1 X149.250 Y145.912
G1 X149.411 Y145.496
G1 X149.576 Y145.082
G1 X149.745 Y144.668
G1 X150.133 Y143.722
G1 X150.526 Y142.777
G1 X150.924 Y141.833
G1 X151.326 Y140.891
G1 X151.734 Y139.951
G1 X152.146 Y139.011
G1 X152.563 Y138.073
G1 X152.985 Y137.137
G1 X153.394 Y136.244
G1 X153.807 Y135.353
G1 X154.225 Y134.463
G1 X154.647 Y133.574
G1 X155.073 Y132.687
G1 X155.504 Y131.801
G1 X155.938 Y130.916
G1 X156.377 Y130.033
G1 X156.673 Y129.461
G1 X156.974 Y128.892
G1 X157.280 Y128.325
G1 X157.593 Y127.760
G1 X157.911 Y127.199
G1 X158.235 Y126.640
G1 X158.564 Y126.083
G1 X158.899 Y125.530
G1 X159.300 Y124.869
G1 X159.703 Y124.208
G1 X160.108 Y123.549
G1 X160.515 Y122.890
G1 X160.902 Y122.268
G1 X161.294 Y121.647
G1 X161.689 Y121.028
G1 X162.088 Y120.412
G1 X162.491 Y119.797
G1 X162.899 Y119.185
G1 X163.310 Y118.575
G1 X163.725 Y117.967
G1 X164.145 Y117.361
G1 X164.568 Y116.757
G1 X164.995 Y116.156
G1 X165.427 Y115.557
G1 X165.867 Y114.946
G1 X166.308 Y114.336
G1 X166.752 Y113.726
G1 X167.197 Y113.117
G1 X167.440 Y112.794
G1 X167.678 Y112.467
G1 X167.912 Y112.136
G1 X168.140 Y111.802
G1 X168.215 Y111.693
G1 X168.281 Y111.592
G1 X168.338 Y111.503
G1 X168.391 Y111.413
G1 X168.439 Y111.320
G1 X168.483 Y111.225
G1 X168.522 Y111.129
G1 X168.556 Y111.032
G1 X168.585 Y110.933
G1 X168.610 Y110.833
G1 X168.639 Y110.656
G1 X168.661 Y110.478
G1 X168.674 Y110.299
G1 X168.680 Y110.121
G1 X168.678 Y109.943
G1 X168.669 Y109.765
G1 X168.652 Y109.588
G1 X168.627 Y109.413
G1 X168.614 Y109.337
G1 X168.598 Y109.261
G1 X168.580 Y109.186
G1 X168.559 Y109.112
G1 X168.536 Y109.040
G1 X168.511 Y108.968
G1 X168.483 Y108.898
G1 X168.453 Y108.829
G1 X168.179 Y108.395
G1 X167.900 Y107.963
G1 X167.617 Y107.534
G1 X167.330 Y107.108
G1 X166.935 Y106.527
G1 X165.817 Y104.939
G1 X164.695 Y103.353
G1 X163.569 Y101.768
G1 X162.440 Y100.185
G1 X161.306 Y98.603
G1 X160.168 Y97.023
G1 X159.027 Y95.444
G1 X157.882 Y93.866
G1 X157.567 Y93.425
G1 X157.330 Y93.093
G1 X157.273 Y92.996
G1 X157.214 Y92.902
G1 X157.153 Y92.810
G1 X157.089 Y92.720
G1 X157.022 Y92.632
G1 X156.952 Y92.546
G1 X156.881 Y92.463
G1 X156.807 Y92.383
G1 X156.681 Y92.268
G1 X156.550 Y92.160
G1 X156.415 Y92.058
G1 X156.276 Y91.962
G1 X156.132 Y91.874
G1 X155.986 Y91.793
G1 X155.835 Y91.718
G1 X155.682 Y91.652
G1 X155.527 Y91.593
G1 X155.369 Y91.541
G1 X155.209 Y91.497
G1 X155.048 Y91.461
G1 X155.034 Y91.450
G1 X154.949 Y91.446
G1 X154.864 Y91.444
G1 X154.780 Y91.446
G1 X154.696 Y91.449
G1 X154.612 Y91.455
G1 X154.528 Y91.463
G1 X154.445 Y91.474
G1 X154.363 Y91.487
G1 X154.232 Y91.511
G1 X153.595 Y91.683
G1 X152.961 Y91.864
G1 X152.328 Y92.053
G1 X151.698 Y92.250
G1 X150.701 Y92.565
G1 X149.700 Y92.873
G1 X148.697 Y93.172
G1 X147.690 Y93.463
G1 X146.681 Y93.747
G1 X145.668 Y94.022
G1 X144.653 Y94.290
G1 X143.635 Y94.549
G1 X142.614 Y94.801
G1 X141.591 Y95.044
G1 X140.565 Y95.280
G1 X139.537 Y95.507
G1 X138.506 Y95.726
G1 X137.473 Y95.937
G1 X136.437 Y96.140
G1 X135.400 Y96.334
G1 X134.360 Y96.521
G1 X133.318 Y96.699
G1 X132.274 Y96.869
G1 X131.228 Y97.030
G1 X130.180 Y97.184
G1 X129.130 Y97.329
G1 X128.078 Y97.465
G1 X127.025 Y97.594
G1 X126.012 Y97.709
G1 X124.997 Y97.816
G1 X123.980 Y97.915
G1 X122.962 Y98.006
G1 X121.943 Y98.089
G1 X120.923 Y98.164
G1 X119.901 Y98.231
G1 X118.879 Y98.291
G1 X117.855 Y98.342
G1 X116.830 Y98.385
G1 X115.805 Y98.421
G1 X114.778 Y98.448
G1 X113.751 Y98.467
G1 X112.723 Y98.479
G1 X111.694 Y98.482
G1 X110.664 Y98.477
G1 X109.635 Y98.464
G1 X108.604 Y98.443
G1 X107.573 Y98.415
G1 X106.542 Y98.377
G1 X105.570 Y98.337
G1 X104.599 Y98.289
G1 X103.627 Y98.233
G1 X102.655 Y98.169
G1 X101.682 Y98.097
G1 X100.710 Y98.017
G1 X99.738 Y97.929
G1 X98.767 Y97.833
G1 X98.250 Y97.779
G1 X97.773 Y97.725
G1 X97.295 Y97.674
G1 X96.818 Y97.624
G1 X96.339 Y97.577
G1 X95.860 Y97.533
G1 X95.381 Y97.490
G1 X94.901 Y97.450
G1 X94.421 Y97.412
G1 X94.259 Y97.396
G1 X94.097 Y97.389
G1 X93.935 Y97.389
G1 X93.773 Y97.397
G1 X93.612 Y97.413
G1 X93.453 Y97.437
G1 X93.295 Y97.468
G1 X93.139 Y97.508
G1 X92.986 Y97.554
G1 X92.835 Y97.608
G1 X92.688 Y97.669
G1 X92.545 Y97.738
G1 X92.411 Y97.805
G1 X92.280 Y97.876
G1 X92.151 Y97.951
G1 X92.024 Y98.029
G1 X91.516 Y98.395
G1 X87.482 Y107.534
G1 X87.115 Y108.339
G1 X86.759 Y109.119
G1 X86.415 Y109.874
G1 X85.768 Y111.321
G1 X85.123 Y112.771
G1 X84.482 Y114.222
G1 X83.844 Y115.676
G1 X83.683 Y116.022
G1 X83.523 Y116.369
G1 X83.366 Y116.717
G1 X83.210 Y117.066
G1 X83.149 Y117.191
G1 X83.094 Y117.318
G1 X83.043 Y117.447
G1 X82.997 Y117.577
G1 X82.956 Y117.708
G1 X82.920 Y117.841
G1 X82.889 Y117.974
G1 X82.863 Y118.108
G1 X82.841 Y118.240
G1 X82.825 Y118.373
G1 X82.815 Y118.506
G1 X82.812 Y118.638
G1 X82.814 Y118.770
G1 X82.822 Y118.901
G1 X82.837 Y119.032
G1 X82.857 Y119.161
G1 X82.883 Y119.288
G1 X82.915 Y119.414
G1 X82.953 Y119.537
G1 X82.996 Y119.658
G1 X83.045 Y119.777
G1 X83.099 Y119.893
G1 X83.159 Y120.005
G1 X83.223 Y120.114
G1 X83.293 Y120.220
G1 X83.367 Y120.322
G1 X83.446 Y120.420
G1 X83.529 Y120.514
G1 X84.031 Y121.014
G1 X84.538 Y121.510
G1 X85.050 Y122.002
G1 X85.567 Y122.488
G1 X86.119 Y123.005
G1 X86.670 Y123.524
G1 X87.219 Y124.046
G1 X87.766 Y124.570
G1 X88.312 Y125.095
G1 X88.857 Y125.624
G1 X89.400 Y126.154
G1 X89.941 Y126.686
G1 X90.746 Y127.481
G1 X91.529 Y128.266
G1 X92.116 Y128.862
G1 X92.700 Y129.463
G1 X93.279 Y130.069
G1 X93.856 Y130.678
G1 X94.428 Y131.292
G1 X94.997 Y131.910
G1 X95.561 Y132.532
G1 X96.122 Y133.158
G1 X96.679 Y133.789
G1 X97.233 Y134.423
G1 X97.782 Y135.062
G1 X98.327 Y135.704
G1 X98.869 Y136.351
G1 X99.406 Y137.002
G1 X99.939 Y137.657
G1 X100.468 Y138.315
G1 X101.077 Y139.077
G1 X101.680 Y139.844
G1 X102.278 Y140.616
G1 X102.871 Y141.392
G1 X103.458 Y142.173
G1 X104.040 Y142.960
G1 X104.616 Y143.750
G1 X105.187 Y144.546
G1 X105.753 Y145.346
G1 X106.313 Y146.151
G1 X106.867 Y146.960
G1 X107.416 Y147.773
G1 X107.959 Y148.592
G1 X108.497 Y149.414
G1 X109.029 Y150.241
G1 X109.555 Y151.073
G1 X110.075 Y151.908
G1 X110.590 Y152.748
G1 X111.098 Y153.593
G1 X111.601 Y154.441
G1 X112.098 Y155.293
G1 X112.589 Y156.150
G1 X113.074 Y157.011
G1 X113.553 Y157.875
G1 X114.026 Y158.744
G1 X114.493 Y159.616
G1 X114.954 Y160.493
G1 X115.409 Y161.373
G1 X115.814 Y162.170
G1 X116.215 Y162.970
G1 X116.612 Y163.772
G1 X117.004 Y164.578
G1 X117.392 Y165.386
G1 X117.775 Y166.196
G1 X118.154 Y167.010
G1 X118.528 Y167.826
G1 X118.853 Y168.547
G1 X119.183 Y169.265
G1 X119.520 Y169.982
G1 X119.862 Y170.696
G1 X119.929 Y170.840
G1 X119.999 Y170.984
G1 X120.070 Y171.126
G1 X120.144 Y171.267
G1 X120.202 Y171.381
G1 X120.265 Y171.492
G1 X120.332 Y171.600
G1 X120.404 Y171.704
G1 X120.480 Y171.805
G1 X120.560 Y171.903
G1 X120.645 Y171.996
G1 X120.733 Y172.086
G1 X120.828 Y172.179
G1 X120.927 Y172.268
G1 X121.030 Y172.353
G1 X121.135 Y172.433
G1 X121.244 Y172.508
G1 X121.355 Y172.578
G1 X121.469 Y172.643
G1 X121.585 Y172.704
G1 X121.703 Y172.759
G1 X121.823 Y172.808
G1 X121.945 Y172.853
G1 X122.068 Y172.891
G1 X122.192 Y172.925
G1 X122.318 Y172.953
G1 X122.443 Y172.975
G1 X122.569 Y172.992
G1 X122.683 Y173.005
G1 X122.799 Y173.016
G1 X123.308 Y172.991
G1 X123.818 Y172.960
G1 X124.327 Y172.925
G1 X124.836 Y172.884
G1 X126.680 Y172.697
G1 X128.524 Y172.505
G1 X130.368 Y172.310
G1 X132.213 Y172.110
G1 X134.058 Y171.906
G1 X135.904 Y171.698
G1 X137.750 Y171.485
G1 X139.597 Y171.269
G1 X140.408 Y171.178
G1 X141.218 Y171.079
G1 X142.028 Y170.972
G1 X142.837 Y170.857
G1 X143.147 Y170.816
G1 X143.457 Y170.770
G1 X143.766 Y170.719
G1 X144.074 Y170.662
G1 X144.245 Y170.635
G1 X144.415 Y170.601
G1 X144.583 Y170.562
G1 X144.750 Y170.517
G1 X144.915 Y170.466
G1 X145.077 Y170.409
G1 X145.237 Y170.348
G1 X145.395 Y170.280
G1 X145.467 Y170.248
G1 X145.535 Y170.211
G1 X145.601 Y170.170
G1 X145.663 Y170.125
G1 X145.720 Y170.076
G1 X145.774 Y170.024
G1 X145.823 Y169.968
G1 X145.868 Y169.910
G1 X145.921 Y169.834
G1 X146.018 Y169.661
G1 X146.110 Y169.487
G1 X146.199 Y169.310
G1 X146.283 Y169.131
G1 X146.364 Y168.951
G1 X146.441 Y168.769
G1 X146.513 Y168.586
G1 X146.582 Y168.401
G1 X146.714 Y167.919
G1 X146.839 Y167.434
G1 X146.956 Y166.948
G1 X147.067 Y166.459
G1 X147.148 Y166.114
G1 X147.285 Y165.502
G1 X147.422 Y164.889
G1 X147.560 Y164.277
G1 X147.699 Y163.664
G1 X147.935 Y162.610
G1 X148.179 Y161.557
G1 X148.432 Y160.505
G1 X148.693 Y159.454
G1 X148.962 Y158.405
G1 X149.240 Y157.358
G1 X149.526 Y156.312
G1 X149.820 Y155.267
G1 X150.122 Y154.225
G1 X150.433 Y153.184
G1 X150.752 Y152.145
G1 X151.079 Y151.107
G1 X151.336 Y150.302
G1 X151.492 Y149.826
G1 X151.652 Y149.352
G1 X151.815 Y148.878
G1 X151.983 Y148.406
G1 X152.153 Y147.934
G1 X152.328 Y147.463
G1 X152.506 Y146.993
G1 X152.688 Y146.525
G1 X153.106 Y145.456
G1 X153.530 Y144.388
G1 X153.959 Y143.322
G1 X154.393 Y142.258
G1 X154.833 Y141.195
G1 X155.278 Y140.133
G1 X155.728 Y139.073
G1 X156.183 Y138.015
G1 X156.624 Y137.005
G1 X157.071 Y135.998
G1 X157.522 Y134.991
G1 X157.977 Y133.986
G1 X158.437 Y132.982
G1 X158.902 Y131.980
G1 X159.372 Y130.980
G1 X159.846 Y129.981
G1 X160.165 Y129.333
G1 X160.490 Y128.687
G1 X160.822 Y128.045
G1 X161.160 Y127.405
G1 X161.504 Y126.768
G1 X161.855 Y126.134
G1 X162.212 Y125.503
G1 X162.575 Y124.875
G1 X163.009 Y124.125
G1 X163.447 Y123.376
G1 X163.886 Y122.628
G1 X164.328 Y121.880
G1 X164.747 Y121.174
G1 X165.171 Y120.470
G1 X165.600 Y119.767
G1 X166.033 Y119.067
G1 X166.470 Y118.370
G1 X166.912 Y117.674
G1 X167.358 Y116.981
G1 X167.809 Y116.290
G1 X168.264 Y115.601
G1 X168.723 Y114.915
G1 X169.187 Y114.232
G1 X169.655 Y113.550
G1 X170.133 Y112.856
G1 X170.613 Y112.162
G1 X171.094 Y111.469
G1 X171.577 Y110.776
G1 X171.839 Y110.407
G1 X172.097 Y110.034
G1 X172.349 Y109.657
G1 X172.595 Y109.277
G1 X172.674 Y109.151
G1 X172.744 Y109.034
G1 X172.803 Y108.932
G1 X172.858 Y108.827
G1 X172.907 Y108.720
G1 X172.951 Y108.611
G1 X172.990 Y108.500
G1 X173.024 Y108.388
G1 X173.052 Y108.275
G1 X173.075 Y108.161
G1 X173.102 Y107.959
G1 X173.119 Y107.758
G1 X173.128 Y107.556
G1 X173.129 Y107.354
G1 X173.120 Y107.152
G1 X173.103 Y106.952
G1 X173.077 Y106.753
G1 X173.043 Y106.555
G1 X173.024 Y106.467
G1 X173.002 Y106.381
G1 X172.978 Y106.296
G1 X172.950 Y106.211
G1 X172.920 Y106.129
G1 X172.888 Y106.047
G1 X172.853 Y105.967
G1 X172.815 Y105.889
G1 X172.496 Y105.408
G1 X172.173 Y104.930
G1 X171.844 Y104.455
G1 X171.510 Y103.983
G1 X171.053 Y103.341
G1 X169.764 Y101.591
G1 X168.471 Y99.843
G1 X167.174 Y98.097
G1 X165.872 Y96.353
G1 X164.565 Y94.611
G1 X163.254 Y92.871
G1 X161.938 Y91.133
G1 X160.618 Y89.397
G1 X160.253 Y88.910
G1 X159.977 Y88.544
G1 X159.909 Y88.437
G1 X159.837 Y88.332
G1 X159.763 Y88.230
G1 X159.686 Y88.130
G1 X159.606 Y88.032
G1 X159.523 Y87.938
G1 X159.438 Y87.846
G1 X159.350 Y87.757
G1 X159.203 Y87.631
G1 X159.051 Y87.512
G1 X158.895 Y87.401
G1 X158.733 Y87.297
G1 X158.568 Y87.201
G1 X158.399 Y87.114
G1 X158.226 Y87.034
G1 X158.050 Y86.962
G1 X157.872 Y86.900
G1 X157.691 Y86.845
G1 X157.508 Y86.800
G1 X157.324 Y86.763
G1 X157.305 Y86.750
G1 X157.207 Y86.747
G1 X157.109 Y86.747
G1 X157.011 Y86.750
G1 X156.914 Y86.755
G1 X156.817 Y86.763
G1 X156.721 Y86.774
G1 X156.626 Y86.787
G1 X156.531 Y86.803
G1 X156.382 Y86.833
G1 X155.673 Y87.041
G1 X154.966 Y87.259
G1 X154.262 Y87.485
G1 X153.561 Y87.722
G1 X152.454 Y88.099
G1 X151.343 Y88.468
G1 X150.228 Y88.828
G1 X149.109 Y89.179
G1 X147.988 Y89.522
G1 X146.863 Y89.856
G1 X145.735 Y90.181
G1 X144.603 Y90.498
G1 X143.469 Y90.806
G1 X142.331 Y91.105
G1 X141.191 Y91.395
G1 X140.047 Y91.676
G1 X138.901 Y91.949
G1 X137.752 Y92.213
G1 X136.600 Y92.467
G1 X135.446 Y92.713
G1 X134.289 Y92.950
G1 X133.129 Y93.177
G1 X131.967 Y93.396
G1 X130.803 Y93.606
G1 X129.637 Y93.806
G1 X128.468 Y93.998
G1 X127.298 Y94.180
G1 X126.125 Y94.353
G1 X124.996 Y94.511
G1 X123.866 Y94.659
G1 X122.733 Y94.799
G1 X121.599 Y94.931
G1 X120.464 Y95.053
G1 X119.327 Y95.167
G1 X118.188 Y95.273
G1 X117.048 Y95.369
G1 X115.907 Y95.457
G1 X114.765 Y95.536
G1 X113.621 Y95.606
G1 X112.476 Y95.668
G1 X111.330 Y95.720
G1 X110.183 Y95.764
G1 X109.035 Y95.800
G1 X107.887 Y95.826
G1 X106.737 Y95.843
G1 X105.587 Y95.852
G1 X104.436 Y95.852
G1 X103.285 Y95.843
G1 X102.200 Y95.829
G1 X101.115 Y95.806
G1 X100.029 Y95.774
G1 X98.943 Y95.734
G1 X97.857 Y95.685
G1 X96.770 Y95.627
G1 X95.684 Y95.561
G1 X94.597 Y95.486
G1 X94.019 Y95.444
G1 X93.485 Y95.401
G1 X92.951 Y95.361
G1 X92.416 Y95.323
G1 X91.881 Y95.288
G1 X91.346 Y95.256
G1 X90.810 Y95.226
G1 X90.273 Y95.199
G1 X89.737 Y95.174
G1 X89.555 Y95.165
G1 X89.373 Y95.164
G1 X89.192 Y95.173
G1 X89.011 Y95.190
G1 X88.832 Y95.216
G1 X88.654 Y95.251
G1 X88.479 Y95.294
G1 X88.306 Y95.345
G1 X88.136 Y95.405
G1 X87.969 Y95.473
G1 X87.806 Y95.549
G1 X87.648 Y95.633
G1 X87.501 Y95.715
G1 X87.356 Y95.802
G1 X87.214 Y95.892
G1 X87.075 Y95.987
G1 X86.520 Y96.414
G1 X82.316 Y106.717
G1 X81.933 Y107.627
G1 X81.561 Y108.511
G1 X81.202 Y109.365
G1 X80.528 Y111.000
G1 X79.857 Y112.637
G1 X79.190 Y114.276
G1 X78.527 Y115.918
G1 X78.359 Y116.311
G1 X78.194 Y116.706
G1 X78.030 Y117.101
G1 X77.869 Y117.498
G1 X77.807 Y117.643
G1 X77.750 Y117.789
G1 X77.698 Y117.937
G1 X77.652 Y118.087
G1 X77.612 Y118.237
G1 X77.577 Y118.389
G1 X77.548 Y118.542
G1 X77.524 Y118.695
G1 X77.505 Y118.846
G1 X77.493 Y118.997
G1 X77.487 Y119.148
G1 X77.488 Y119.299
G1 X77.496 Y119.449
G1 X77.511 Y119.598
G1 X77.532 Y119.746
G1 X77.560 Y119.892
G1 X77.595 Y120.036
G1 X77.635 Y120.177
G1 X77.683 Y120.317
G1 X77.736 Y120.453
G1 X77.795 Y120.587
G1 X77.860 Y120.717
G1 X77.931 Y120.843
G1 X78.008 Y120.965
G1 X78.090 Y121.084
G1 X78.177 Y121.198
G1 X78.269 Y121.307
G1 X78.366 Y121.411
G1 X78.942 Y121.954
G1 X79.524 Y122.492
G1 X80.111 Y123.023
G1 X80.703 Y123.549
G1 X81.336 Y124.108
G1 X81.967 Y124.669
G1 X82.597 Y125.233
G1 X83.225 Y125.799
G1 X83.851 Y126.367
G1 X84.476 Y126.938
G1 X85.099 Y127.511
G1 X85.721 Y128.087
G1 X86.644 Y128.945
G1 X87.543 Y129.792
G1 X88.218 Y130.437
G1 X88.889 Y131.086
G1 X89.556 Y131.741
G1 X90.219 Y132.400
G1 X90.878 Y133.064
G1 X91.533 Y133.733
G1 X92.184 Y134.406
G1 X92.831 Y135.084
G1 X93.474 Y135.767
G1 X94.113 Y136.454
G1 X94.747 Y137.146
G1 X95.378 Y137.842
G1 X96.004 Y138.543
G1 X96.626 Y139.248
G1 X97.243 Y139.957
G1 X97.857 Y140.672
G1 X98.562 Y141.498
G1 X99.261 Y142.329
G1 X99.955 Y143.166
G1 X100.643 Y144.008
G1 X101.326 Y144.856
G1 X102.003 Y145.709
G1 X102.674 Y146.567
G1 X103.339 Y147.431
G1 X103.998 Y148.300
G1 X104.652 Y149.174
G1 X105.299 Y150.053
G1 X105.940 Y150.937
G1 X106.576 Y151.827
G1 X107.205 Y152.721
G1 X107.829 Y153.620
G1 X108.446 Y154.524
G1 X109.057 Y155.433
G1 X109.661 Y156.347
G1 X110.260 Y157.266
G1 X110.852 Y158.189
G1 X111.438 Y159.117
G1 X112.018 Y160.050
G1 X112.591 Y160.988
G1 X113.158 Y161.929
G1 X113.718 Y162.876
G1 X114.272 Y163.827
G1 X114.819 Y164.782
G1 X115.360 Y165.742
G1 X115.843 Y166.611
G1 X116.321 Y167.483
G1 X116.795 Y168.358
G1 X117.263 Y169.237
G1 X117.727 Y170.118
G1 X118.186 Y171.003
G1 X118.641 Y171.891
G1 X119.090 Y172.781
G1 X119.481 Y173.568
G1 X119.879 Y174.352
G1 X120.283 Y175.133
G1 X120.693 Y175.912
G1 X120.776 Y176.069
G1 X120.862 Y176.224
G1 X120.950 Y176.378
G1 X121.041 Y176.531
G1 X121.113 Y176.654
G1 X121.190 Y176.774
G1 X121.272 Y176.890
G1 X121.359 Y177.002
G1 X121.450 Y177.111
G1 X121.547 Y177.215
G1 X121.647 Y177.314
G1 X121.752 Y177.409
G1 X121.864 Y177.508
G1 X121.981 Y177.601
G1 X122.101 Y177.690
G1 X122.224 Y177.774
G1 X122.351 Y177.852
G1 X122.480 Y177.924
G1 X122.612 Y177.991
G1 X122.747 Y178.052
G1 X122.883 Y178.107
G1 X123.022 Y178.157
G1 X123.162 Y178.200
G1 X123.303 Y178.237
G1 X123.445 Y178.268
G1 X123.588 Y178.293
G1 X123.732 Y178.311
G1 X123.876 Y178.323
G1 X124.006 Y178.333
G1 X124.137 Y178.339
G1 X124.704 Y178.289
G1 X125.271 Y178.233
G1 X125.838 Y178.172
G1 X126.404 Y178.105
G1 X128.442 Y177.821
G1 X130.482 Y177.532
G1 X132.521 Y177.238
G1 X134.561 Y176.940
G1 X136.601 Y176.636
G1 X138.641 Y176.328
G1 X140.681 Y176.014
G1 X142.722 Y175.695
G1 X143.619 Y175.559
G1 X144.516 Y175.414
G1 X145.411 Y175.259
G1 X146.306 Y175.096
G1 X146.650 Y175.035
G1 X146.994 Y174.969
G1 X147.336 Y174.897
G1 X147.677 Y174.819
G1 X147.868 Y174.779
G1 X148.058 Y174.732
G1 X148.245 Y174.679
G1 X148.430 Y174.620
G1 X148.613 Y174.554
G1 X148.792 Y174.482
G1 X148.969 Y174.405
G1 X149.143 Y174.321
G1 X149.224 Y174.280
G1 X149.301 Y174.233
G1 X149.374 Y174.182
G1 X149.443 Y174.127
G1 X149.507 Y174.068
G1 X149.566 Y174.006
G1 X149.621 Y173.940
G1 X149.670 Y173.871
G1 X149.728 Y173.782
G1 X149.830 Y173.584
G1 X149.927 Y173.384
G1 X150.019 Y173.182
G1 X150.108 Y172.978
G1 X150.191 Y172.773
G1 X150.271 Y172.565
G1 X150.345 Y172.357
G1 X150.415 Y172.147
G1 X150.543 Y171.604
G1 X150.662 Y171.060
G1 X150.773 Y170.514
G1 X150.876 Y169.966
G1 X150.953 Y169.577
G1 X151.079 Y168.891
G1 X151.206 Y168.205
G1 X151.334 Y167.518
G1 X151.463 Y166.831
G1 X151.680 Y165.651
G1 X151.905 Y164.472
G1 X152.140 Y163.294
G1 X152.384 Y162.118
G1 X152.638 Y160.942
G1 X152.900 Y159.768
G1 X153.171 Y158.595
G1 X153.451 Y157.424
G1 X153.741 Y156.254
G1 X154.039 Y155.086
G1 X154.347 Y153.920
G1 X154.663 Y152.755
G1 X154.913 Y151.850
G1 X155.065 Y151.315
G1 X155.222 Y150.780
G1 X155.382 Y150.246
G1 X155.546 Y149.714
G1 X155.715 Y149.182
G1 X155.887 Y148.651
G1 X156.064 Y148.121
G1 X156.244 Y147.592
G1 X156.659 Y146.388
G1 X157.080 Y145.186
G1 X157.507 Y143.985
G1 X157.939 Y142.785
G1 X158.377 Y141.587
G1 X158.821 Y140.390
G1 X159.270 Y139.195
G1 X159.725 Y138.001
G1 X160.167 Y136.862
G1 X160.615 Y135.725
G1 X161.067 Y134.589
G1 X161.524 Y133.454
G1 X161.987 Y132.321
G1 X162.454 Y131.189
G1 X162.927 Y130.058
G1 X163.404 Y128.929
G1 X163.726 Y128.196
G1 X164.055 Y127.465
G1 X164.392 Y126.737
G1 X164.735 Y126.011
G1 X165.085 Y125.289
G1 X165.442 Y124.569
G1 X165.806 Y123.853
G1 X166.177 Y123.139
G1 X166.621 Y122.288
G1 X167.068 Y121.437
G1 X167.518 Y120.587
G1 X167.970 Y119.738
G1 X168.399 Y118.935
G1 X168.833 Y118.134
G1 X169.272 Y117.335
G1 X169.716 Y116.539
G1 X170.165 Y115.745
G1 X170.619 Y114.953
G1 X171.078 Y114.163
G1 X171.541 Y113.376
G1 X172.010 Y112.591
G1 X172.483 Y111.809
G1 X172.961 Y111.029
G1 X173.444 Y110.251
G1 X173.937 Y109.458
G1 X174.431 Y108.666
G1 X174.928 Y107.875
G1 X175.426 Y107.084
G1 X175.696 Y106.662
G1 X175.961 Y106.235
G1 X176.219 Y105.804
G1 X176.470 Y105.369
G1 X176.549 Y105.224
G1 X176.618 Y105.089
G1 X176.676 Y104.971
G1 X176.729 Y104.850
G1 X176.776 Y104.728
G1 X176.817 Y104.603
G1 X176.853 Y104.476
G1 X176.882 Y104.349
G1 X176.905 Y104.220
G1 X176.923 Y104.090
G1 X176.939 Y103.865
G1 X176.947 Y103.639
G1 X176.944 Y103.413
G1 X176.932 Y103.187
G1 X176.910 Y102.963
G1 X176.879 Y102.740
G1 X176.838 Y102.519
G1 X176.788 Y102.301
G1 X176.760 Y102.203
G1 X176.730 Y102.106
G1 X176.696 Y102.011
G1 X176.659 Y101.917
G1 X176.619 Y101.825
G1 X176.576 Y101.734
G1 X176.531 Y101.646
G1 X176.483 Y101.559
G1 X176.105 Y101.041
G1 X175.721 Y100.527
G1 X175.331 Y100.017
G1 X174.937 Y99.511
G1 X174.397 Y98.823
G1 X172.884 Y96.954
G1 X171.366 Y95.087
G1 X169.842 Y93.223
G1 X168.314 Y91.362
G1 X166.781 Y89.503
G1 X165.243 Y87.648
G1 X163.700 Y85.794
G1 X162.152 Y83.944
G1 X161.720 Y83.425
G1 X161.394 Y83.034
G1 X161.310 Y82.918
G1 X161.222 Y82.805
G1 X161.132 Y82.695
G1 X161.039 Y82.588
G1 X160.942 Y82.484
G1 X160.843 Y82.383
G1 X160.741 Y82.285
G1 X160.636 Y82.190
G1 X160.464 Y82.058
G1 X160.288 Y81.934
G1 X160.106 Y81.819
G1 X159.919 Y81.712
G1 X159.728 Y81.614
G1 X159.534 Y81.525
G1 X159.336 Y81.445
G1 X159.135 Y81.375
G1 X158.931 Y81.314
G1 X158.726 Y81.263
G1 X158.519 Y81.221
G1 X158.311 Y81.189
G1 X158.285 Y81.175
G1 X158.174 Y81.177
G1 X158.063 Y81.181
G1 X157.952 Y81.189
G1 X157.842 Y81.199
G1 X157.732 Y81.212
G1 X157.624 Y81.229
G1 X157.516 Y81.248
G1 X157.408 Y81.270
G1 X157.243 Y81.310
G1 X156.468 Y81.576
G1 X155.698 Y81.853
G1 X154.930 Y82.140
G1 X154.167 Y82.437
G1 X152.962 Y82.911
G1 X151.753 Y83.376
G1 X150.540 Y83.832
G1 X149.323 Y84.279
G1 X148.101 Y84.716
G1 X146.876 Y85.144
G1 X145.647 Y85.563
G1 X144.413 Y85.972
G1 X143.176 Y86.372
G1 X141.936 Y86.763
G1 X140.691 Y87.144
G1 X139.443 Y87.515
G1 X138.192 Y87.877
G1 X136.937 Y88.230
G1 X135.678 Y88.573
G1 X134.417 Y88.906
G1 X133.152 Y89.230
G1 X131.884 Y89.544
G1 X130.613 Y89.848
G1 X129.340 Y90.143
G1 X128.063 Y90.428
G1 X126.783 Y90.703
G1 X125.501 Y90.969
G1 X124.216 Y91.224
G1 X122.979 Y91.460
G1 X121.739 Y91.686
G1 X120.497 Y91.903
G1 X119.253 Y92.111
G1 X118.007 Y92.310
G1 X116.759 Y92.499
G1 X115.508 Y92.678
G1 X114.256 Y92.848
G1 X113.002 Y93.009
G1 X111.746 Y93.161
G1 X110.488 Y93.303
G1 X109.229 Y93.435
G1 X107.968 Y93.558
G1 X106.705 Y93.671
G1 X105.441 Y93.775
G1 X104.176 Y93.870
G1 X102.910 Y93.955
G1 X101.642 Y94.030
G1 X100.373 Y94.096
G1 X99.103 Y94.152
G1 X97.906 Y94.199
G1 X96.708 Y94.236
G1 X95.510 Y94.265
G1 X94.310 Y94.283
G1 X93.110 Y94.292
G1 X91.910 Y94.292
G1 X90.709 Y94.282
G1 X89.507 Y94.263
G1 X88.867 Y94.252
G1 X88.276 Y94.238
G1 X87.684 Y94.226
G1 X87.093 Y94.218
G1 X86.501 Y94.212
G1 X85.908 Y94.210
G1 X85.316 Y94.210
G1 X84.723 Y94.214
G1 X84.130 Y94.220
G1 X83.929 Y94.223
G1 X83.728 Y94.236
G1 X83.528 Y94.259
G1 X83.329 Y94.291
G1 X83.132 Y94.333
G1 X82.938 Y94.384
G1 X82.747 Y94.445
G1 X82.558 Y94.515
G1 X82.374 Y94.594
G1 X82.194 Y94.681
G1 X82.018 Y94.778
G1 X81.848 Y94.882
G1 X81.690 Y94.984
G1 X81.535 Y95.091
G1 X81.383 Y95.202
G1 X81.235 Y95.317
G1 X80.649 Y95.822
G1 X76.614 Y107.406
G1 X76.245 Y108.433
G1 X75.887 Y109.430
G1 X75.542 Y110.395
G1 X74.894 Y112.235
G1 X74.251 Y114.078
G1 X73.613 Y115.924
G1 X72.979 Y117.772
G1 X72.818 Y118.218
G1 X72.660 Y118.665
G1 X72.504 Y119.113
G1 X72.350 Y119.562
G1 X72.291 Y119.727
G1 X72.238 Y119.895
G1 X72.191 Y120.064
G1 X72.150 Y120.234
G1 X72.115 Y120.406
G1 X72.086 Y120.578
G1 X72.064 Y120.751
G1 X72.048 Y120.924
G1 X72.037 Y121.094
G1 X72.033 Y121.264
G1 X72.037 Y121.434
G1 X72.048 Y121.603
G1 X72.067 Y121.770
G1 X72.093 Y121.937
G1 X72.126 Y122.101
G1 X72.166 Y122.263
G1 X72.214 Y122.422
G1 X72.268 Y122.579
G1 X72.329 Y122.732
G1 X72.397 Y122.882
G1 X72.471 Y123.029
G1 X72.552 Y123.171
G1 X72.639 Y123.308
G1 X72.731 Y123.442
G1 X72.829 Y123.570
G1 X72.933 Y123.693
G1 X73.042 Y123.811
G1 X73.156 Y123.923
G1 X73.823 Y124.488
G1 X74.495 Y125.047
G1 X75.174 Y125.599
G1 X75.858 Y126.144
G1 X76.588 Y126.723
G1 X77.317 Y127.305
G1 X78.044 Y127.889
G1 X78.770 Y128.476
G1 X79.494 Y129.066
G1 X80.216 Y129.658
G1 X80.937 Y130.253
G1 X81.656 Y130.851
G1 X82.724 Y131.740
G1 X83.765 Y132.619
G1 X84.547 Y133.289
G1 X85.325 Y133.964
G1 X86.099 Y134.645
G1 X86.870 Y135.331
G1 X87.636 Y136.023
G1 X88.398 Y136.720
G1 X89.156 Y137.422
G1 X89.910 Y138.129
G1 X90.659 Y138.841
G1 X91.405 Y139.559
G1 X92.146 Y140.282
G1 X92.883 Y141.010
G1 X93.615 Y141.743
G1 X94.343 Y142.481
G1 X95.067 Y143.224
G1 X95.786 Y143.972
G1 X96.614 Y144.838
G1 X97.435 Y145.709
G1 X98.251 Y146.587
G1 X99.060 Y147.471
G1 X99.864 Y148.361
G1 X100.662 Y149.257
G1 X101.454 Y150.159
G1 X102.240 Y151.068
G1 X103.020 Y151.982
G1 X103.794 Y152.902
G1 X104.562 Y153.828
G1 X105.323 Y154.760
G1 X106.078 Y155.698
G1 X106.827 Y156.641
G1 X107.570 Y157.590
G1 X108.306 Y158.545
G1 X109.036 Y159.506
G1 X109.759 Y160.472
G1 X110.476 Y161.443
G1 X111.187 Y162.420
G1 X111.891 Y163.403
G1 X112.588 Y164.391
G1 X113.278 Y165.384
G1 X113.962 Y166.382
G1 X114.639 Y167.386
G1 X115.310 Y168.395
G1 X115.973 Y169.409
G1 X116.630 Y170.428
G1 X117.218 Y171.351
G1 X117.800 Y172.278
G1 X118.378 Y173.209
G1 X118.951 Y174.143
G1 X119.519 Y175.080
G1 X120.082 Y176.022
G1 X120.640 Y176.967
G1 X121.193 Y177.915
G1 X121.675 Y178.753
G1 X122.164 Y179.587
G1 X122.660 Y180.418
G1 X123.162 Y181.246
G1 X123.267 Y181.411
G1 X123.374 Y181.576
G1 X123.484 Y181.738
G1 X123.596 Y181.899
G1 X123.686 Y182.029
G1 X123.781 Y182.154
G1 X123.881 Y182.275
G1 X123.987 Y182.392
G1 X124.098 Y182.504
G1 X124.213 Y182.611
G1 X124.333 Y182.712
G1 X124.457 Y182.809
G1 X124.590 Y182.909
G1 X124.726 Y183.003
G1 X124.867 Y183.091
G1 X125.011 Y183.174
G1 X125.158 Y183.250
G1 X125.307 Y183.320
G1 X125.460 Y183.384
G1 X125.614 Y183.441
G1 X125.771 Y183.492
G1 X125.929 Y183.536
G1 X126.088 Y183.573
G1 X126.248 Y183.603
G1 X126.409 Y183.627
G1 X126.571 Y183.644
G1 X126.733 Y183.653
G1 X126.894 Y183.656
G1 X127.040 Y183.657
G1 X127.188 Y183.654
G1 X127.810 Y183.561
G1 X128.431 Y183.462
G1 X129.051 Y183.356
G1 X129.670 Y183.243
G1 X131.890 Y182.797
G1 X134.110 Y182.345
G1 X136.330 Y181.887
G1 X138.549 Y181.424
G1 X140.768 Y180.955
G1 X142.987 Y180.480
G1 X145.206 Y179.999
G1 X147.425 Y179.513
G1 X148.403 Y179.302
G1 X149.378 Y179.082
G1 X150.352 Y178.851
G1 X151.324 Y178.610
G1 X151.700 Y178.518
G1 X152.074 Y178.421
G1 X152.447 Y178.317
G1 X152.818 Y178.206
G1 X153.026 Y178.147
G1 X153.233 Y178.081
G1 X153.437 Y178.008
G1 X153.638 Y177.928
G1 X153.836 Y177.841
G1 X154.030 Y177.748
G1 X154.221 Y177.649
G1 X154.408 Y177.543
G1 X154.496 Y177.490
G1 X154.579 Y177.431
G1 X154.658 Y177.368
G1 X154.732 Y177.301
G1 X154.800 Y177.230
G1 X154.863 Y177.155
G1 X154.920 Y177.076
G1 X154.971 Y176.995
G1 X155.031 Y176.891
G1 X155.131 Y176.665
G1 X155.226 Y176.437
G1 X155.316 Y176.207
G1 X155.401 Y175.975
G1 X155.480 Y175.742
G1 X155.555 Y175.507
G1 X155.624 Y175.271
G1 X155.689 Y175.033
G1 X155.794 Y174.428
G1 X155.889 Y173.821
G1 X155.976 Y173.213
G1 X156.053 Y172.603
G1 X156.113 Y172.170
G1 X156.206 Y171.407
G1 X156.300 Y170.645
G1 X156.394 Y169.882
G1 X156.490 Y169.118
G1 X156.648 Y167.809
G1 X156.816 Y166.500
G1 X156.995 Y165.191
G1 X157.182 Y163.883
G1 X157.380 Y162.576
G1 X157.588 Y161.270
G1 X157.806 Y159.965
G1 X158.033 Y158.661
G1 X158.271 Y157.358
G1 X158.518 Y156.056
G1 X158.775 Y154.755
G1 X159.042 Y153.456
G1 X159.254 Y152.446
G1 X159.384 Y151.847
G1 X159.519 Y151.249
G1 X159.658 Y150.651
G1 X159.802 Y150.054
G1 X159.950 Y149.458
G1 X160.103 Y148.863
G1 X160.259 Y148.269
G1 X160.421 Y147.675
G1 X160.792 Y146.326
G1 X161.169 Y144.979
G1 X161.553 Y143.632
G1 X161.942 Y142.287
G1 X162.338 Y140.943
G1 X162.741 Y139.600
G1 X163.149 Y138.258
G1 X163.563 Y136.917
G1 X163.968 Y135.638
G1 X164.377 Y134.360
G1 X164.792 Y133.083
G1 X165.213 Y131.807
G1 X165.639 Y130.532
G1 X166.070 Y129.259
G1 X166.507 Y127.986
G1 X166.950 Y126.715
G1 X167.250 Y125.888
G1 X167.558 Y125.063
G1 X167.873 Y124.241
G1 X168.197 Y123.421
G1 X168.528 Y122.604
G1 X168.867 Y121.789
G1 X169.214 Y120.977
G1 X169.568 Y120.169
G1 X169.993 Y119.203
G1 X170.420 Y118.239
G1 X170.850 Y117.275
G1 X171.283 Y116.312
G1 X171.694 Y115.402
G1 X172.111 Y114.493
G1 X172.533 Y113.586
G1 X172.961 Y112.681
G1 X173.394 Y111.778
G1 X173.832 Y110.878
G1 X174.276 Y109.980
G1 X174.725 Y109.083
G1 X175.179 Y108.190
G1 X175.639 Y107.298
G1 X176.105 Y106.409
G1 X176.575 Y105.522
G1 X177.055 Y104.617
G1 X177.537 Y103.714
G1 X178.021 Y102.811
G1 X178.507 Y101.908
G1 X178.771 Y101.425
G1 X179.027 Y100.937
G1 X179.275 Y100.446
G1 X179.517 Y99.950
G1 X179.590 Y99.783
G1 X179.653 Y99.629
G1 X179.706 Y99.494
G1 X179.753 Y99.356
G1 X179.793 Y99.216
G1 X179.827 Y99.075
G1 X179.854 Y98.932
G1 X179.875 Y98.788
G1 X179.889 Y98.644
G1 X179.896 Y98.499
G1 X179.895 Y98.249
G1 X179.884 Y97.999
G1 X179.863 Y97.751
G1 X179.831 Y97.503
G1 X179.788 Y97.258
G1 X179.735 Y97.015
G1 X179.672 Y96.774
G1 X179.599 Y96.537
G1 X179.559 Y96.430
G1 X179.516 Y96.325
G1 X179.469 Y96.221
G1 X179.420 Y96.119
G1 X179.367 Y96.020
G1 X179.312 Y95.922
G1 X179.253 Y95.827
G1 X179.192 Y95.733
G1 X178.738 Y95.194
G1 X178.278 Y94.659
G1 X177.812 Y94.128
G1 X177.342 Y93.602
G1 X176.699 Y92.889
G1 X174.905 Y90.956
G1 X173.106 Y89.026
G1 X171.301 Y87.101
G1 X169.491 Y85.178
G1 X167.676 Y83.260
G1 X165.856 Y81.345
G1 X164.030 Y79.433
G1 X162.198 Y77.525
G1 X161.686 Y76.990
G1 X161.297 Y76.586
G1 X161.194 Y76.465
G1 X161.087 Y76.347
G1 X160.977 Y76.233
G1 X160.864 Y76.123
G1 X160.748 Y76.015
G1 X160.629 Y75.912
G1 X160.507 Y75.812
G1 X160.382 Y75.716
G1 X160.182 Y75.584
G1 X159.977 Y75.461
G1 X159.766 Y75.348
G1 X159.552 Y75.245
G1 X159.333 Y75.152
G1 X159.111 Y75.069
G1 X158.885 Y74.996
G1 X158.658 Y74.934
G1 X158.428 Y74.882
G1 X158.197 Y74.841
G1 X157.965 Y74.811
G1 X157.732 Y74.792
G1 X157.700 Y74.778
G1 X157.575 Y74.787
G1 X157.451 Y74.800
G1 X157.328 Y74.816
G1 X157.206 Y74.835
G1 X157.084 Y74.858
G1 X156.964 Y74.883
G1 X156.844 Y74.912
G1 X156.726 Y74.944
G1 X156.545 Y75.000
G1 X155.717 Y75.349
G1 X154.894 Y75.709
G1 X154.075 Y76.080
G1 X153.261 Y76.462
G1 X151.979 Y77.071
G1 X150.692 Y77.670
G1 X149.400 Y78.259
G1 X148.102 Y78.839
G1 X146.800 Y79.410
G1 X145.492 Y79.970
G1 X144.180 Y80.521
G1 X142.863 Y81.062
G1 X141.541 Y81.593
G1 X140.214 Y82.114
G1 X138.883 Y82.625
G1 X137.547 Y83.126
G1 X136.207 Y83.618
G1 X134.862 Y84.099
G1 X133.513 Y84.570
G1 X132.160 Y85.031
G1 X130.803 Y85.482
G1 X129.442 Y85.922
G1 X128.077 Y86.353
G1 X126.707 Y86.773
G1 X125.334 Y87.183
G1 X123.958 Y87.582
G1 X122.577 Y87.972
G1 X121.193 Y88.350
G1 X119.860 Y88.704
G1 X118.524 Y89.047
G1 X117.184 Y89.381
G1 X115.842 Y89.705
G1 X114.496 Y90.019
G1 X113.147 Y90.323
G1 X111.796 Y90.617
G1 X110.442 Y90.901
G1 X109.085 Y91.175
G1 X107.725 Y91.439
G1 X106.363 Y91.693
G1 X104.999 Y91.937
G1 X103.632 Y92.171
G1 X102.263 Y92.394
G1 X100.891 Y92.608
G1 X99.518 Y92.811
G1 X98.142 Y93.004
G1 X96.764 Y93.187
G1 X95.385 Y93.360
G1 X94.004 Y93.522
G1 X92.701 Y93.669
G1 X91.397 Y93.806
G1 X90.091 Y93.932
G1 X88.784 Y94.049
G1 X87.476 Y94.155
G1 X86.166 Y94.251
G1 X84.855 Y94.337
G1 X83.542 Y94.413
G1 X82.843 Y94.454
G1 X82.197 Y94.487
G1 X81.551 Y94.524
G1 X80.904 Y94.564
G1 X80.258 Y94.607
G1 X79.612 Y94.654
G1 X78.965 Y94.703
G1 X78.319 Y94.757
G1 X77.672 Y94.813
G1 X77.453 Y94.835
G1 X77.234 Y94.868
G1 X77.018 Y94.912
G1 X76.803 Y94.965
G1 X76.592 Y95.030
G1 X76.383 Y95.104
G1 X76.179 Y95.188
G1 X75.979 Y95.282
G1 X75.784 Y95.385
G1 X75.594 Y95.498
G1 X75.410 Y95.620
G1 X75.233 Y95.750
G1 X75.068 Y95.877
G1 X74.907 Y96.009
G1 X74.750 Y96.145
G1 X74.598 Y96.285
G1 X73.999 Y96.885
G1 X70.524 Y109.832
G1 X70.204 Y110.984
G1 X69.895 Y112.102
G1 X69.595 Y113.183
G1 X69.038 Y115.243
G1 X68.485 Y117.305
G1 X67.938 Y119.370
G1 X67.396 Y121.437
G1 X67.257 Y121.938
G1 X67.121 Y122.441
G1 X66.988 Y122.944
G1 X66.858 Y123.448
G1 X66.808 Y123.636
G1 X66.764 Y123.826
G1 X66.727 Y124.017
G1 X66.698 Y124.208
G1 X66.675 Y124.400
G1 X66.659 Y124.593
G1 X66.649 Y124.786
G1 X66.647 Y124.978
G1 X66.650 Y125.167
G1 X66.661 Y125.356
G1 X66.679 Y125.543
G1 X66.706 Y125.729
G1 X66.741 Y125.912
G1 X66.784 Y126.094
G1 X66.835 Y126.273
G1 X66.893 Y126.449
G1 X66.959 Y126.621
G1 X67.032 Y126.790
G1 X67.112 Y126.955
G1 X67.199 Y127.115
G1 X67.293 Y127.271
G1 X67.393 Y127.422
G1 X67.500 Y127.568
G1 X67.613 Y127.708
G1 X67.732 Y127.842
G1 X67.856 Y127.970
G1 X67.985 Y128.092
G1 X68.119 Y128.207
G1 X68.893 Y128.771
G1 X69.672 Y129.327
G1 X70.457 Y129.875
G1 X71.247 Y130.416
G1 X72.091 Y130.989
G1 X72.933 Y131.565
G1 X73.774 Y132.144
G1 X74.613 Y132.726
G1 X75.450 Y133.310
G1 X76.287 Y133.898
G1 X77.121 Y134.488
G1 X77.955 Y135.082
G1 X79.192 Y135.964
G1 X80.397 Y136.837
G1 X81.305 Y137.504
G1 X82.209 Y138.177
G1 X83.109 Y138.856
G1 X84.005 Y139.541
G1 X84.897 Y140.232
G1 X85.786 Y140.929
G1 X86.670 Y141.632
G1 X87.550 Y142.341
G1 X88.426 Y143.056
G1 X89.298 Y143.777
G1 X90.165 Y144.504
G1 X91.029 Y145.236
G1 X91.888 Y145.975
G1 X92.743 Y146.719
G1 X93.593 Y147.468
G1 X94.440 Y148.224
G1 X95.413 Y149.098
G1 X96.380 Y149.979
G1 X97.342 Y150.867
G1 X98.298 Y151.762
G1 X99.248 Y152.665
G1 X100.193 Y153.574
G1 X101.131 Y154.490
G1 X102.063 Y155.414
G1 X102.990 Y156.344
G1 X103.910 Y157.281
G1 X104.824 Y158.225
G1 X105.732 Y159.175
G1 X106.633 Y160.133
G1 X107.528 Y161.097
G1 X108.417 Y162.067
G1 X109.300 Y163.044
G1 X110.176 Y164.028
G1 X111.046 Y165.018
G1 X111.909 Y166.015
G1 X112.765 Y167.018
G1 X113.615 Y168.027
G1 X114.458 Y169.043
G1 X115.294 Y170.065
G1 X116.124 Y171.093
G1 X116.947 Y172.127
G1 X117.763 Y173.168
G1 X118.572 Y174.214
G1 X119.374 Y175.267
G1 X120.093 Y176.221
G1 X120.807 Y177.179
G1 X121.516 Y178.141
G1 X122.220 Y179.108
G1 X122.918 Y180.079
G1 X123.612 Y181.054
G1 X124.301 Y182.033
G1 X124.984 Y183.017
G1 X125.582 Y183.886
G1 X126.187 Y184.751
G1 X126.799 Y185.611
G1 X127.418 Y186.467
G1 X127.548 Y186.638
G1 X127.681 Y186.806
G1 X127.817 Y186.972
G1 X127.955 Y187.137
G1 X128.066 Y187.269
G1 X128.182 Y187.396
G1 X128.304 Y187.518
G1 X128.432 Y187.635
G1 X128.564 Y187.746
G1 X128.701 Y187.851
G1 X128.842 Y187.950
G1 X128.988 Y188.043
G1 X129.143 Y188.139
G1 X129.303 Y188.229
G1 X129.465 Y188.312
G1 X129.631 Y188.388
G1 X129.800 Y188.457
G1 X129.971 Y188.520
G1 X130.145 Y188.575
G1 X130.320 Y188.622
G1 X130.497 Y188.663
G1 X130.675 Y188.696
G1 X130.854 Y188.721
G1 X131.033 Y188.739
G1 X131.213 Y188.750
G1 X131.392 Y188.753
G1 X131.571 Y188.748
G1 X131.749 Y188.736
G1 X131.911 Y188.724
G1 X132.073 Y188.706
G1 X132.743 Y188.550
G1 X133.412 Y188.387
G1 X134.079 Y188.218
G1 X134.744 Y188.041
G1 X137.120 Y187.363
G1 X139.495 Y186.679
G1 X141.869 Y185.989
G1 X144.242 Y185.293
G1 X146.614 Y184.590
G1 X148.986 Y183.881
G1 X151.356 Y183.165
G1 X153.726 Y182.443
G1 X154.771 Y182.128
G1 X155.813 Y181.801
G1 X156.853 Y181.464
G1 X157.889 Y181.116
G1 X158.291 Y180.982
G1 X158.691 Y180.841
G1 X159.088 Y180.694
G1 X159.483 Y180.539
G1 X159.706 Y180.455
G1 X159.927 Y180.363
G1 X160.143 Y180.263
G1 X160.356 Y180.157
G1 X160.565 Y180.043
G1 X160.770 Y179.923
G1 X160.970 Y179.796
G1 X161.166 Y179.663
G1 X161.258 Y179.595
G1 X161.345 Y179.522
G1 X161.426 Y179.445
G1 X161.502 Y179.363
G1 X161.571 Y179.277
G1 X161.635 Y179.188
G1 X161.691 Y179.096
G1 X161.741 Y179.001
G1 X161.799 Y178.880
G1 X161.889 Y178.624
G1 X161.974 Y178.365
G1 X162.052 Y178.105
G1 X162.126 Y177.844
G1 X162.193 Y177.582
G1 X162.255 Y177.318
G1 X162.311 Y177.053
G1 X162.362 Y176.788
G1 X162.424 Y176.119
G1 X162.475 Y175.450
G1 X162.517 Y174.780
G1 X162.548 Y174.109
G1 X162.576 Y173.631
G1 X162.612 Y172.793
G1 X162.647 Y171.955
G1 X162.684 Y171.117
G1 X162.722 Y170.278
G1 X162.779 Y168.841
G1 X162.847 Y167.403
G1 X162.926 Y165.965
G1 X163.015 Y164.528
G1 X163.115 Y163.090
G1 X163.226 Y161.652
G1 X163.347 Y160.215
G1 X163.479 Y158.778
G1 X163.622 Y157.341
G1 X163.775 Y155.905
G1 X163.940 Y154.469
G1 X164.114 Y153.033
G1 X164.255 Y151.917
G1 X164.344 Y151.253
G1 X164.437 Y150.591
G1 X164.535 Y149.928
G1 X164.638 Y149.266
G1 X164.746 Y148.605
G1 X164.859 Y147.943
G1 X164.977 Y147.283
G1 X165.099 Y146.623
G1 X165.381 Y145.125
G1 X165.671 Y143.628
G1 X165.966 Y142.131
G1 X166.269 Y140.636
G1 X166.578 Y139.141
G1 X166.894 Y137.646
G1 X167.217 Y136.153
G1 X167.547 Y134.660
G1 X167.870 Y133.235
G1 X168.199 Y131.810
G1 X168.535 Y130.387
G1 X168.876 Y128.964
G1 X169.223 Y127.541
G1 X169.576 Y126.120
G1 X169.935 Y124.700
G1 X170.300 Y123.280
G1 X170.551 Y122.355
G1 X170.809 Y121.431
G1 X171.077 Y120.509
G1 X171.353 Y119.589
G1 X171.638 Y118.672
G1 X171.931 Y117.757
G1 X172.232 Y116.844
G1 X172.542 Y115.934
G1 X172.915 Y114.848
G1 X173.290 Y113.762
G1 X173.668 Y112.677
G1 X174.050 Y111.592
G1 X174.412 Y110.566
G1 X174.780 Y109.542
G1 X175.154 Y108.519
G1 X175.534 Y107.498
G1 X175.921 Y106.479
G1 X176.313 Y105.462
G1 X176.711 Y104.447
G1 X177.115 Y103.433
G1 X177.525 Y102.421
G1 X177.941 Y101.412
G1 X178.363 Y100.404
G1 X178.791 Y99.399
G1 X179.227 Y98.374
G1 X179.666 Y97.349
G1 X180.106 Y96.325
G1 X180.549 Y95.302
G1 X180.788 Y94.752
G1 X181.019 Y94.199
G1 X181.242 Y93.642
G1 X181.457 Y93.082
G1 X181.519 Y92.893
G1 X181.571 Y92.719
G1 X181.614 Y92.566
G1 X181.650 Y92.411
G1 X181.678 Y92.254
G1 X181.700 Y92.096
G1 X181.714 Y91.938
G1 X181.721 Y91.779
G1 X181.721 Y91.619
G1 X181.713 Y91.461
G1 X181.687 Y91.188
G1 X181.651 Y90.917
G1 X181.602 Y90.649
G1 X181.543 Y90.382
G1 X181.472 Y90.119
G1 X181.390 Y89.859
G1 X181.298 Y89.603
G1 X181.194 Y89.351
G1 X181.139 Y89.237
G1 X181.080 Y89.126
G1 X181.018 Y89.017
G1 X180.953 Y88.910
G1 X180.884 Y88.805
G1 X180.813 Y88.703
G1 X180.738 Y88.604
G1 X180.661 Y88.507
G1 X180.117 Y87.963
G1 X179.568 Y87.425
G1 X179.013 Y86.892
G1 X178.452 Y86.365
G1 X177.687 Y85.650
G1 X175.564 Y83.721
G1 X173.436 Y81.797
G1 X171.301 Y79.877
G1 X169.161 Y77.961
G1 X167.016 Y76.051
G1 X164.865 Y74.145
G1 X162.709 Y72.243
G1 X160.547 Y70.347
G1 X159.940 Y69.814
G1 X159.479 Y69.412
G1 X159.353 Y69.290
G1 X159.224 Y69.173
G1 X159.092 Y69.059
G1 X158.956 Y68.950
G1 X158.818 Y68.845
G1 X158.677 Y68.743
G1 X158.533 Y68.647
G1 X158.387 Y68.554
G1 X158.155 Y68.430
G1 X157.919 Y68.316
G1 X157.678 Y68.213
G1 X157.434 Y68.121
G1 X157.186 Y68.040
G1 X156.935 Y67.971
G1 X156.682 Y67.913
G1 X156.427 Y67.867
G1 X156.171 Y67.832
G1 X155.914 Y67.809
G1 X155.657 Y67.798
G1 X155.401 Y67.799
G1 X155.363 Y67.787
G1 X155.226 Y67.809
G1 X155.091 Y67.834
G1 X154.956 Y67.863
G1 X154.823 Y67.895
G1 X154.691 Y67.931
G1 X154.561 Y67.970
G1 X154.432 Y68.012
G1 X154.304 Y68.058
G1 X154.111 Y68.135
G1 X153.245 Y68.591
G1 X152.386 Y69.057
G1 X151.532 Y69.536
G1 X150.685 Y70.026
G1 X149.353 Y70.805
G1 X148.014 Y71.574
G1 X146.669 Y72.334
G1 X145.318 Y73.084
G1 X143.960 Y73.823
G1 X142.596 Y74.553
G1 X141.226 Y75.273
G1 X139.850 Y75.982
G1 X138.468 Y76.682
G1 X137.079 Y77.371
G1 X135.686 Y78.050
G1 X134.286 Y78.719
G1 X132.881 Y79.377
G1 X131.470 Y80.025
G1 X130.054 Y80.663
G1 X128.632 Y81.290
G1 X127.205 Y81.906
G1 X125.772 Y82.512
G1 X124.335 Y83.108
G1 X122.892 Y83.692
G1 X121.444 Y84.266
G1 X119.992 Y84.830
G1 X118.534 Y85.382
G1 X117.072 Y85.924
G1 X115.663 Y86.434
G1 X114.249 Y86.933
G1 X112.830 Y87.422
G1 X111.408 Y87.901
G1 X109.981 Y88.370
G1 X108.551 Y88.828
G1 X107.116 Y89.275
G1 X105.678 Y89.712
G1 X104.236 Y90.139
G1 X102.790 Y90.555
G1 X101.341 Y90.961
G1 X99.888 Y91.356
G1 X98.431 Y91.740
G1 X96.971 Y92.114
G1 X95.508 Y92.477
G1 X94.042 Y92.829
G1 X92.572 Y93.171
G1 X91.100 Y93.501
G1 X89.624 Y93.822
G1 X88.146 Y94.131
G1 X86.751 Y94.416
G1 X85.354 Y94.690
G1 X83.954 Y94.953
G1 X82.552 Y95.206
G1 X81.147 Y95.448
G1 X79.740 Y95.679
G1 X78.331 Y95.900
G1 X76.919 Y96.109
G1 X76.167 Y96.223
G1 X75.472 Y96.323
G1 X74.776 Y96.427
G1 X74.082 Y96.534
G1 X73.387 Y96.645
G1 X72.693 Y96.760
G1 X71.998 Y96.878
G1 X71.305 Y97.000
G1 X70.611 Y97.125
G1 X70.376 Y97.173
G1 X70.143 Y97.232
G1 X69.913 Y97.302
G1 X69.687 Y97.383
G1 X69.464 Y97.475
G1 X69.246 Y97.578
G1 X69.034 Y97.691
G1 X68.827 Y97.814
G1 X68.626 Y97.947
G1 X68.432 Y98.089
G1 X68.245 Y98.241
G1 X68.065 Y98.401
G1 X67.900 Y98.557
G1 X67.739 Y98.717
G1 X67.583 Y98.881
G1 X67.431 Y99.050
G1 X66.842 Y99.759
G1 X64.339 Y114.085
G1 X64.106 Y115.363
G1 X63.880 Y116.603
G1 X63.662 Y117.802
G1 X63.259 Y120.084
G1 X62.863 Y122.367
G1 X62.472 Y124.653
G1 X62.088 Y126.941
G1 X61.988 Y127.498
G1 X61.891 Y128.056
G1 X61.797 Y128.614
G1 X61.706 Y129.174
G1 X61.672 Y129.384
G1 X61.644 Y129.595
G1 X61.624 Y129.807
G1 X61.612 Y130.019
G1 X61.607 Y130.231
G1 X61.609 Y130.442
G1 X61.619 Y130.653
G1 X61.637 Y130.863
G1 X61.659 Y131.070
G1 X61.690 Y131.274
G1 X61.730 Y131.476
G1 X61.779 Y131.676
G1 X61.836 Y131.874
G1 X61.901 Y132.067
G1 X61.974 Y132.258
G1 X62.055 Y132.444
G1 X62.144 Y132.626
G1 X62.241 Y132.803
G1 X62.345 Y132.975
G1 X62.456 Y133.142
G1 X62.574 Y133.303
G1 X62.698 Y133.458
G1 X62.829 Y133.607
G1 X62.966 Y133.749
G1 X63.108 Y133.884
G1 X63.256 Y134.012
G1 X63.409 Y134.133
G1 X63.566 Y134.246
G1 X64.458 Y134.781
G1 X65.355 Y135.307
G1 X66.257 Y135.824
G1 X67.165 Y136.331
G1 X68.133 Y136.869
G1 X69.100 Y137.410
G1 X70.065 Y137.954
G1 X71.029 Y138.501
G1 X71.993 Y139.052
G1 X72.954 Y139.605
G1 X73.915 Y140.162
G1 X74.874 Y140.722
G1 X76.297 Y141.555
G1 X77.685 Y142.379
G1 X78.732 Y143.011
G1 X79.775 Y143.650
G1 X80.815 Y144.295
G1 X81.851 Y144.948
G1 X82.883 Y145.607
G1 X83.912 Y146.273
G1 X84.936 Y146.945
G1 X85.957 Y147.625
G1 X86.975 Y148.311
G1 X87.988 Y149.004
G1 X88.997 Y149.703
G1 X90.003 Y150.409
G1 X91.004 Y151.122
G1 X92.002 Y151.841
G1 X92.995 Y152.566
G1 X93.984 Y153.299
G1 X95.122 Y154.146
G1 X96.254 Y155.002
G1 X97.382 Y155.865
G1 X98.503 Y156.737
G1 X99.619 Y157.617
G1 X100.729 Y158.505
G1 X101.834 Y159.401
G1 X102.933 Y160.305
G1 X104.026 Y161.217
G1 X105.113 Y162.137
G1 X106.194 Y163.064
G1 X107.269 Y164.000
G1 X108.338 Y164.943
G1 X109.401 Y165.894
G1 X110.458 Y166.853
G1 X111.508 Y167.819
G1 X112.553 Y168.793
G1 X113.591 Y169.774
G1 X114.622 Y170.763
G1 X115.647 Y171.760
G1 X116.666 Y172.764
G1 X117.678 Y173.775
G1 X118.684 Y174.793
G1 X119.683 Y175.819
G1 X120.675 Y176.852
G1 X121.660 Y177.893
G1 X122.638 Y178.940
G1 X123.610 Y179.994
G1 X124.482 Y180.951
G1 X125.349 Y181.912
G1 X126.212 Y182.878
G1 X127.069 Y183.850
G1 X127.921 Y184.826
G1 X128.769 Y185.808
G1 X129.611 Y186.794
G1 X130.448 Y187.785
G1 X131.181 Y188.662
G1 X131.922 Y189.533
G1 X132.669 Y190.398
G1 X133.424 Y191.258
G1 X133.584 Y191.427
G1 X133.746 Y191.595
G1 X133.910 Y191.759
G1 X134.078 Y191.922
G1 X134.212 Y192.052
G1 X134.353 Y192.176
G1 X134.498 Y192.294
G1 X134.649 Y192.406
G1 X134.805 Y192.511
G1 X134.965 Y192.609
G1 X135.129 Y192.701
G1 X135.297 Y192.785
G1 X135.476 Y192.872
G1 X135.659 Y192.952
G1 X135.844 Y193.024
G1 X136.032 Y193.088
G1 X136.223 Y193.144
G1 X136.416 Y193.193
G1 X136.610 Y193.233
G1 X136.806 Y193.266
G1 X137.002 Y193.290
G1 X137.199 Y193.307
G1 X137.396 Y193.315
G1 X137.593 Y193.315
G1 X137.789 Y193.307
G1 X137.985 Y193.291
G1 X138.179 Y193.266
G1 X138.372 Y193.234
G1 X138.546 Y193.203
G1 X138.721 Y193.166
G1 X139.429 Y192.929
G1 X140.135 Y192.685
G1 X140.838 Y192.434
G1 X141.539 Y192.175
G1 X144.032 Y191.203
G1 X146.524 Y190.224
G1 X149.013 Y189.239
G1 X151.502 Y188.246
G1 X153.988 Y187.247
G1 X156.473 Y186.241
G1 X158.956 Y185.229
G1 X161.437 Y184.209
G1 X162.532 Y183.761
G1 X163.623 Y183.302
G1 X164.710 Y182.832
G1 X165.792 Y182.349
G1 X166.212 Y182.163
G1 X166.630 Y181.968
G1 X167.044 Y181.767
G1 X167.455 Y181.559
G1 X167.688 Y181.443
G1 X167.916 Y181.320
G1 X168.141 Y181.189
G1 X168.360 Y181.051
G1 X168.575 Y180.905
G1 X168.784 Y180.753
G1 X168.987 Y180.594
G1 X169.185 Y180.428
G1 X169.278 Y180.344
G1 X169.366 Y180.255
G1 X169.446 Y180.161
G1 X169.520 Y180.063
G1 X169.587 Y179.962
G1 X169.647 Y179.857
G1 X169.700 Y179.750
G1 X169.745 Y179.641
G1 X169.795 Y179.504
G1 X169.867 Y179.216
G1 X169.932 Y178.927
G1 X169.992 Y178.638
G1 X170.045 Y178.347
G1 X170.091 Y178.055
G1 X170.132 Y177.763
G1 X170.166 Y177.471
G1 X170.194 Y177.178
G1 X170.193 Y176.450
G1 X170.181 Y175.722
G1 X170.158 Y174.994
G1 X170.123 Y174.267
G1 X170.106 Y173.748
G1 X170.058 Y172.840
G1 X170.012 Y171.932
G1 X169.966 Y171.024
G1 X169.921 Y170.115
G1 X169.836 Y168.560
G1 X169.762 Y167.003
G1 X169.700 Y165.446
G1 X169.649 Y163.887
G1 X169.610 Y162.327
G1 X169.582 Y160.767
G1 X169.565 Y159.205
G1 X169.560 Y157.643
G1 X169.566 Y156.080
G1 X169.584 Y154.517
G1 X169.613 Y152.953
G1 X169.654 Y151.388
G1 X169.690 Y150.170
G1 X169.718 Y149.446
G1 X169.750 Y148.721
G1 X169.788 Y147.997
G1 X169.831 Y147.272
G1 X169.879 Y146.547
G1 X169.932 Y145.823
G1 X169.990 Y145.098
G1 X170.053 Y144.374
G1 X170.203 Y142.731
G1 X170.360 Y141.089
G1 X170.524 Y139.447
G1 X170.695 Y137.805
G1 X170.873 Y136.162
G1 X171.059 Y134.521
G1 X171.251 Y132.879
G1 X171.451 Y131.237
G1 X171.652 Y129.669
G1 X171.859 Y128.101
G1 X172.072 Y126.533
G1 X172.291 Y124.965
G1 X172.517 Y123.398
G1 X172.750 Y121.831
G1 X172.988 Y120.265
G1 X173.233 Y118.698
G1 X173.406 Y117.675
G1 X173.588 Y116.654
G1 X173.780 Y115.633
G1 X173.980 Y114.614
G1 X174.191 Y113.597
G1 X174.410 Y112.581
G1 X174.639 Y111.567
G1 X174.878 Y110.554
G1 X175.165 Y109.346
G1 X175.455 Y108.138
G1 X175.748 Y106.931
G1 X176.044 Y105.724
G1 X176.326 Y104.582
G1 X176.615 Y103.441
G1 X176.910 Y102.301
G1 X177.212 Y101.162
G1 X177.520 Y100.025
G1 X177.835 Y98.889
G1 X178.156 Y97.755
G1 X178.484 Y96.622
G1 X178.818 Y95.490
G1 X179.159 Y94.360
G1 X179.507 Y93.232
G1 X179.861 Y92.105
G1 X180.222 Y90.957
G1 X180.585 Y89.808
G1 X180.951 Y88.660
G1 X181.319 Y87.513
G1 X181.517 Y86.896
