;  Created by Sandify
;  https://sandify.org
;  Version: 0.2.8
;
;  Machine type: Rectangular
;    Min X (mm): 0
;    Max X (mm): 270
;    Min Y (mm): 0
;    Max Y (mm): 300
;  Content type: shape
;  Layer:
;    Shape: Space Filler
;    Name: polygon
;    Type: Hilbert
;    Iterations: 4
;    Visible: true
;    X offset: 0
;    Y offset: 0
;    Rotate (degrees): 0
;    Reverse path: false
;    Fine tuning:
;      Connect to next layer: line
;      Draw portion of path (%): 100
;      Backtrack at end (%): 0
;      Rotate starting point (%): 0
;  Reverse export path: false
;
; File name: 'WiperHil4'
; File type: gcode
;

G1 X0.000 Y0.000
G1 X5.000 Y0.000
G1 X5.000 Y20.000
G1 X0.000 Y20.000
G1 X0.000 Y60.000
G1 X5.000 Y60.000
G1 X5.000 Y40.000
G1 X25.000 Y40.000
G1 X25.000 Y60.000
G1 X45.000 Y60.000
G1 X45.000 Y40.000
G1 X45.000 Y20.000
G1 X25.000 Y20.000
G1 X25.000 Y0.000
G1 X65.000 Y0.000
G1 X65.000 Y20.000
G1 X85.000 Y20.000
G1 X85.000 Y0.000
G1 X125.000 Y0.000
G1 X125.000 Y20.000
G1 X105.000 Y20.000
G1 X105.000 Y40.000
G1 X125.000 Y40.000
G1 X125.000 Y60.000
G1 X105.000 Y60.000
G1 X85.000 Y60.000
G1 X85.000 Y40.000
G1 X65.000 Y40.000
G1 X65.000 Y60.000
G1 X65.000 Y80.000
G1 X65.000 Y100.000
G1 X85.000 Y100.000
G1 X85.000 Y80.000
G1 X105.000 Y80.000
G1 X125.000 Y80.000
G1 X125.000 Y100.000
G1 X105.000 Y100.000
G1 X105.000 Y120.000
G1 X125.000 Y120.000
G1 X125.000 Y140.000
G1 X105.000 Y140.000
G1 X85.000 Y140.000
G1 X85.000 Y120.000
G1 X65.000 Y120.000
G1 X65.000 Y140.000
G1 X45.000 Y140.000
G1 X25.000 Y140.000
G1 X25.000 Y120.000
G1 X45.000 Y120.000
G1 X45.000 Y100.000
G1 X45.000 Y80.000
G1 X25.000 Y80.000
G1 X25.000 Y100.000
G1 X5.000 Y100.000
G1 X5.000 Y80.000
G1 X0.000 Y80.000
G1 X0.000 Y120.000
G1 X5.000 Y120.000
G1 X5.000 Y140.000
G1 X0.000 Y140.000
G1 X0.000 Y180.000
G1 X5.000 Y180.000
G1 X5.000 Y160.000
G1 X25.000 Y160.000
G1 X45.000 Y160.000
G1 X45.000 Y180.000
G1 X25.000 Y180.000
G1 X25.000 Y200.000
G1 X45.000 Y200.000
G1 X45.000 Y220.000
G1 X25.000 Y220.000
G1 X5.000 Y220.000
G1 X5.000 Y200.000
G1 X0.000 Y200.000
G1 X0.000 Y240.000
G1 X5.000 Y240.000
G1 X5.000 Y260.000
G1 X0.000 Y260.000
G1 X0.000 Y300.000
G1 X5.000 Y300.000
G1 X5.000 Y280.000
G1 X25.000 Y280.000
G1 X25.000 Y300.000
G1 X45.000 Y300.000
G1 X45.000 Y280.000
G1 X45.000 Y260.000
G1 X25.000 Y260.000
G1 X25.000 Y240.000
G1 X45.000 Y240.000
G1 X65.000 Y240.000
G1 X85.000 Y240.000
G1 X85.000 Y260.000
G1 X65.000 Y260.000
G1 X65.000 Y280.000
G1 X65.000 Y300.000
G1 X85.000 Y300.000
G1 X85.000 Y280.000
G1 X105.000 Y280.000
G1 X105.000 Y300.000
G1 X125.000 Y300.000
G1 X125.000 Y280.000
G1 X125.000 Y260.000
G1 X105.000 Y260.000
G1 X105.000 Y240.000
G1 X125.000 Y240.000
G1 X125.000 Y220.000
G1 X125.000 Y200.000
G1 X105.000 Y200.000
G1 X105.000 Y220.000
G1 X85.000 Y220.000
G1 X65.000 Y220.000
G1 X65.000 Y200.000
G1 X85.000 Y200.000
G1 X85.000 Y180.000
G1 X65.000 Y180.000
G1 X65.000 Y160.000
G1 X85.000 Y160.000
G1 X105.000 Y160.000
G1 X105.000 Y180.000
G1 X125.000 Y180.000
G1 X125.000 Y160.000
G1 X145.000 Y160.000
G1 X145.000 Y180.000
G1 X165.000 Y180.000
G1 X165.000 Y160.000
G1 X185.000 Y160.000
G1 X205.000 Y160.000
G1 X205.000 Y180.000
G1 X185.000 Y180.000
G1 X185.000 Y200.000
G1 X205.000 Y200.000
G1 X205.000 Y220.000
G1 X185.000 Y220.000
G1 X165.000 Y220.000
G1 X165.000 Y200.000
G1 X145.000 Y200.000
G1 X145.000 Y220.000
G1 X145.000 Y240.000
G1 X165.000 Y240.000
G1 X165.000 Y260.000
G1 X145.000 Y260.000
G1 X145.000 Y280.000
G1 X145.000 Y300.000
G1 X165.000 Y300.000
G1 X165.000 Y280.000
G1 X185.000 Y280.000
G1 X185.000 Y300.000
G1 X205.000 Y300.000
G1 X205.000 Y280.000
G1 X205.000 Y260.000
G1 X185.000 Y260.000
G1 X185.000 Y240.000
G1 X205.000 Y240.000
G1 X225.000 Y240.000
G1 X245.000 Y240.000
G1 X245.000 Y260.000
G1 X225.000 Y260.000
G1 X225.000 Y280.000
G1 X225.000 Y300.000
G1 X245.000 Y300.000
G1 X245.000 Y280.000
G1 X265.000 Y280.000
G1 X265.000 Y300.000
G1 X270.000 Y300.000
G1 X270.000 Y260.000
G1 X265.000 Y260.000
G1 X265.000 Y240.000
G1 X270.000 Y240.000
G1 X270.000 Y200.000
G1 X265.000 Y200.000
G1 X265.000 Y220.000
G1 X245.000 Y220.000
G1 X225.000 Y220.000
G1 X225.000 Y200.000
G1 X245.000 Y200.000
G1 X245.000 Y180.000
G1 X225.000 Y180.000
G1 X225.000 Y160.000
G1 X245.000 Y160.000
G1 X265.000 Y160.000
G1 X265.000 Y180.000
G1 X270.000 Y180.000
G1 X270.000 Y140.000
G1 X265.000 Y140.000
G1 X265.000 Y120.000
G1 X270.000 Y120.000
G1 X270.000 Y80.000
G1 X265.000 Y80.000
G1 X265.000 Y100.000
G1 X245.000 Y100.000
G1 X245.000 Y80.000
G1 X225.000 Y80.000
G1 X225.000 Y100.000
G1 X225.000 Y120.000
G1 X245.000 Y120.000
G1 X245.000 Y140.000
G1 X225.000 Y140.000
G1 X205.000 Y140.000
G1 X205.000 Y120.000
G1 X185.000 Y120.000
G1 X185.000 Y140.000
G1 X165.000 Y140.000
G1 X145.000 Y140.000
G1 X145.000 Y120.000
G1 X165.000 Y120.000
G1 X165.000 Y100.000
G1 X145.000 Y100.000
G1 X145.000 Y80.000
G1 X165.000 Y80.000
G1 X185.000 Y80.000
G1 X185.000 Y100.000
G1 X205.000 Y100.000
G1 X205.000 Y80.000
G1 X205.000 Y60.000
G1 X205.000 Y40.000
G1 X185.000 Y40.000
G1 X185.000 Y60.000
G1 X165.000 Y60.000
G1 X145.000 Y60.000
G1 X145.000 Y40.000
G1 X165.000 Y40.000
G1 X165.000 Y20.000
G1 X145.000 Y20.000
G1 X145.000 Y0.000
G1 X185.000 Y0.000
G1 X185.000 Y20.000
G1 X205.000 Y20.000
G1 X205.000 Y0.000
G1 X245.000 Y0.000
G1 X245.000 Y20.000
G1 X225.000 Y20.000
G1 X225.000 Y40.000
G1 X225.000 Y60.000
G1 X245.000 Y60.000
G1 X245.000 Y40.000
G1 X265.000 Y40.000
G1 X265.000 Y60.000
G1 X270.000 Y60.000
G1 X270.000 Y20.000
G1 X265.000 Y20.000
G1 X265.000 Y0.000

