;  Created by Sandify
;  https://sandify.org
;  Version: 0.2.8
;
;  Machine type: Rectangular
;    Min X (mm): 0
;    Max X (mm): 270
;    Min Y (mm): 0
;    Max Y (mm): 300
;  Content type: shape
;  Layer:
;    Shape: Wiper
;    Name: polygon
;    Type: Lines
;    Wiper size: 3
;    Wiper angle: 45
;    Visible: true
;    X offset: 0
;    Y offset: 0
;    Rotate (degrees): 0
;    Reverse path: false
;    Fine tuning:
;      Connect to next layer: line
;      Draw portion of path (%): 100
;      Backtrack at end (%): 0
;      Rotate starting point (%): 0
;  Reverse export path: false
;
; File name: 'WiperLine'
; File type: gcode
;

G1 X0.000 Y0.000
G1 X4.243 Y0.000
G1 X0.000 Y4.243
G1 X0.000 Y8.485
G1 X8.485 Y0.000
G1 X12.728 Y0.000
G1 X0.000 Y12.728
G1 X0.000 Y16.971
G1 X16.971 Y0.000
G1 X21.213 Y0.000
G1 X0.000 Y21.213
G1 X0.000 Y25.456
G1 X25.456 Y0.000
G1 X29.698 Y0.000
G1 X0.000 Y29.698
G1 X0.000 Y33.941
G1 X33.941 Y0.000
G1 X38.184 Y0.000
G1 X0.000 Y38.184
G1 X0.000 Y42.426
G1 X42.426 Y0.000
G1 X46.669 Y0.000
G1 X0.000 Y46.669
G1 X0.000 Y50.912
G1 X50.912 Y0.000
G1 X55.154 Y0.000
G1 X0.000 Y55.154
G1 X0.000 Y59.397
G1 X59.397 Y0.000
G1 X63.640 Y0.000
G1 X0.000 Y63.640
G1 X0.000 Y67.882
G1 X67.882 Y0.000
G1 X72.125 Y0.000
G1 X0.000 Y72.125
G1 X0.000 Y76.368
G1 X76.368 Y0.000
G1 X80.610 Y0.000
G1 X0.000 Y80.610
G1 X0.000 Y84.853
G1 X84.853 Y0.000
G1 X89.095 Y0.000
G1 X0.000 Y89.095
G1 X0.000 Y93.338
G1 X93.338 Y0.000
G1 X97.581 Y0.000
G1 X0.000 Y97.581
G1 X0.000 Y101.823
G1 X101.823 Y0.000
G1 X106.066 Y0.000
G1 X0.000 Y106.066
G1 X0.000 Y110.309
G1 X110.309 Y0.000
G1 X114.551 Y0.000
G1 X0.000 Y114.551
G1 X0.000 Y118.794
G1 X118.794 Y0.000
G1 X123.037 Y0.000
G1 X0.000 Y123.037
G1 X0.000 Y127.279
G1 X127.279 Y0.000
G1 X131.522 Y0.000
G1 X0.000 Y131.522
G1 X0.000 Y135.765
G1 X135.765 Y0.000
G1 X140.007 Y0.000
G1 X0.000 Y140.007
G1 X0.000 Y144.250
G1 X144.250 Y0.000
G1 X148.492 Y0.000
G1 X0.000 Y148.492
G1 X0.000 Y152.735
G1 X152.735 Y0.000
G1 X156.978 Y0.000
G1 X0.000 Y156.978
G1 X0.000 Y161.220
G1 X161.220 Y0.000
G1 X165.463 Y0.000
G1 X0.000 Y165.463
G1 X0.000 Y169.706
G1 X169.706 Y0.000
G1 X173.948 Y0.000
G1 X0.000 Y173.948
G1 X0.000 Y178.191
G1 X178.191 Y0.000
G1 X182.434 Y0.000
G1 X0.000 Y182.434
G1 X0.000 Y186.676
G1 X186.676 Y0.000
G1 X190.919 Y0.000
G1 X0.000 Y190.919
G1 X0.000 Y195.161
G1 X195.161 Y0.000
G1 X199.404 Y0.000
G1 X0.000 Y199.404
G1 X0.000 Y203.647
G1 X203.647 Y0.000
G1 X207.889 Y0.000
G1 X0.000 Y207.889
G1 X0.000 Y212.132
G1 X212.132 Y0.000
G1 X216.375 Y0.000
G1 X0.000 Y216.375
G1 X0.000 Y220.617
G1 X220.617 Y0.000
G1 X224.860 Y0.000
G1 X0.000 Y224.860
G1 X0.000 Y229.103
G1 X229.103 Y0.000
G1 X233.345 Y0.000
G1 X0.000 Y233.345
G1 X0.000 Y237.588
G1 X237.588 Y0.000
G1 X241.831 Y0.000
G1 X0.000 Y241.831
G1 X0.000 Y246.073
G1 X246.073 Y0.000
G1 X250.316 Y0.000
G1 X0.000 Y250.316
G1 X0.000 Y254.558
G1 X254.558 Y0.000
G1 X258.801 Y0.000
G1 X0.000 Y258.801
G1 X0.000 Y263.044
G1 X263.044 Y0.000
G1 X267.286 Y0.000
G1 X0.000 Y267.286
G1 X0.000 Y271.529
G1 X270.000 Y1.529
G1 X270.000 Y5.772
G1 X0.000 Y275.772
G1 X0.000 Y280.014
G1 X270.000 Y10.014
G1 X270.000 Y14.257
G1 X0.000 Y284.257
G1 X0.000 Y288.500
G1 X270.000 Y18.500
G1 X270.000 Y22.742
G1 X0.000 Y292.742
G1 X0.000 Y296.985
G1 X270.000 Y26.985
G1 X270.000 Y31.227
G1 X1.227 Y300.000
G1 X5.470 Y300.000
G1 X270.000 Y35.470
G1 X270.000 Y39.713
G1 X9.713 Y300.000
G1 X13.955 Y300.000
G1 X270.000 Y43.955
G1 X270.000 Y48.198
G1 X18.198 Y300.000
G1 X22.441 Y300.000
G1 X270.000 Y52.441
G1 X270.000 Y56.683
G1 X26.683 Y300.000
G1 X30.926 Y300.000
G1 X270.000 Y60.926
G1 X270.000 Y65.169
G1 X35.169 Y300.000
G1 X39.411 Y300.000
G1 X270.000 Y69.411
G1 X270.000 Y73.654
G1 X43.654 Y300.000
G1 X47.897 Y300.000
G1 X270.000 Y77.897
G1 X270.000 Y82.139
G1 X52.139 Y300.000
G1 X56.382 Y300.000
G1 X270.000 Y86.382
G1 X270.000 Y90.624
G1 X60.624 Y300.000
G1 X64.867 Y300.000
G1 X270.000 Y94.867
G1 X270.000 Y99.110
G1 X69.110 Y300.000
G1 X73.352 Y300.000
G1 X270.000 Y103.352
G1 X270.000 Y107.595
G1 X77.595 Y300.000
G1 X81.838 Y300.000
G1 X270.000 Y111.838
G1 X270.000 Y116.080
G1 X86.080 Y300.000
G1 X90.323 Y300.000
G1 X270.000 Y120.323
G1 X270.000 Y124.566
G1 X94.566 Y300.000
G1 X98.808 Y300.000
G1 X270.000 Y128.808
G1 X270.000 Y133.051
G1 X103.051 Y300.000
G1 X107.294 Y300.000
G1 X270.000 Y137.294
G1 X270.000 Y141.536
G1 X111.536 Y300.000
G1 X115.779 Y300.000
G1 X270.000 Y145.779
G1 X270.000 Y150.021
G1 X120.021 Y300.000
G1 X124.264 Y300.000
G1 X270.000 Y154.264
G1 X270.000 Y158.507
G1 X128.507 Y300.000
G1 X132.749 Y300.000
G1 X270.000 Y162.749
G1 X270.000 Y166.992
G1 X136.992 Y300.000
G1 X141.235 Y300.000
G1 X270.000 Y171.235
G1 X270.000 Y175.477
G1 X145.477 Y300.000
G1 X149.720 Y300.000
G1 X270.000 Y179.720
G1 X270.000 Y183.963
G1 X153.963 Y300.000
G1 X158.205 Y300.000
G1 X270.000 Y188.205
G1 X270.000 Y192.448
G1 X162.448 Y300.000
G1 X166.690 Y300.000
G1 X270.000 Y196.690
G1 X270.000 Y200.933
G1 X170.933 Y300.000
G1 X175.176 Y300.000
G1 X270.000 Y205.176
G1 X270.000 Y209.418
G1 X179.418 Y300.000
G1 X183.661 Y300.000
G1 X270.000 Y213.661
G1 X270.000 Y217.904
G1 X187.904 Y300.000
G1 X192.146 Y300.000
G1 X270.000 Y222.146
G1 X270.000 Y226.389
G1 X196.389 Y300.000
G1 X200.632 Y300.000
G1 X270.000 Y230.632
G1 X270.000 Y234.874
G1 X204.874 Y300.000
G1 X209.117 Y300.000
G1 X270.000 Y239.117
G1 X270.000 Y243.360
G1 X213.360 Y300.000
G1 X217.602 Y300.000
G1 X270.000 Y247.602
G1 X270.000 Y251.845
G1 X221.845 Y300.000
G1 X226.087 Y300.000
G1 X270.000 Y256.087
G1 X270.000 Y260.330
G1 X230.330 Y300.000
G1 X234.573 Y300.000
G1 X270.000 Y264.573
G1 X270.000 Y268.815
G1 X238.815 Y300.000
G1 X243.058 Y300.000
G1 X270.000 Y273.058
G1 X270.000 Y277.301
G1 X247.301 Y300.000
G1 X251.543 Y300.000
G1 X270.000 Y281.543
G1 X270.000 Y285.786
G1 X255.786 Y300.000
G1 X260.029 Y300.000
G1 X270.000 Y290.029
G1 X270.000 Y294.271
G1 X264.271 Y300.000
G1 X268.514 Y300.000
G1 X270.000 Y298.514

